lut/Fuji 160C ++.cube
#Generated by Picture Instruments - Look Creator
TITLE "Fuji 160C ++"
LUT_3D_SIZE 17
0.0862745 0.0901961 0.0666667
0.0980392 0.0941176 0.0745098
0.12549 0.0980392 0.0745098
0.156863 0.0980392 0.0705882
0.203922 0.0941176 0.0784314
0.258824 0.0862745 0.0745098
0.313725 0.0745098 0.0705882
0.388235 0.0352941 0.0705882
0.458824 0 0.0666667
0.529412 0 0.0588235
0.596078 0 0.0509804
0.65098 0 0.0470588
0.701961 0.00784314 0.0470588
0.74902 0.109804 0.0509804
0.788235 0.160784 0.0588235
0.835294 0.211765 0.0823529
0.866667 0.247059 0.0941176
0.0901961 0.117647 0.0745098
0.101961 0.113725 0.0705882
0.129412 0.113725 0.0705882
0.164706 0.117647 0.0705882
0.207843 0.113725 0.0745098
0.258824 0.109804 0.0745098
0.317647 0.101961 0.0745098
0.392157 0.0862745 0.0666667
0.458824 0.0666667 0.0666667
0.529412 0.0196078 0.0588235
0.592157 0 0.0470588
0.647059 0.0431373 0.0431373
0.698039 0.0980392 0.0431373
0.745098 0.141176 0.0470588
0.792157 0.184314 0.0627451
0.831373 0.227451 0.0784314
0.862745 0.262745 0.0901961
0.0980392 0.14902 0.0784314
0.101961 0.145098 0.0784314
0.129412 0.14902 0.0705882
0.172549 0.152941 0.0745098
0.211765 0.145098 0.0745098
0.266667 0.145098 0.0666667
0.32549 0.141176 0.0705882
0.392157 0.137255 0.0666667
0.462745 0.12549 0.0588235
0.529412 0.113725 0.0509804
0.592157 0.117647 0.0431373
0.647059 0.129412 0.0392157
0.698039 0.152941 0.0392157
0.74902 0.184314 0.0470588
0.792157 0.219608 0.0588235
0.831373 0.258824 0.0745098
0.862745 0.286275 0.0862745
0.0980392 0.188235 0.0745098
0.113725 0.188235 0.0784314
0.133333 0.192157 0.0784314
0.168627 0.196078 0.0745098
0.219608 0.2 0.0745098
0.270588 0.196078 0.0705882
0.329412 0.188235 0.0627451
0.396078 0.188235 0.0627451
0.458824 0.180392 0.054902
0.529412 0.180392 0.0470588
0.592157 0.184314 0.0392157
0.65098 0.2 0.027451
0.701961 0.211765 0.0235294
0.74902 0.235294 0.0313725
0.792157 0.262745 0.0470588
0.831373 0.294118 0.0784314
0.862745 0.317647 0.0862745
0.113725 0.239216 0.0784314
0.133333 0.243137 0.0862745
0.145098 0.243137 0.0862745
0.172549 0.243137 0.0784314
0.219608 0.247059 0.0823529
0.27451 0.258824 0.0705882
0.341176 0.254902 0.0627451
0.407843 0.25098 0.0509804
0.466667 0.243137 0.0352941
0.533333 0.247059 0.0313725
0.596078 0.247059 0.0196078
0.647059 0.258824 0.00392157
0.701961 0.27451 0.0117647
0.752941 0.294118 0.0196078
0.788235 0.313725 0.0352941
0.827451 0.341176 0.0666667
0.866667 0.364706 0.0862745
0.129412 0.305882 0.0823529
0.145098 0.305882 0.0862745
0.152941 0.298039 0.0862745
0.184314 0.305882 0.0823529
0.223529 0.305882 0.0823529
0.270588 0.309804 0.0745098
0.345098 0.32549 0.0666667
0.411765 0.321569 0.0470588
0.470588 0.317647 0.0235294
0.537255 0.313725 0
0.592157 0.313725 0
0.65098 0.317647 0
0.701961 0.333333 0
0.745098 0.34902 0
0.792157 0.368627 0.0156863
0.831373 0.392157 0.0627451
0.862745 0.407843 0.0823529
0.14902 0.368627 0.0823529
0.160784 0.368627 0.0862745
0.172549 0.368627 0.0901961
0.2 0.368627 0.0901961
0.239216 0.368627 0.0901961
0.286275 0.372549 0.0862745
0.341176 0.372549 0.0705882
0.415686 0.392157 0.054902
0.482353 0.392157 0.0235294
0.541176 0.392157 0.00392157
0.596078 0.384314 0
0.65098 0.384314 0
0.701961 0.396078 0
0.74902 0.407843 0
0.796078 0.423529 0
0.827451 0.439216 0.0313725
0.862745 0.454902 0.0745098
0.168627 0.439216 0.0901961
0.184314 0.435294 0.0941176
0.2 0.435294 0.0941176
0.219608 0.431373 0.0941176
0.254902 0.431373 0.0980392
0.298039 0.431373 0.0901961
0.34902 0.439216 0.0862745
0.407843 0.443137 0.0784314
0.482353 0.45098 0.0627451
0.545098 0.458824 0.0196078
0.6 0.462745 0
0.654902 0.462745 0
0.698039 0.458824 0
0.745098 0.462745 0
0.792157 0.478431 0.00392157
0.835294 0.490196 0.00392157
0.870588 0.498039 0.0627451
0.2 0.501961 0.0941176
0.207843 0.501961 0.0980392
0.223529 0.501961 0.101961
0.243137 0.498039 0.105882
0.27451 0.494118 0.105882
0.313725 0.494118 0.105882
0.360784 0.498039 0.0980392
0.419608 0.501961 0.0980392
0.47451 0.501961 0.0862745
0.541176 0.509804 0.0745098
0.603922 0.52549 0.0431373
0.654902 0.52549 0.00392157
0.701961 0.529412 0
0.74902 0.529412 0
0.788235 0.529412 0
0.835294 0.537255 0
0.866667 0.545098 0.054902
0.239216 0.564706 0.117647
0.247059 0.560784 0.109804
0.254902 0.564706 0.113725
0.270588 0.552941 0.113725
0.301961 0.552941 0.121569
0.333333 0.552941 0.117647
0.384314 0.556863 0.121569
0.427451 0.556863 0.113725
0.486275 0.560784 0.109804
0.545098 0.564706 0.109804
0.6 0.564706 0.0980392
0.658824 0.584314 0.0823529
0.705882 0.588235 0.0705882
0.752941 0.588235 0.054902
0.792157 0.588235 0.0470588
0.831373 0.592157 0.0431373
0.866667 0.592157 0.0509804
0.270588 0.615686 0.133333
0.282353 0.619608 0.129412
0.298039 0.619608 0.133333
0.309804 0.615686 0.133333
0.333333 0.611765 0.141176
0.360784 0.611765 0.141176
0.403922 0.607843 0.141176
0.45098 0.611765 0.141176
0.501961 0.611765 0.137255
0.552941 0.615686 0.129412
0.6 0.615686 0.133333
0.65098 0.619608 0.129412
0.709804 0.635294 0.121569
0.752941 0.643137 0.113725
0.796078 0.647059 0.117647
0.835294 0.647059 0.113725
0.870588 0.65098 0.121569
0.321569 0.670588 0.160784
0.329412 0.670588 0.160784
0.337255 0.670588 0.160784
0.34902 0.666667 0.160784
0.372549 0.666667 0.168627
0.392157 0.662745 0.164706
0.427451 0.658824 0.164706
0.470588 0.662745 0.168627
0.517647 0.658824 0.164706
0.564706 0.662745 0.164706
0.615686 0.662745 0.168627
0.654902 0.666667 0.160784
0.701961 0.67451 0.164706
0.760784 0.690196 0.164706
0.8 0.698039 0.164706
0.843137 0.701961 0.168627
0.87451 0.701961 0.172549
0.368627 0.721569 0.196078
0.376471 0.717647 0.196078
0.380392 0.717647 0.188235
0.396078 0.717647 0.192157
0.411765 0.713725 0.196078
0.435294 0.713725 0.196078
0.462745 0.709804 0.2
0.501961 0.709804 0.2
0.541176 0.709804 0.196078
0.580392 0.709804 0.2
0.627451 0.709804 0.2
0.666667 0.709804 0.2
0.705882 0.713725 0.203922
0.745098 0.717647 0.2
0.803922 0.741176 0.211765
0.843137 0.74902 0.223529
0.882353 0.74902 0.227451
0.415686 0.772549 0.227451
0.423529 0.768627 0.227451
0.427451 0.764706 0.227451
0.443137 0.764706 0.231373
0.458824 0.764706 0.235294
0.478431 0.760784 0.235294
0.498039 0.756863 0.239216
0.533333 0.756863 0.243137
0.560784 0.756863 0.243137
0.603922 0.756863 0.239216
0.643137 0.760784 0.243137
0.678431 0.760784 0.247059
0.717647 0.760784 0.247059
0.756863 0.768627 0.254902
0.796078 0.768627 0.258824
0.847059 0.792157 0.270588
0.890196 0.8 0.290196
0.47451 0.819608 0.278431
0.47451 0.819608 0.278431
0.478431 0.815686 0.278431
0.494118 0.815686 0.282353
0.501961 0.815686 0.286275
0.52549 0.811765 0.286275
0.537255 0.811765 0.290196
0.560784 0.807843 0.294118
0.596078 0.807843 0.294118
0.627451 0.811765 0.294118
0.666667 0.811765 0.298039
0.698039 0.815686 0.305882
0.733333 0.815686 0.305882
0.768627 0.819608 0.305882
0.803922 0.823529 0.317647
0.843137 0.823529 0.321569
0.890196 0.839216 0.333333
0.529412 0.870588 0.345098
0.529412 0.87451 0.341176
0.533333 0.870588 0.341176
0.545098 0.870588 0.345098
0.556863 0.870588 0.34902
0.564706 0.866667 0.34902
0.588235 0.866667 0.352941
0.603922 0.866667 0.360784
0.627451 0.866667 0.360784
0.662745 0.866667 0.368627
0.690196 0.866667 0.368627
0.717647 0.870588 0.376471
0.752941 0.87451 0.380392
0.792157 0.878431 0.388235
0.823529 0.878431 0.396078
0.862745 0.886275 0.407843
0.894118 0.886275 0.411765
0.576471 0.92549 0.419608
0.584314 0.92549 0.415686
0.584314 0.92549 0.415686
0.592157 0.92549 0.415686
0.603922 0.92549 0.419608
0.615686 0.92549 0.427451
0.631373 0.921569 0.435294
0.65098 0.92549 0.443137
0.670588 0.92549 0.45098
0.694118 0.92549 0.458824
0.721569 0.92549 0.462745
0.74902 0.929412 0.47451
0.784314 0.933333 0.482353
0.811765 0.937255 0.494118
0.85098 0.941176 0.509804
0.882353 0.945098 0.517647
0.921569 0.945098 0.529412
0.0901961 0.0980392 0.0862745
0.101961 0.0980392 0.0901961
0.129412 0.0980392 0.0901961
0.156863 0.0980392 0.0862745
0.203922 0.105882 0.0901961
0.258824 0.101961 0.0941176
0.321569 0.0901961 0.0980392
0.392157 0.0745098 0.0980392
0.458824 0.0235294 0.0901961
0.533333 0 0.0941176
0.596078 0 0.0901961
0.65098 0 0.0941176
0.705882 0.0745098 0.0941176
0.74902 0.129412 0.0941176
0.792157 0.176471 0.101961
0.831373 0.223529 0.113725
0.862745 0.258824 0.12549
0.0941176 0.117647 0.0901961
0.109804 0.121569 0.0941176
0.133333 0.121569 0.0941176
0.164706 0.12549 0.0901961
0.211765 0.121569 0.0980392
0.266667 0.121569 0.0980392
0.321569 0.113725 0.0901961
0.392157 0.101961 0.0901961
0.462745 0.0941176 0.0941176
0.52549 0.0666667 0.0901961
0.592157 0.0627451 0.0862745
0.647059 0.0823529 0.0823529
0.698039 0.113725 0.0862745
0.74902 0.152941 0.0980392
0.792157 0.196078 0.101961
0.835294 0.235294 0.113725
0.866667 0.270588 0.12549
0.101961 0.14902 0.0941176
0.117647 0.14902 0.0901961
0.137255 0.152941 0.0941176
0.176471 0.152941 0.0901961
0.215686 0.152941 0.0941176
0.266667 0.152941 0.0980392
0.329412 0.14902 0.0901961
0.392157 0.141176 0.0941176
0.462745 0.133333 0.0901961
0.533333 0.133333 0.0862745
0.596078 0.133333 0.0862745
0.65098 0.141176 0.0862745
0.701961 0.164706 0.0901961
0.74902 0.196078 0.0901961
0.792157 0.227451 0.0941176
0.835294 0.262745 0.109804
0.862745 0.294118 0.121569
0.117647 0.196078 0.0980392
0.12549 0.196078 0.101961
0.141176 0.196078 0.0980392
0.172549 0.196078 0.0941176
0.223529 0.203922 0.0901961
0.27451 0.196078 0.0901961
0.337255 0.196078 0.0901961
0.403922 0.192157 0.0901961
0.466667 0.192157 0.0901961
0.529412 0.188235 0.0823529
0.6 0.192157 0.0862745
0.65098 0.2 0.0823529
0.705882 0.219608 0.0862745
0.74902 0.243137 0.0901961
0.792157 0.270588 0.0941176
0.831373 0.298039 0.109804
0.862745 0.32549 0.121569
0.12549 0.25098 0.0980392
0.137255 0.247059 0.0980392
0.152941 0.247059 0.105882
0.184314 0.247059 0.101961
0.223529 0.247059 0.0980392
0.278431 0.258824 0.0941176
0.341176 0.258824 0.0901961
0.403922 0.25098 0.0823529
0.470588 0.247059 0.0784314
0.533333 0.247059 0.0784314
0.592157 0.25098 0.0745098
0.647059 0.262745 0.0705882
0.698039 0.278431 0.0745098
0.74902 0.298039 0.0823529
0.792157 0.317647 0.0941176
0.831373 0.345098 0.101961
0.866667 0.364706 0.117647
0.141176 0.309804 0.101961
0.14902 0.305882 0.101961
0.164706 0.309804 0.105882
0.192157 0.301961 0.101961
0.231373 0.309804 0.101961
0.278431 0.313725 0.0980392
0.34902 0.32549 0.0901961
0.407843 0.321569 0.0862745
0.478431 0.321569 0.0784314
0.541176 0.313725 0.0627451
0.596078 0.317647 0.0588235
0.65098 0.32549 0.0588235
0.701961 0.337255 0.0627451
0.74902 0.352941 0.0705882
0.788235 0.372549 0.0823529
0.831373 0.392157 0.101961
0.866667 0.411765 0.117647
0.160784 0.376471 0.109804
0.168627 0.376471 0.109804
0.188235 0.372549 0.105882
0.207843 0.368627 0.109804
0.243137 0.368627 0.105882
0.290196 0.372549 0.101961
0.341176 0.376471 0.101961
0.419608 0.392157 0.0862745
0.482353 0.392157 0.0784314
0.541176 0.392157 0.0666667
0.6 0.388235 0.0431373
0.65098 0.392157 0.0235294
0.698039 0.4 0.0313725
0.752941 0.411765 0.0470588
0.792157 0.423529 0.0705882
0.831373 0.439216 0.0941176
0.862745 0.454902 0.105882
0.180392 0.439216 0.109804
0.192157 0.443137 0.109804
0.203922 0.435294 0.105882
0.227451 0.435294 0.113725
0.258824 0.435294 0.117647
0.301961 0.439216 0.109804
0.356863 0.443137 0.109804
0.411765 0.443137 0.105882
0.482353 0.454902 0.0980392
0.54902 0.462745 0.0745098
0.6 0.462745 0.0627451
0.65098 0.462745 0.0313725
0.701961 0.462745 0.0117647
0.74902 0.466667 0.00392157
0.792157 0.478431 0.0431373
0.831373 0.490196 0.0784314
0.866667 0.498039 0.105882
0.207843 0.505882 0.113725
0.211765 0.501961 0.113725
0.227451 0.501961 0.117647
0.25098 0.501961 0.121569
0.278431 0.494118 0.12549
0.317647 0.494118 0.121569
0.368627 0.501961 0.121569
0.423529 0.501961 0.113725
0.478431 0.501961 0.109804
0.541176 0.513725 0.105882
0.611765 0.52549 0.0862745
0.658824 0.529412 0.0784314
0.705882 0.529412 0.0627451
0.745098 0.52549 0.0431373
0.792157 0.529412 0.027451
0.831373 0.541176 0.0666667
0.866667 0.54902 0.0980392
0.243137 0.564706 0.133333
0.25098 0.564706 0.129412
0.262745 0.560784 0.133333
0.278431 0.560784 0.137255
0.309804 0.556863 0.137255
0.337255 0.556863 0.137255
0.384314 0.552941 0.133333
0.435294 0.560784 0.133333
0.490196 0.560784 0.129412
0.54902 0.564706 0.129412
0.596078 0.568627 0.121569
0.662745 0.584314 0.109804
0.705882 0.588235 0.101961
0.74902 0.588235 0.0941176
0.792157 0.592157 0.0941176
0.831373 0.592157 0.0941176
0.866667 0.592157 0.0941176
0.282353 0.615686 0.141176
0.286275 0.619608 0.145098
0.301961 0.619608 0.14902
0.313725 0.619608 0.152941
0.337255 0.615686 0.152941
0.360784 0.607843 0.156863
0.411765 0.607843 0.156863
0.454902 0.611765 0.160784
0.501961 0.607843 0.14902
0.556863 0.615686 0.152941
0.603922 0.619608 0.14902
0.654902 0.619608 0.145098
0.713725 0.635294 0.145098
0.756863 0.643137 0.141176
0.8 0.647059 0.141176
0.835294 0.65098 0.141176
0.87451 0.65098 0.141176
0.321569 0.670588 0.168627
0.333333 0.670588 0.172549
0.337255 0.670588 0.172549
0.356863 0.670588 0.180392
0.372549 0.662745 0.172549
0.403922 0.662745 0.180392
0.431373 0.658824 0.184314
0.470588 0.658824 0.180392
0.521569 0.662745 0.184314
0.568627 0.662745 0.176471
0.607843 0.666667 0.176471
0.658824 0.666667 0.176471
0.701961 0.670588 0.180392
0.756863 0.690196 0.180392
0.8 0.694118 0.180392
0.843137 0.698039 0.180392
0.87451 0.701961 0.188235
0.368627 0.721569 0.203922
0.376471 0.717647 0.203922
0.384314 0.717647 0.207843
0.4 0.717647 0.211765
0.415686 0.717647 0.207843
0.435294 0.713725 0.211765
0.466667 0.709804 0.211765
0.505882 0.709804 0.211765
0.545098 0.709804 0.215686
0.584314 0.709804 0.211765
0.623529 0.709804 0.211765
0.666667 0.713725 0.211765
0.709804 0.717647 0.219608
0.74902 0.717647 0.219608
0.807843 0.741176 0.231373
0.843137 0.74902 0.231373
0.882353 0.74902 0.239216
0.415686 0.768627 0.239216
0.423529 0.764706 0.243137
0.431373 0.768627 0.239216
0.447059 0.768627 0.243137
0.458824 0.760784 0.243137
0.478431 0.756863 0.247059
0.501961 0.756863 0.247059
0.533333 0.756863 0.25098
0.564706 0.756863 0.254902
0.603922 0.756863 0.25098
0.639216 0.760784 0.254902
0.682353 0.764706 0.258824
0.721569 0.764706 0.262745
0.756863 0.768627 0.262745
0.788235 0.768627 0.266667
0.847059 0.792157 0.278431
0.890196 0.8 0.298039
0.47451 0.819608 0.286275
0.47451 0.819608 0.286275
0.478431 0.815686 0.286275
0.494118 0.815686 0.290196
0.501961 0.815686 0.294118
0.52549 0.811765 0.290196
0.541176 0.811765 0.294118
0.564706 0.811765 0.301961
0.596078 0.811765 0.309804
0.627451 0.811765 0.305882
0.666667 0.811765 0.305882
0.698039 0.811765 0.309804
0.733333 0.815686 0.317647
0.768627 0.815686 0.321569
0.803922 0.823529 0.321569
0.839216 0.823529 0.329412
0.890196 0.835294 0.345098
0.529412 0.870588 0.34902
0.529412 0.870588 0.34902
0.533333 0.870588 0.34902
0.545098 0.870588 0.352941
0.556863 0.870588 0.356863
0.568627 0.870588 0.356863
0.588235 0.866667 0.360784
0.607843 0.866667 0.368627
0.631373 0.870588 0.372549
0.662745 0.866667 0.372549
0.690196 0.870588 0.380392
0.721569 0.87451 0.384314
0.756863 0.87451 0.388235
0.788235 0.878431 0.396078
0.823529 0.878431 0.4
0.862745 0.882353 0.411765
0.894118 0.886275 0.419608
0.576471 0.92549 0.419608
0.588235 0.92549 0.423529
0.588235 0.92549 0.423529
0.592157 0.92549 0.423529
0.603922 0.92549 0.427451
0.615686 0.92549 0.431373
0.635294 0.92549 0.439216
0.65098 0.92549 0.45098
0.670588 0.92549 0.458824
0.698039 0.92549 0.470588
0.721569 0.929412 0.470588
0.74902 0.933333 0.478431
0.784314 0.933333 0.486275
0.815686 0.937255 0.501961
0.85098 0.941176 0.509804
0.886275 0.945098 0.52549
0.921569 0.945098 0.529412
0.0941176 0.0980392 0.113725
0.109804 0.101961 0.121569
0.12549 0.101961 0.117647
0.160784 0.0980392 0.109804
0.211765 0.0980392 0.113725
0.262745 0.0980392 0.113725
0.329412 0.0980392 0.121569
0.396078 0.0941176 0.12549
0.466667 0.0705882 0.12549
0.537255 0.0431373 0.129412
0.596078 0.0313725 0.129412
0.658824 0.0666667 0.133333
0.705882 0.101961 0.133333
0.752941 0.14902 0.141176
0.796078 0.192157 0.145098
0.831373 0.235294 0.152941
0.862745 0.266667 0.164706
0.101961 0.117647 0.121569
0.113725 0.121569 0.117647
0.141176 0.12549 0.121569
0.168627 0.12549 0.117647
0.215686 0.121569 0.113725
0.266667 0.129412 0.121569
0.329412 0.129412 0.12549
0.396078 0.121569 0.129412
0.462745 0.105882 0.12549
0.533333 0.0980392 0.12549
0.592157 0.0941176 0.129412
0.654902 0.109804 0.129412
0.705882 0.133333 0.133333
0.752941 0.168627 0.141176
0.796078 0.207843 0.14902
0.835294 0.247059 0.152941
0.862745 0.278431 0.160784
0.105882 0.14902 0.117647
0.121569 0.152941 0.121569
0.145098 0.156863 0.121569
0.176471 0.160784 0.12549
0.227451 0.160784 0.129412
0.270588 0.156863 0.12549
0.333333 0.160784 0.12549
0.4 0.152941 0.12549
0.466667 0.152941 0.12549
0.533333 0.145098 0.12549
0.6 0.14902 0.129412
0.654902 0.156863 0.129412
0.705882 0.180392 0.133333
0.752941 0.203922 0.137255
0.792157 0.235294 0.141176
0.831373 0.270588 0.152941
0.862745 0.298039 0.160784
0.12549 0.2 0.12549
0.141176 0.2 0.12549
0.152941 0.196078 0.129412
0.184314 0.2 0.121569
0.231373 0.203922 0.12549
0.282353 0.2 0.117647
0.345098 0.2 0.12549
0.403922 0.2 0.117647
0.478431 0.2 0.129412
0.541176 0.2 0.12549
0.6 0.203922 0.12549
0.65098 0.211765 0.12549
0.705882 0.227451 0.133333
0.74902 0.25098 0.129412
0.788235 0.278431 0.137255
0.831373 0.309804 0.14902
0.866667 0.329412 0.156863
0.14902 0.254902 0.133333
0.14902 0.254902 0.12549
0.160784 0.254902 0.129412
0.192157 0.25098 0.129412
0.231373 0.25098 0.12549
0.286275 0.262745 0.121569
0.34902 0.258824 0.12549
0.411765 0.254902 0.117647
0.47451 0.254902 0.117647
0.541176 0.254902 0.117647
0.6 0.266667 0.121569
0.654902 0.270588 0.117647
0.705882 0.286275 0.121569
0.752941 0.301961 0.129412
0.788235 0.32549 0.137255
0.835294 0.34902 0.145098
0.866667 0.368627 0.160784
0.152941 0.317647 0.129412
0.164706 0.317647 0.133333
0.180392 0.309804 0.133333
0.203922 0.309804 0.133333
0.239216 0.313725 0.133333
0.290196 0.313725 0.12549
0.356863 0.329412 0.12549
0.419608 0.32549 0.121569
0.482353 0.321569 0.117647
0.541176 0.317647 0.109804
0.6 0.321569 0.109804
0.654902 0.333333 0.113725
0.705882 0.341176 0.117647
0.74902 0.356863 0.121569
0.792157 0.376471 0.133333
0.835294 0.396078 0.145098
0.862745 0.411765 0.156863
0.172549 0.384314 0.141176
0.184314 0.380392 0.133333
0.2 0.380392 0.137255
0.219608 0.376471 0.133333
0.254902 0.376471 0.141176
0.301961 0.380392 0.133333
0.356863 0.380392 0.129412
0.431373 0.396078 0.12549
0.490196 0.396078 0.121569
0.54902 0.392157 0.109804
0.6 0.388235 0.105882
0.654902 0.388235 0.101961
0.705882 0.4 0.105882
0.752941 0.415686 0.113725
0.792157 0.431373 0.121569
0.835294 0.443137 0.137255
0.862745 0.458824 0.14902
0.196078 0.447059 0.137255
0.2 0.447059 0.137255
0.219608 0.447059 0.145098
0.239216 0.443137 0.145098
0.266667 0.439216 0.145098
0.313725 0.439216 0.145098
0.360784 0.443137 0.141176
0.419608 0.447059 0.137255
0.490196 0.458824 0.133333
0.552941 0.470588 0.121569
0.607843 0.462745 0.113725
0.654902 0.462745 0.101961
0.709804 0.462745 0.0980392
0.74902 0.470588 0.0980392
0.792157 0.482353 0.117647
0.835294 0.494118 0.129412
0.866667 0.501961 0.14902
0.219608 0.505882 0.145098
0.231373 0.509804 0.14902
0.247059 0.505882 0.152941
0.258824 0.505882 0.14902
0.286275 0.498039 0.152941
0.32549 0.498039 0.14902
0.372549 0.501961 0.152941
0.427451 0.501961 0.14902
0.486275 0.505882 0.145098
0.552941 0.517647 0.145098
0.615686 0.529412 0.133333
0.658824 0.529412 0.12549
0.701961 0.529412 0.117647
0.74902 0.52549 0.105882
0.788235 0.52549 0.105882
0.831373 0.541176 0.121569
0.866667 0.54902 0.137255
0.25098 0.568627 0.156863
0.258824 0.568627 0.156863
0.270588 0.564706 0.160784
0.294118 0.560784 0.164706
0.317647 0.560784 0.164706
0.341176 0.556863 0.160784
0.396078 0.560784 0.168627
0.439216 0.556863 0.164706
0.498039 0.564706 0.164706
0.545098 0.564706 0.160784
0.603922 0.568627 0.156863
0.666667 0.588235 0.14902
0.709804 0.584314 0.141176
0.752941 0.592157 0.137255
0.792157 0.592157 0.133333
0.831373 0.592157 0.133333
0.870588 0.592157 0.137255
0.294118 0.623529 0.176471
0.298039 0.623529 0.176471
0.309804 0.623529 0.180392
0.32549 0.619608 0.176471
0.34902 0.615686 0.180392
0.376471 0.607843 0.184314
0.415686 0.607843 0.180392
0.458824 0.611765 0.184314
0.505882 0.615686 0.180392
0.560784 0.615686 0.180392
0.607843 0.619608 0.176471
0.65098 0.623529 0.176471
0.713725 0.639216 0.176471
0.756863 0.643137 0.172549
0.796078 0.643137 0.168627
0.839216 0.647059 0.172549
0.878431 0.647059 0.172549
0.329412 0.67451 0.196078
0.337255 0.670588 0.196078
0.345098 0.67451 0.2
0.360784 0.670588 0.2
0.380392 0.666667 0.203922
0.407843 0.662745 0.203922
0.435294 0.658824 0.207843
0.478431 0.662745 0.207843
0.52549 0.662745 0.207843
0.568627 0.666667 0.207843
0.615686 0.666667 0.203922
0.658824 0.670588 0.2
0.705882 0.670588 0.203922
0.760784 0.686275 0.211765
0.796078 0.698039 0.203922
0.839216 0.698039 0.211765
0.878431 0.701961 0.215686
0.372549 0.721569 0.227451
0.384314 0.721569 0.223529
0.388235 0.721569 0.223529
0.403922 0.717647 0.227451
0.419608 0.717647 0.231373
0.443137 0.709804 0.227451
0.470588 0.709804 0.235294
0.505882 0.705882 0.231373
0.545098 0.705882 0.235294
0.588235 0.709804 0.235294
0.627451 0.709804 0.235294
0.670588 0.713725 0.235294
0.709804 0.713725 0.243137
0.752941 0.717647 0.243137
0.803922 0.745098 0.247059
0.847059 0.74902 0.254902
0.886275 0.752941 0.266667
0.419608 0.768627 0.258824
0.427451 0.768627 0.258824
0.435294 0.768627 0.262745
0.45098 0.768627 0.262745
0.462745 0.764706 0.262745
0.486275 0.760784 0.270588
0.505882 0.760784 0.266667
0.529412 0.756863 0.27451
0.568627 0.760784 0.270588
0.603922 0.760784 0.278431
0.643137 0.760784 0.27451
0.682353 0.760784 0.278431
0.717647 0.764706 0.278431
0.760784 0.768627 0.286275
0.792157 0.768627 0.282353
0.85098 0.792157 0.301961
0.894118 0.8 0.313725
0.478431 0.819608 0.305882
0.478431 0.819608 0.305882
0.482353 0.815686 0.305882
0.498039 0.815686 0.309804
0.505882 0.815686 0.313725
0.529412 0.811765 0.309804
0.541176 0.811765 0.313725
0.568627 0.811765 0.321569
0.596078 0.807843 0.321569
0.631373 0.811765 0.321569
0.662745 0.815686 0.32549
0.698039 0.811765 0.329412
0.737255 0.815686 0.333333
0.772549 0.815686 0.337255
0.807843 0.823529 0.341176
0.843137 0.827451 0.345098
0.886275 0.839216 0.360784
0.533333 0.87451 0.364706
0.533333 0.87451 0.364706
0.537255 0.870588 0.364706
0.54902 0.870588 0.364706
0.552941 0.870588 0.368627
0.568627 0.870588 0.368627
0.588235 0.866667 0.376471
0.607843 0.866667 0.380392
0.631373 0.866667 0.388235
0.666667 0.866667 0.392157
0.694118 0.87451 0.396078
0.721569 0.870588 0.396078
0.756863 0.870588 0.403922
0.784314 0.878431 0.407843
0.823529 0.882353 0.415686
0.858824 0.886275 0.419608
0.894118 0.886275 0.427451
0.580392 0.92549 0.435294
0.584314 0.929412 0.435294
0.588235 0.92549 0.431373
0.596078 0.92549 0.435294
0.603922 0.92549 0.439216
0.619608 0.92549 0.443137
0.635294 0.92549 0.45098
0.654902 0.92549 0.462745
0.67451 0.92549 0.470588
0.698039 0.92549 0.478431
0.72549 0.933333 0.482353
0.752941 0.933333 0.490196
0.784314 0.933333 0.498039
0.815686 0.937255 0.509804
0.854902 0.941176 0.517647
0.886275 0.945098 0.529412
0.917647 0.94902 0.537255
0.105882 0.105882 0.152941
0.113725 0.105882 0.156863
0.137255 0.105882 0.156863
0.168627 0.105882 0.14902
0.211765 0.101961 0.14902
0.270588 0.0941176 0.145098
0.333333 0.0862745 0.14902
0.4 0.0705882 0.160784
0.47451 0.0392157 0.164706
0.545098 0.0431373 0.172549
0.607843 0.0901961 0.180392
0.658824 0.105882 0.180392
0.709804 0.137255 0.188235
0.752941 0.172549 0.196078
0.796078 0.211765 0.196078
0.839216 0.247059 0.203922
0.866667 0.278431 0.211765
0.109804 0.129412 0.152941
0.12549 0.12549 0.156863
0.141176 0.129412 0.156863
0.172549 0.129412 0.160784
0.215686 0.12549 0.156863
0.27451 0.117647 0.14902
0.337255 0.117647 0.160784
0.407843 0.109804 0.160784
0.47451 0.105882 0.168627
0.545098 0.121569 0.180392
0.603922 0.12549 0.184314
0.662745 0.137255 0.180392
0.705882 0.160784 0.188235
0.756863 0.192157 0.192157
0.796078 0.231373 0.2
