lut/Fuji 400H ++.cube
#Generated by Picture Instruments - Look Creator
TITLE "Fuji 400H ++"
LUT_3D_SIZE 17
0.0980392 0.113725 0.0588235
0.105882 0.113725 0.0627451
0.129412 0.113725 0.0666667
0.164706 0.117647 0.0627451
0.207843 0.117647 0.0627451
0.27451 0.109804 0.054902
0.341176 0.0901961 0.0431373
0.419608 0.0588235 0.027451
0.498039 0 0.00392157
0.572549 0 0
0.643137 0 0
0.698039 0 0
0.74902 0.0431373 0
0.792157 0.12549 0
0.835294 0.176471 0
0.870588 0.215686 0
0.905882 0.247059 0
0.0980392 0.133333 0.0666667
0.105882 0.133333 0.0627451
0.129412 0.137255 0.054902
0.168627 0.137255 0.0627451
0.215686 0.133333 0.0509804
0.27451 0.133333 0.0470588
0.341176 0.117647 0.0392157
0.419608 0.101961 0.0196078
0.501961 0.0745098 0
0.576471 0.0235294 0
0.643137 0.00784314 0
0.698039 0.0666667 0
0.74902 0.109804 0
0.792157 0.156863 0
0.835294 0.2 0
0.87451 0.239216 0
0.909804 0.262745 0
0.105882 0.160784 0.0705882
0.109804 0.156863 0.0627451
0.129412 0.160784 0.0666667
0.172549 0.168627 0.054902
0.219608 0.168627 0.0431373
0.278431 0.164706 0.0392157
0.34902 0.156863 0.027451
0.423529 0.14902 0.0156863
0.501961 0.137255 0.00392157
0.576471 0.129412 0
0.643137 0.133333 0
0.701961 0.145098 0.00392157
0.745098 0.168627 0
0.796078 0.2 0.00392157
0.839216 0.235294 0
0.87451 0.262745 0
0.905882 0.286275 0
0.105882 0.196078 0.0666667
0.117647 0.192157 0.0705882
0.137255 0.196078 0.0666667
0.168627 0.196078 0.0627451
0.223529 0.211765 0.0509804
0.282353 0.211765 0.0313725
0.352941 0.203922 0.00784314
0.427451 0.203922 0
0.501961 0.196078 0
0.576471 0.192157 0
0.647059 0.2 0
0.698039 0.211765 0
0.752941 0.231373 0
0.792157 0.25098 0
0.839216 0.282353 0
0.87451 0.305882 0
0.909804 0.32549 0
0.121569 0.243137 0.0745098
0.129412 0.243137 0.0745098
0.141176 0.239216 0.0745098
0.172549 0.247059 0.0705882
0.219608 0.25098 0.0588235
0.286275 0.262745 0.027451
0.356863 0.266667 0
0.431373 0.262745 0
0.509804 0.262745 0
0.576471 0.258824 0
0.639216 0.266667 0
0.698039 0.278431 0
0.74902 0.294118 0
0.788235 0.313725 0
0.835294 0.329412 0
0.870588 0.356863 0
0.905882 0.368627 0
0.129412 0.298039 0.0784314
0.145098 0.298039 0.0745098
0.160784 0.298039 0.0784314
0.184314 0.298039 0.0784314
0.227451 0.305882 0.0666667
0.282353 0.309804 0.0470588
0.356863 0.32549 0
0.435294 0.333333 0
0.509804 0.329412 0
0.580392 0.32549 0
0.639216 0.333333 0
0.694118 0.341176 0
0.745098 0.356863 0
0.792157 0.372549 0
0.831373 0.392157 0
0.87451 0.407843 0
0.909804 0.419608 0
0.152941 0.364706 0.0705882
0.164706 0.368627 0.0784314
0.180392 0.360784 0.0784314
0.203922 0.360784 0.0862745
0.239216 0.364706 0.0745098
0.286275 0.368627 0.054902
0.352941 0.372549 0.0117647
0.439216 0.392157 0
0.513725 0.4 0
0.580392 0.403922 0
0.635294 0.403922 0
0.694118 0.407843 0
0.741176 0.419608 0
0.788235 0.435294 0
0.827451 0.447059 0
0.870588 0.458824 0
0.909804 0.466667 0
0.180392 0.435294 0.0823529
0.184314 0.431373 0.0823529
0.207843 0.427451 0.0862745
0.227451 0.423529 0.0901961
0.262745 0.427451 0.0901961
0.309804 0.427451 0.0745098
0.364706 0.435294 0.0431373
0.431373 0.443137 0
0.513725 0.454902 0
0.584314 0.470588 0
0.639216 0.47451 0
0.694118 0.482353 0
0.741176 0.482353 0
0.784314 0.490196 0
0.827451 0.501961 0
0.870588 0.513725 0
0.913725 0.517647 0
0.211765 0.498039 0.0862745
0.219608 0.498039 0.0901961
0.235294 0.498039 0.0941176
0.254902 0.490196 0.0980392
0.282353 0.486275 0.101961
0.329412 0.490196 0.0901961
0.380392 0.494118 0.0784314
0.443137 0.501961 0.0431373
0.501961 0.505882 0
0.572549 0.517647 0
0.643137 0.533333 0
0.694118 0.541176 0
0.741176 0.54902 0.00392157
0.784314 0.556863 0
0.827451 0.560784 0
0.87451 0.564706 0
0.905882 0.568627 0
0.25098 0.560784 0.109804
0.258824 0.560784 0.113725
0.27451 0.556863 0.117647
0.294118 0.552941 0.121569
0.317647 0.54902 0.12549
0.356863 0.54902 0.121569
0.4 0.54902 0.105882
0.458824 0.556863 0.0941176
0.513725 0.560784 0.0666667
0.572549 0.572549 0
0.631373 0.576471 0
0.698039 0.6 0
0.745098 0.607843 0.00392157
0.788235 0.615686 0
0.831373 0.619608 0
0.870588 0.619608 0
0.909804 0.619608 0
0.301961 0.623529 0.137255
0.301961 0.623529 0.137255
0.313725 0.619608 0.141176
0.337255 0.615686 0.145098
0.356863 0.611765 0.14902
0.384314 0.607843 0.14902
0.431373 0.607843 0.141176
0.478431 0.611765 0.129412
0.529412 0.615686 0.117647
0.580392 0.619608 0.0901961
0.635294 0.627451 0.0588235
0.686275 0.631373 0
0.745098 0.654902 0
0.792157 0.666667 0.00392157
0.831373 0.67451 0
0.87451 0.678431 0
0.913725 0.67451 0
0.34902 0.682353 0.172549
0.356863 0.682353 0.172549
0.364706 0.682353 0.176471
0.380392 0.67451 0.176471
0.403922 0.67451 0.176471
0.427451 0.670588 0.188235
0.462745 0.666667 0.180392
0.505882 0.670588 0.176471
0.54902 0.670588 0.160784
0.596078 0.67451 0.14902
0.639216 0.682353 0.137255
0.686275 0.686275 0.105882
0.733333 0.694118 0.0705882
0.796078 0.717647 0
0.835294 0.72549 0
0.878431 0.729412 0.00392157
0.913725 0.729412 0
0.4 0.737255 0.207843
0.411765 0.737255 0.211765
0.415686 0.737255 0.211765
0.431373 0.733333 0.215686
0.45098 0.729412 0.219608
0.470588 0.72549 0.223529
0.498039 0.717647 0.227451
0.529412 0.721569 0.219608
0.568627 0.72549 0.207843
0.611765 0.729412 0.203922
0.65098 0.733333 0.188235
0.690196 0.737255 0.176471
0.733333 0.745098 0.160784
0.780392 0.745098 0.137255
0.839216 0.772549 0.117647
0.882353 0.780392 0.109804
0.921569 0.780392 0.0980392
0.458824 0.792157 0.262745
0.462745 0.788235 0.262745
0.466667 0.788235 0.254902
0.482353 0.788235 0.258824
0.498039 0.784314 0.262745
0.509804 0.784314 0.266667
0.537255 0.776471 0.278431
0.560784 0.776471 0.27451
0.596078 0.780392 0.270588
0.631373 0.776471 0.258824
0.666667 0.784314 0.25098
0.705882 0.788235 0.243137
0.741176 0.792157 0.235294
0.780392 0.796078 0.219608
0.819608 0.8 0.196078
0.882353 0.823529 0.188235
0.92549 0.827451 0.192157
0.509804 0.847059 0.32549
0.517647 0.843137 0.32549
0.517647 0.839216 0.32549
0.52549 0.839216 0.32549
0.541176 0.835294 0.329412
0.556863 0.835294 0.333333
0.576471 0.831373 0.337255
0.596078 0.831373 0.345098
0.627451 0.831373 0.337255
0.65098 0.835294 0.333333
0.682353 0.835294 0.329412
0.717647 0.843137 0.321569
0.756863 0.843137 0.313725
0.792157 0.847059 0.301961
0.831373 0.85098 0.286275
0.870588 0.854902 0.270588
0.92549 0.866667 0.270588
0.564706 0.898039 0.4
0.572549 0.894118 0.4
0.572549 0.894118 0.4
0.576471 0.890196 0.4
0.592157 0.890196 0.403922
0.6 0.890196 0.411765
0.615686 0.886275 0.419608
0.639216 0.886275 0.427451
0.654902 0.886275 0.431373
0.682353 0.890196 0.427451
0.709804 0.890196 0.423529
0.737255 0.894118 0.415686
0.772549 0.898039 0.415686
0.803922 0.901961 0.403922
0.843137 0.901961 0.396078
0.882353 0.905882 0.388235
0.921569 0.905882 0.376471
0.619608 0.945098 0.490196
0.615686 0.941176 0.486275
0.627451 0.941176 0.486275
0.631373 0.937255 0.490196
0.639216 0.941176 0.498039
0.65098 0.941176 0.501961
0.666667 0.937255 0.509804
0.682353 0.937255 0.521569
0.698039 0.937255 0.533333
0.717647 0.941176 0.533333
0.745098 0.945098 0.537255
0.768627 0.945098 0.529412
0.8 0.952941 0.533333
0.831373 0.956863 0.529412
0.866667 0.956863 0.52549
0.905882 0.956863 0.52549
0.937255 0.964706 0.521569
0.0941176 0.113725 0.0862745
0.109804 0.113725 0.0823529
0.129412 0.113725 0.0784314
0.168627 0.113725 0.0784314
0.211765 0.113725 0.0862745
0.270588 0.113725 0.0823529
0.345098 0.0980392 0.0784314
0.423529 0.0705882 0.0705882
0.501961 0 0.0666667
0.576471 0 0.0431373
0.643137 0 0.027451
0.701961 0 0.00392157
0.752941 0.0666667 0
0.796078 0.129412 0
0.835294 0.176471 0
0.87451 0.219608 0
0.909804 0.25098 0
0.101961 0.133333 0.0823529
0.109804 0.133333 0.0862745
0.133333 0.137255 0.0823529
0.168627 0.137255 0.0862745
0.215686 0.141176 0.0862745
0.278431 0.133333 0.0823529
0.34902 0.121569 0.0784314
0.423529 0.105882 0.0705882
0.501961 0.0823529 0.0588235
0.580392 0.0392157 0.0392157
0.643137 0.027451 0.0156863
0.701961 0.0784314 0
0.74902 0.117647 0.00392157
0.796078 0.164706 0
0.835294 0.203922 0
0.87451 0.239216 0
0.905882 0.266667 0
0.109804 0.164706 0.0823529
0.117647 0.164706 0.0862745
0.133333 0.164706 0.0823529
0.176471 0.168627 0.0823529
0.227451 0.168627 0.0784314
0.282353 0.160784 0.0784314
0.34902 0.160784 0.0745098
0.427451 0.14902 0.0627451
0.505882 0.137255 0.0509804
0.580392 0.12549 0.027451
0.643137 0.133333 0
0.705882 0.14902 0
0.74902 0.172549 0
0.796078 0.2 0.00392157
0.835294 0.235294 0
0.870588 0.262745 0
0.909804 0.290196 0
0.113725 0.203922 0.0901961
0.12549 0.2 0.0901961
0.145098 0.203922 0.0901961
0.176471 0.203922 0.0823529
0.227451 0.211765 0.0745098
0.290196 0.211765 0.0745098
0.356863 0.207843 0.0627451
0.431373 0.203922 0.0470588
0.505882 0.196078 0.027451
0.580392 0.2 0
0.647059 0.2 0
0.705882 0.215686 0.00392157
0.752941 0.231373 0
0.796078 0.254902 0
0.835294 0.282353 0
0.878431 0.309804 0
0.909804 0.32549 0
0.129412 0.25098 0.0901961
0.141176 0.25098 0.0941176
0.14902 0.247059 0.0941176
0.180392 0.25098 0.0941176
0.227451 0.254902 0.0901961
0.290196 0.266667 0.0705882
0.364706 0.266667 0.0509804
0.435294 0.262745 0.0156863
0.509804 0.262745 0
0.580392 0.262745 0.00392157
0.643137 0.27451 0
0.698039 0.278431 0
0.752941 0.298039 0.00392157
0.792157 0.309804 0
0.835294 0.329412 0
0.870588 0.356863 0
0.909804 0.372549 0
0.141176 0.309804 0.0980392
0.152941 0.305882 0.0980392
0.168627 0.301961 0.101961
0.192157 0.301961 0.101961
0.235294 0.309804 0.0941176
0.290196 0.313725 0.0784314
0.368627 0.329412 0.0509804
0.439216 0.329412 0
0.513725 0.333333 0
0.584314 0.329412 0
0.639216 0.333333 0
0.698039 0.345098 0
0.74902 0.360784 0
0.796078 0.376471 0
0.831373 0.392157 0
0.87451 0.407843 0
0.909804 0.419608 0
0.164706 0.372549 0.0980392
0.168627 0.368627 0.0980392
0.188235 0.364706 0.101961
0.207843 0.360784 0.105882
0.247059 0.368627 0.101961
0.294118 0.372549 0.0901961
0.360784 0.376471 0.0745098
0.447059 0.392157 0.00392157
0.513725 0.4 0
0.580392 0.403922 0
0.647059 0.403922 0
0.698039 0.411765 0
0.745098 0.423529 0
0.792157 0.439216 0
0.827451 0.447059 0
0.87451 0.462745 0
0.909804 0.466667 0
0.188235 0.439216 0.101961
0.192157 0.435294 0.101961
0.215686 0.431373 0.105882
0.239216 0.431373 0.113725
0.266667 0.431373 0.109804
0.317647 0.431373 0.0980392
0.372549 0.435294 0.0862745
0.435294 0.443137 0.054902
0.517647 0.458824 0
0.588235 0.470588 0
0.639216 0.47451 0
0.698039 0.478431 0
0.741176 0.482353 0
0.788235 0.494118 0
0.827451 0.501961 0
0.870588 0.513725 0
0.913725 0.517647 0
0.219608 0.501961 0.109804
0.227451 0.501961 0.113725
0.243137 0.501961 0.117647
0.262745 0.498039 0.121569
0.290196 0.490196 0.12549
0.329412 0.490196 0.113725
0.388235 0.498039 0.105882
0.443137 0.501961 0.0862745
0.505882 0.509804 0.0509804
0.572549 0.517647 0
0.647059 0.537255 0.00392157
0.698039 0.545098 0
0.741176 0.54902 0
0.784314 0.556863 0
0.827451 0.556863 0
0.870588 0.564706 0
0.905882 0.568627 0
0.258824 0.564706 0.133333
0.262745 0.564706 0.129412
0.278431 0.560784 0.137255
0.298039 0.556863 0.133333
0.321569 0.54902 0.145098
0.356863 0.54902 0.137255
0.407843 0.556863 0.129412
0.454902 0.560784 0.117647
0.521569 0.564706 0.101961
0.572549 0.568627 0.0705882
0.631373 0.576471 0
0.698039 0.6 0
0.745098 0.607843 0
0.788235 0.615686 0
0.831373 0.619608 0
0.870588 0.619608 0
0.909804 0.619608 0
0.305882 0.623529 0.152941
0.309804 0.623529 0.156863
0.317647 0.623529 0.152941
0.341176 0.619608 0.156863
0.360784 0.615686 0.160784
0.384314 0.607843 0.164706
0.431373 0.611765 0.156863
0.478431 0.615686 0.152941
0.533333 0.619608 0.133333
0.580392 0.623529 0.121569
0.639216 0.631373 0.101961
0.682353 0.635294 0.054902
0.74902 0.658824 0
0.792157 0.666667 0.00392157
0.831373 0.67451 0
0.878431 0.67451 0
0.913725 0.67451 0
0.34902 0.682353 0.176471
0.360784 0.682353 0.180392
0.364706 0.682353 0.180392
0.384314 0.67451 0.184314
0.403922 0.670588 0.188235
0.431373 0.670588 0.196078
0.466667 0.666667 0.2
0.505882 0.666667 0.188235
0.552941 0.67451 0.176471
0.596078 0.678431 0.172549
0.639216 0.678431 0.14902
0.690196 0.686275 0.137255
0.733333 0.694118 0.109804
0.792157 0.717647 0.0745098
0.835294 0.721569 0.0196078
0.878431 0.729412 0.00392157
0.913725 0.729412 0
0.4 0.737255 0.215686
0.411765 0.737255 0.219608
0.415686 0.733333 0.219608
0.431373 0.733333 0.223529
0.45098 0.729412 0.227451
0.47451 0.729412 0.235294
0.501961 0.721569 0.239216
0.533333 0.72549 0.235294
0.572549 0.72549 0.227451
0.611765 0.729412 0.219608
0.654902 0.733333 0.207843
0.694118 0.737255 0.196078
0.737255 0.745098 0.180392
0.776471 0.74902 0.160784
0.839216 0.768627 0.141176
0.882353 0.772549 0.137255
0.921569 0.776471 0.129412
0.454902 0.792157 0.270588
0.462745 0.788235 0.270588
0.470588 0.788235 0.27451
0.486275 0.788235 0.278431
0.498039 0.780392 0.278431
0.517647 0.780392 0.282353
0.541176 0.776471 0.290196
0.560784 0.772549 0.286275
0.596078 0.776471 0.286275
0.627451 0.780392 0.27451
0.666667 0.784314 0.266667
0.705882 0.784314 0.258824
0.741176 0.788235 0.247059
0.784314 0.796078 0.235294
0.823529 0.8 0.211765
0.886275 0.823529 0.207843
0.92549 0.827451 0.211765
0.505882 0.843137 0.329412
0.517647 0.843137 0.329412
0.521569 0.839216 0.333333
0.529412 0.839216 0.337255
0.541176 0.835294 0.337255
0.560784 0.835294 0.345098
0.576471 0.835294 0.34902
0.596078 0.831373 0.352941
0.627451 0.831373 0.34902
0.654902 0.835294 0.345098
0.686275 0.839216 0.341176
0.717647 0.839216 0.329412
0.756863 0.847059 0.32549
0.792157 0.847059 0.313725
0.831373 0.847059 0.301961
0.87451 0.854902 0.286275
0.92549 0.862745 0.286275
0.560784 0.894118 0.403922
0.564706 0.894118 0.403922
0.572549 0.894118 0.407843
0.580392 0.894118 0.411765
0.592157 0.890196 0.411765
0.6 0.890196 0.415686
0.619608 0.890196 0.427451
0.639216 0.886275 0.435294
0.658824 0.886275 0.439216
0.682353 0.890196 0.435294
0.705882 0.894118 0.431373
0.741176 0.894118 0.427451
0.772549 0.898039 0.423529
0.803922 0.898039 0.411765
0.843137 0.909804 0.407843
0.882353 0.905882 0.4
0.921569 0.905882 0.384314
0.615686 0.941176 0.490196
0.619608 0.945098 0.494118
0.627451 0.941176 0.494118
0.631373 0.937255 0.498039
0.639216 0.937255 0.505882
0.65098 0.937255 0.509804
0.670588 0.941176 0.517647
0.682353 0.937255 0.52549
0.698039 0.933333 0.537255
0.717647 0.937255 0.537255
0.745098 0.945098 0.545098
0.768627 0.945098 0.537255
0.8 0.94902 0.541176
0.831373 0.952941 0.537255
0.866667 0.956863 0.533333
0.901961 0.960784 0.52549
0.937255 0.960784 0.52549
0.101961 0.117647 0.113725
0.117647 0.117647 0.109804
0.133333 0.117647 0.113725
0.168627 0.113725 0.109804
0.223529 0.113725 0.109804
0.282353 0.109804 0.113725
0.352941 0.0941176 0.109804
0.427451 0.0784314 0.113725
0.505882 0 0.109804
0.584314 0 0.113725
0.65098 0 0.0980392
0.705882 0 0.0980392
0.752941 0.0745098 0.0901961
0.796078 0.137255 0.0941176
0.835294 0.184314 0.0980392
0.878431 0.223529 0.0980392
0.909804 0.258824 0.109804
0.0980392 0.133333 0.113725
0.117647 0.137255 0.113725
0.141176 0.137255 0.117647
0.176471 0.133333 0.109804
0.223529 0.137255 0.113725
0.286275 0.133333 0.113725
0.356863 0.129412 0.121569
0.431373 0.113725 0.109804
0.509804 0.0862745 0.109804
0.584314 0.0509804 0.105882
0.65098 0.0431373 0.0980392
0.705882 0.0823529 0.0980392
0.752941 0.121569 0.0901961
0.796078 0.164706 0.0862745
0.835294 0.203922 0.0941176
0.878431 0.243137 0.0941176
0.909804 0.270588 0.109804
0.113725 0.168627 0.117647
0.121569 0.168627 0.113725
0.145098 0.168627 0.113725
0.180392 0.168627 0.121569
0.231373 0.168627 0.117647
0.286275 0.168627 0.117647
0.356863 0.164706 0.109804
0.435294 0.152941 0.105882
0.509804 0.141176 0.101961
0.580392 0.133333 0.0941176
0.647059 0.133333 0.0941176
0.705882 0.152941 0.0862745
0.74902 0.176471 0.0862745
0.796078 0.203922 0.0823529
0.835294 0.239216 0.0862745
0.878431 0.270588 0.0901961
0.905882 0.294118 0.101961
0.12549 0.211765 0.121569
0.141176 0.211765 0.12549
0.152941 0.207843 0.117647
0.188235 0.207843 0.117647
0.235294 0.211765 0.109804
0.298039 0.215686 0.109804
0.364706 0.207843 0.105882
0.439216 0.203922 0.101961
0.513725 0.2 0.0941176
0.588235 0.196078 0.0941176
0.647059 0.203922 0.0862745
0.701961 0.215686 0.0823529
0.752941 0.239216 0.0745098
0.792157 0.258824 0.0705882
0.835294 0.282353 0.0745098
0.87451 0.305882 0.0823529
0.909804 0.329412 0.0941176
0.145098 0.262745 0.129412
0.14902 0.258824 0.121569
0.164706 0.258824 0.12549
0.192157 0.25098 0.121569
0.235294 0.258824 0.117647
0.301961 0.270588 0.105882
0.372549 0.266667 0.0980392
0.443137 0.262745 0.0901961
0.513725 0.262745 0.0823529
0.584314 0.262745 0.0745098
0.647059 0.266667 0.0666667
0.698039 0.282353 0.054902
0.74902 0.298039 0.0431373
0.796078 0.313725 0.0392157
0.835294 0.333333 0.0470588
0.87451 0.356863 0.0627451
0.905882 0.372549 0.0823529
0.152941 0.317647 0.121569
0.168627 0.317647 0.12549
0.180392 0.309804 0.12549
0.207843 0.309804 0.133333
0.243137 0.313725 0.12549
0.301961 0.317647 0.117647
0.376471 0.329412 0.101961
0.45098 0.333333 0.0823529
0.521569 0.329412 0.0666667
0.588235 0.329412 0.0235294
0.65098 0.337255 0.00392157
0.698039 0.34902 0
0.74902 0.360784 0
0.796078 0.376471 0
0.835294 0.388235 0
0.87451 0.407843 0.00784314
0.909804 0.419608 0.054902
0.176471 0.380392 0.129412
0.184314 0.384314 0.12549
0.2 0.372549 0.12549
0.223529 0.372549 0.133333
0.258824 0.368627 0.129412
0.301961 0.376471 0.12549
0.372549 0.384314 0.113725
0.458824 0.396078 0.0901961
0.52549 0.4 0.0666667
0.592157 0.403922 0.0117647
0.647059 0.403922 0
0.698039 0.411765 0
0.74902 0.427451 0.00392157
0.796078 0.435294 0
0.831373 0.45098 0
0.87451 0.462745 0
0.913725 0.470588 0
0.2 0.447059 0.137255
0.207843 0.447059 0.141176
0.227451 0.439216 0.133333
0.25098 0.439216 0.141176
0.278431 0.435294 0.14902
0.32549 0.435294 0.133333
0.376471 0.447059 0.12549
0.439216 0.45098 0.109804
0.52549 0.462745 0.0862745
0.592157 0.47451 0.0431373
0.647059 0.47451 0
0.698039 0.478431 0
0.745098 0.486275 0.00392157
0.788235 0.494118 0
0.827451 0.501961 0
0.87451 0.509804 0
0.909804 0.517647 0
0.231373 0.509804 0.141176
0.239216 0.509804 0.145098
0.254902 0.509804 0.14902
0.282353 0.501961 0.152941
0.301961 0.494118 0.156863
0.341176 0.498039 0.152941
0.396078 0.498039 0.141176
0.45098 0.505882 0.12549
0.513725 0.509804 0.113725
0.584314 0.521569 0.0862745
0.65098 0.537255 0.027451
0.698039 0.545098 0
0.74902 0.54902 0
0.792157 0.552941 0
0.831373 0.552941 0
0.87451 0.564706 0
0.905882 0.568627 0
0.266667 0.568627 0.160784
0.27451 0.568627 0.164706
0.290196 0.568627 0.160784
0.309804 0.564706 0.164706
0.337255 0.556863 0.168627
0.368627 0.556863 0.168627
0.415686 0.556863 0.164706
0.462745 0.560784 0.152941
0.517647 0.564706 0.141176
0.576471 0.568627 0.12549
0.635294 0.580392 0.0980392
0.701961 0.6 0.054902
0.745098 0.607843 0
0.788235 0.615686 0
0.831373 0.619608 0
0.870588 0.619608 0
0.917647 0.619608 0
0.313725 0.627451 0.184314
0.317647 0.627451 0.176471
0.329412 0.627451 0.180392
0.352941 0.627451 0.188235
0.368627 0.619608 0.188235
0.396078 0.615686 0.196078
0.435294 0.615686 0.192157
0.486275 0.619608 0.180392
0.541176 0.619608 0.168627
0.588235 0.623529 0.156863
0.635294 0.631373 0.141176
0.690196 0.639216 0.12549
0.74902 0.662745 0.0941176
0.788235 0.670588 0.0588235
0.835294 0.670588 0
0.878431 0.67451 0
0.917647 0.67451 0
0.356863 0.686275 0.207843
0.368627 0.686275 0.211765
0.372549 0.686275 0.211765
0.392157 0.678431 0.215686
0.411765 0.67451 0.219608
0.439216 0.666667 0.223529
0.470588 0.666667 0.223529
0.513725 0.670588 0.219608
0.552941 0.67451 0.207843
0.6 0.678431 0.196078
0.647059 0.682353 0.184314
0.690196 0.690196 0.172549
0.737255 0.690196 0.14902
0.796078 0.717647 0.141176
0.835294 0.721569 0.117647
0.878431 0.729412 0.0980392
0.917647 0.729412 0.0862745
0.407843 0.741176 0.243137
0.415686 0.737255 0.243137
0.423529 0.737255 0.247059
0.439216 0.737255 0.25098
0.458824 0.733333 0.254902
0.478431 0.729412 0.258824
0.505882 0.721569 0.262745
0.537255 0.72549 0.262745
0.576471 0.72549 0.25098
0.611765 0.729412 0.243137
0.65098 0.733333 0.235294
0.694118 0.737255 0.223529
0.733333 0.741176 0.207843
0.780392 0.745098 0.192157
0.839216 0.772549 0.184314
0.882353 0.776471 0.176471
0.917647 0.776471 0.168627
0.458824 0.792157 0.286275
0.466667 0.788235 0.286275
0.47451 0.792157 0.290196
0.490196 0.788235 0.294118
0.501961 0.784314 0.294118
0.513725 0.780392 0.298039
0.545098 0.776471 0.305882
0.564706 0.776471 0.305882
0.6 0.780392 0.301961
0.631373 0.780392 0.298039
0.670588 0.784314 0.290196
0.705882 0.788235 0.282353
0.745098 0.792157 0.266667
0.784314 0.8 0.262745
0.823529 0.8 0.243137
0.886275 0.827451 0.235294
0.92549 0.827451 0.239216
0.509804 0.843137 0.341176
0.517647 0.839216 0.345098
0.52549 0.843137 0.345098
0.529412 0.839216 0.34902
0.545098 0.835294 0.352941
0.564706 0.839216 0.356863
0.580392 0.835294 0.364706
0.6 0.831373 0.368627
0.623529 0.831373 0.368627
0.654902 0.835294 0.360784
0.686275 0.835294 0.356863
0.721569 0.839216 0.352941
0.756863 0.843137 0.345098
0.788235 0.85098 0.333333
0.827451 0.85098 0.317647
0.87451 0.85098 0.301961
0.92549 0.866667 0.301961
0.564706 0.894118 0.415686
0.568627 0.898039 0.419608
0.576471 0.894118 0.419608
0.580392 0.894118 0.419608
0.588235 0.894118 0.423529
0.603922 0.890196 0.431373
0.619608 0.890196 0.435294
0.639216 0.886275 0.439216
0.658824 0.886275 0.447059
0.682353 0.890196 0.447059
0.709804 0.894118 0.443137
0.741176 0.894118 0.443137
0.768627 0.898039 0.431373
0.803922 0.901961 0.431373
0.843137 0.905882 0.419608
0.882353 0.905882 0.407843
0.917647 0.905882 0.396078
0.619608 0.941176 0.501961
0.619608 0.941176 0.501961
0.627451 0.941176 0.501961
0.635294 0.941176 0.505882
0.643137 0.941176 0.509804
0.654902 0.941176 0.517647
0.670588 0.941176 0.521569
0.682353 0.937255 0.533333
0.701961 0.937255 0.54902
0.721569 0.941176 0.54902
0.745098 0.941176 0.54902
0.772549 0.94902 0.54902
0.8 0.94902 0.54902
0.831373 0.952941 0.545098
0.866667 0.956863 0.541176
0.901961 0.964706 0.537255
0.937255 0.964706 0.533333
0.109804 0.121569 0.156863
0.121569 0.121569 0.152941
0.145098 0.12549 0.152941
0.176471 0.121569 0.156863
0.219608 0.117647 0.152941
0.286275 0.0980392 0.145098
0.360784 0.0823529 0.14902
0.435294 0.0196078 0.14902
0.517647 0 0.152941
0.592157 0 0.160784
0.654902 0 0.168627
0.709804 0 0.168627
0.752941 0.0901961 0.164706
0.8 0.145098 0.172549
0.839216 0.192157 0.176471
0.87451 0.235294 0.176471
0.909804 0.262745 0.184314
0.109804 0.141176 0.152941
0.12549 0.137255 0.156863
0.145098 0.145098 0.152941
0.180392 0.141176 0.156863
0.223529 0.137255 0.14902
0.290196 0.12549 0.152941
0.360784 0.113725 0.14902
0.439216 0.0941176 0.156863
0.517647 0.0352941 0.14902
0.588235 0.0627451 0.160784
0.65098 0.0627451 0.168627
0.705882 0.0901961 0.164706
0.756863 0.129412 0.160784
0.796078 0.172549 0.160784
0.839216 0.207843 0.168627
0.878431 0.247059 0.176471
