lut/Fuji 160C ++.cube
#Generated by Picture Instruments - Look Creator
TITLE "Fuji 160C ++"
LUT_3D_SIZE 5
0.0862745 0.0901961 0.0666667
0.203922 0.0941176 0.0784314
0.458824 0 0.0666667
0.701961 0.00784314 0.0470588
0.866667 0.247059 0.0941176
0.113725 0.239216 0.0784314
0.219608 0.247059 0.0823529
0.466667 0.243137 0.0352941
0.701961 0.27451 0.0117647
0.866667 0.364706 0.0862745
0.2 0.501961 0.0941176
0.27451 0.494118 0.105882
0.47451 0.501961 0.0862745
0.701961 0.529412 0
0.866667 0.545098 0.054902
0.368627 0.721569 0.196078
0.411765 0.713725 0.196078
0.541176 0.709804 0.196078
0.705882 0.713725 0.203922
0.882353 0.74902 0.227451
0.576471 0.92549 0.419608
0.603922 0.92549 0.419608
0.670588 0.92549 0.45098
0.784314 0.933333 0.482353
0.921569 0.945098 0.529412
0.105882 0.109804 0.192157
0.223529 0.113725 0.203922
0.482353 0.00392157 0.203922
0.709804 0.164706 0.254902
0.866667 0.298039 0.278431
0.152941 0.258824 0.223529
0.262745 0.270588 0.227451
0.498039 0.27451 0.231373
0.709804 0.305882 0.239216
0.862745 0.388235 0.27451
0.270588 0.529412 0.25098
0.32549 0.521569 0.243137
0.505882 0.517647 0.247059
0.709804 0.529412 0.227451
0.866667 0.552941 0.254902
0.4 0.72549 0.301961
0.443137 0.721569 0.305882
0.552941 0.713725 0.305882
0.709804 0.721569 0.317647
0.886275 0.752941 0.333333
0.588235 0.929412 0.47451
0.611765 0.92549 0.478431
0.67451 0.92549 0.501961
0.788235 0.933333 0.529412
0.92549 0.94902 0.572549
0.145098 0.133333 0.45098
0.27451 0.137255 0.466667
0.509804 0.129412 0.494118
0.717647 0.0823529 0.470588
0.870588 0.290196 0.494118
0.192157 0.258824 0.462745
0.313725 0.282353 0.47451
0.52549 0.301961 0.501961
0.72549 0.309804 0.490196
0.870588 0.411765 0.517647
0.301961 0.541176 0.509804
0.388235 0.545098 0.513725
0.572549 0.560784 0.533333
0.729412 0.572549 0.541176
0.870588 0.588235 0.545098
0.494118 0.74902 0.552941
0.533333 0.745098 0.552941
0.596078 0.729412 0.529412
0.729412 0.729412 0.533333
0.890196 0.745098 0.529412
0.603922 0.937255 0.603922
0.623529 0.937255 0.603922
0.682353 0.937255 0.615686
0.780392 0.937255 0.635294
0.92549 0.94902 0.658824
0.305882 0.180392 0.701961
0.388235 0.184314 0.709804
0.560784 0.223529 0.721569
0.72549 0.294118 0.737255
0.858824 0.333333 0.721569
0.333333 0.301961 0.705882
0.411765 0.313725 0.709804
0.572549 0.34902 0.721569
0.733333 0.411765 0.745098
0.862745 0.427451 0.729412
0.32549 0.486275 0.690196
0.4 0.501961 0.701961
0.580392 0.545098 0.721569
0.741176 0.6 0.74902
0.882353 0.596078 0.741176
0.494118 0.745098 0.745098
0.533333 0.745098 0.745098
0.631373 0.74902 0.74902
0.768627 0.768627 0.768627
0.901961 0.768627 0.768627
0.635294 0.952941 0.792157
0.658824 0.952941 0.792157
0.721569 0.94902 0.788235
0.796078 0.94902 0.772549
0.937255 0.960784 0.788235
0.545098 0.388235 0.921569
0.580392 0.407843 0.933333
0.666667 0.443137 0.929412
0.780392 0.513725 0.929412
0.890196 0.54902 0.929412
0.556863 0.466667 0.92549
0.592157 0.478431 0.92549
0.67451 0.509804 0.929412
0.780392 0.564706 0.929412
0.894118 0.588235 0.937255
0.54902 0.592157 0.933333
0.584314 0.6 0.933333
0.670588 0.619608 0.929412
0.784314 0.654902 0.933333
0.909804 0.682353 0.941176
0.541176 0.745098 0.941176
0.560784 0.741176 0.937255
0.631373 0.729412 0.937255
0.788235 0.764706 0.945098
0.92549 0.803922 0.94902
0.635294 0.952941 0.964706
0.654902 0.956863 0.964706
0.717647 0.956863 0.960784
0.815686 0.964706 0.964706
0.964706 0.964706 0.968627
