lut/Fuji 160C ++.cube
#Generated by Picture Instruments - Look Creator
TITLE "Fuji 160C ++"
LUT_3D_SIZE 9
0.0862745 0.0901961 0.0666667
0.12549 0.0980392 0.0745098
0.203922 0.0941176 0.0784314
0.313725 0.0745098 0.0705882
0.458824 0 0.0666667
0.596078 0 0.0509804
0.701961 0.00784314 0.0470588
0.788235 0.160784 0.0588235
0.866667 0.247059 0.0941176
0.0980392 0.14902 0.0784314
0.129412 0.14902 0.0705882
0.211765 0.145098 0.0745098
0.32549 0.141176 0.0705882
0.462745 0.12549 0.0588235
0.592157 0.117647 0.0431373
0.698039 0.152941 0.0392157
0.792157 0.219608 0.0588235
0.862745 0.286275 0.0862745
0.113725 0.239216 0.0784314
0.145098 0.243137 0.0862745
0.219608 0.247059 0.0823529
0.341176 0.254902 0.0627451
0.466667 0.243137 0.0352941
0.596078 0.247059 0.0196078
0.701961 0.27451 0.0117647
0.788235 0.313725 0.0352941
0.866667 0.364706 0.0862745
0.14902 0.368627 0.0823529
0.172549 0.368627 0.0901961
0.239216 0.368627 0.0901961
0.341176 0.372549 0.0705882
0.482353 0.392157 0.0235294
0.596078 0.384314 0
0.701961 0.396078 0
0.796078 0.423529 0
0.862745 0.454902 0.0745098
0.2 0.501961 0.0941176
0.223529 0.501961 0.101961
0.27451 0.494118 0.105882
0.360784 0.498039 0.0980392
0.47451 0.501961 0.0862745
0.603922 0.52549 0.0431373
0.701961 0.529412 0
0.788235 0.529412 0
0.866667 0.545098 0.054902
0.270588 0.615686 0.133333
0.298039 0.619608 0.133333
0.333333 0.611765 0.141176
0.403922 0.607843 0.141176
0.501961 0.611765 0.137255
0.6 0.615686 0.133333
0.709804 0.635294 0.121569
0.796078 0.647059 0.117647
0.870588 0.65098 0.121569
0.368627 0.721569 0.196078
0.380392 0.717647 0.188235
0.411765 0.713725 0.196078
0.462745 0.709804 0.2
0.541176 0.709804 0.196078
0.627451 0.709804 0.2
0.705882 0.713725 0.203922
0.803922 0.741176 0.211765
0.882353 0.74902 0.227451
0.47451 0.819608 0.278431
0.478431 0.815686 0.278431
0.501961 0.815686 0.286275
0.537255 0.811765 0.290196
0.596078 0.807843 0.294118
0.666667 0.811765 0.298039
0.733333 0.815686 0.305882
0.803922 0.823529 0.317647
0.890196 0.839216 0.333333
0.576471 0.92549 0.419608
0.584314 0.92549 0.415686
0.603922 0.92549 0.419608
0.631373 0.921569 0.435294
0.670588 0.92549 0.45098
0.721569 0.92549 0.462745
0.784314 0.933333 0.482353
0.85098 0.941176 0.509804
0.921569 0.945098 0.529412
0.0941176 0.0980392 0.113725
0.12549 0.101961 0.117647
0.211765 0.0980392 0.113725
0.329412 0.0980392 0.121569
0.466667 0.0705882 0.12549
0.596078 0.0313725 0.129412
0.705882 0.101961 0.133333
0.796078 0.192157 0.145098
0.862745 0.266667 0.164706
0.105882 0.14902 0.117647
0.145098 0.156863 0.121569
0.227451 0.160784 0.129412
0.333333 0.160784 0.12549
0.466667 0.152941 0.12549
0.6 0.14902 0.129412
0.705882 0.180392 0.133333
0.792157 0.235294 0.141176
0.862745 0.298039 0.160784
0.14902 0.254902 0.133333
0.160784 0.254902 0.129412
0.231373 0.25098 0.12549
0.34902 0.258824 0.12549
0.47451 0.254902 0.117647
0.6 0.266667 0.121569
0.705882 0.286275 0.121569
0.788235 0.32549 0.137255
0.866667 0.368627 0.160784
0.172549 0.384314 0.141176
0.2 0.380392 0.137255
0.254902 0.376471 0.141176
0.356863 0.380392 0.129412
0.490196 0.396078 0.121569
0.6 0.388235 0.105882
0.705882 0.4 0.105882
0.792157 0.431373 0.121569
0.862745 0.458824 0.14902
0.219608 0.505882 0.145098
0.247059 0.505882 0.152941
0.286275 0.498039 0.152941
0.372549 0.501961 0.152941
0.486275 0.505882 0.145098
0.615686 0.529412 0.133333
0.701961 0.529412 0.117647
0.788235 0.52549 0.105882
0.866667 0.54902 0.137255
0.294118 0.623529 0.176471
0.309804 0.623529 0.180392
0.34902 0.615686 0.180392
0.415686 0.607843 0.180392
0.505882 0.615686 0.180392
0.607843 0.619608 0.176471
0.713725 0.639216 0.176471
0.796078 0.643137 0.168627
0.878431 0.647059 0.172549
0.372549 0.721569 0.227451
0.388235 0.721569 0.223529
0.419608 0.717647 0.231373
0.470588 0.709804 0.235294
0.545098 0.705882 0.235294
0.627451 0.709804 0.235294
0.709804 0.713725 0.243137
0.803922 0.745098 0.247059
0.886275 0.752941 0.266667
0.478431 0.819608 0.305882
0.482353 0.815686 0.305882
0.505882 0.815686 0.313725
0.541176 0.811765 0.313725
0.596078 0.807843 0.321569
0.662745 0.815686 0.32549
0.737255 0.815686 0.333333
0.807843 0.823529 0.341176
0.886275 0.839216 0.360784
0.580392 0.92549 0.435294
0.588235 0.92549 0.431373
0.603922 0.92549 0.439216
0.635294 0.92549 0.45098
0.67451 0.92549 0.470588
0.72549 0.933333 0.482353
0.784314 0.933333 0.498039
0.854902 0.941176 0.517647
0.917647 0.94902 0.537255
0.105882 0.109804 0.192157
0.141176 0.109804 0.2
0.223529 0.113725 0.203922
0.337255 0.0823529 0.2
0.482353 0.00392157 0.203922
0.607843 0.00392157 0.215686
0.709804 0.164706 0.254902
0.796078 0.235294 0.258824
0.866667 0.298039 0.278431
0.121569 0.152941 0.203922
0.164706 0.164706 0.211765
0.235294 0.164706 0.211765
0.352941 0.156863 0.203922
0.486275 0.145098 0.211765
0.611765 0.172549 0.235294
0.709804 0.219608 0.243137
0.796078 0.270588 0.258824
0.870588 0.329412 0.278431
0.152941 0.258824 0.223529
0.184314 0.262745 0.219608
0.262745 0.270588 0.227451
0.376471 0.270588 0.227451
0.498039 0.27451 0.231373
0.611765 0.286275 0.231373
0.709804 0.305882 0.239216
0.8 0.352941 0.258824
0.862745 0.388235 0.27451
0.215686 0.403922 0.239216
0.239216 0.4 0.235294
0.290196 0.396078 0.235294
0.384314 0.392157 0.235294
0.505882 0.4 0.223529
0.611765 0.4 0.219608
0.713725 0.411765 0.231373
0.796078 0.443137 0.247059
0.866667 0.470588 0.266667
0.270588 0.529412 0.25098
0.286275 0.529412 0.243137
0.32549 0.521569 0.243137
0.396078 0.509804 0.247059
0.505882 0.517647 0.247059
0.623529 0.529412 0.239216
0.709804 0.529412 0.227451
0.796078 0.537255 0.231373
0.866667 0.552941 0.254902
0.321569 0.635294 0.262745
0.341176 0.635294 0.270588
0.376471 0.623529 0.266667
0.435294 0.615686 0.270588
0.521569 0.619608 0.266667
0.611765 0.623529 0.266667
0.717647 0.643137 0.270588
0.796078 0.647059 0.266667
0.87451 0.65098 0.262745
0.4 0.72549 0.301961
0.415686 0.72549 0.298039
0.443137 0.721569 0.305882
0.486275 0.713725 0.309804
0.552941 0.713725 0.305882
0.631373 0.713725 0.309804
0.709804 0.721569 0.317647
0.807843 0.741176 0.32549
0.886275 0.752941 0.333333
0.490196 0.823529 0.364706
0.494118 0.819608 0.364706
0.517647 0.819608 0.364706
0.552941 0.815686 0.372549
0.6 0.811765 0.376471
0.666667 0.815686 0.380392
0.733333 0.819608 0.392157
0.811765 0.827451 0.396078
0.894118 0.847059 0.415686
0.588235 0.929412 0.47451
0.596078 0.92549 0.47451
0.611765 0.92549 0.478431
0.639216 0.929412 0.486275
0.67451 0.92549 0.501961
0.72549 0.933333 0.513725
0.788235 0.933333 0.529412
0.85098 0.945098 0.54902
0.92549 0.94902 0.572549
0.117647 0.117647 0.313725
0.156863 0.117647 0.313725
0.243137 0.12549 0.321569
0.352941 0.113725 0.337255
0.482353 0.0509804 0.329412
0.619608 0 0.329412
0.717647 0.0980392 0.337255
0.8 0.211765 0.360784
0.870588 0.301961 0.392157
0.14902 0.168627 0.317647
0.180392 0.172549 0.32549
0.262745 0.180392 0.333333
0.368627 0.180392 0.345098
0.490196 0.152941 0.337255
0.619608 0.141176 0.333333
0.721569 0.192157 0.34902
0.803922 0.266667 0.376471
0.866667 0.364706 0.415686
0.164706 0.25098 0.333333
0.196078 0.254902 0.329412
0.286275 0.27451 0.34902
0.392157 0.286275 0.360784
0.513725 0.270588 0.345098
0.627451 0.286275 0.352941
0.721569 0.321569 0.372549
0.8 0.388235 0.407843
0.866667 0.427451 0.423529
0.211765 0.396078 0.356863
0.243137 0.4 0.364706
0.317647 0.407843 0.368627
0.427451 0.419608 0.372549
0.533333 0.423529 0.380392
0.635294 0.431373 0.380392
0.713725 0.443137 0.384314
0.8 0.462745 0.396078
0.870588 0.490196 0.415686
0.298039 0.552941 0.384314
0.329412 0.552941 0.392157
0.384314 0.545098 0.388235
0.447059 0.533333 0.380392
0.533333 0.537255 0.380392
0.635294 0.541176 0.368627
0.717647 0.533333 0.360784
0.796078 0.54902 0.376471
0.866667 0.564706 0.392157
0.4 0.65098 0.415686
0.423529 0.65098 0.419608
0.431373 0.647059 0.392157
0.478431 0.635294 0.392157
0.545098 0.631373 0.388235
0.631373 0.631373 0.388235
0.721569 0.647059 0.388235
0.8 0.647059 0.376471
0.87451 0.647059 0.376471
0.443137 0.737255 0.415686
0.447059 0.733333 0.411765
0.478431 0.733333 0.411765
0.517647 0.72549 0.411765
0.564706 0.717647 0.407843
0.635294 0.717647 0.407843
0.717647 0.721569 0.415686
0.807843 0.741176 0.419608
0.886275 0.74902 0.427451
0.505882 0.823529 0.45098
0.513725 0.827451 0.447059
0.533333 0.823529 0.45098
0.564706 0.819608 0.45098
0.607843 0.815686 0.454902
0.670588 0.811765 0.458824
0.737255 0.819608 0.466667
0.807843 0.827451 0.47451
0.901961 0.85098 0.490196
0.592157 0.933333 0.529412
0.6 0.933333 0.529412
0.615686 0.933333 0.533333
0.639216 0.929412 0.541176
0.678431 0.929412 0.552941
0.721569 0.929412 0.560784
0.784314 0.937255 0.576471
0.854902 0.94902 0.592157
0.921569 0.94902 0.611765
0.145098 0.133333 0.45098
0.188235 0.137255 0.45098
0.27451 0.137255 0.466667
0.384314 0.141176 0.47451
0.509804 0.129412 0.494118
0.603922 0.0941176 0.478431
0.717647 0.0823529 0.470588
0.8 0.196078 0.478431
0.870588 0.290196 0.494118
0.172549 0.184314 0.454902
0.211765 0.184314 0.458824
0.290196 0.188235 0.466667
0.396078 0.192157 0.47451
0.513725 0.196078 0.498039
0.611765 0.180392 0.482353
0.717647 0.180392 0.478431
0.8 0.254902 0.486275
0.870588 0.333333 0.498039
0.192157 0.258824 0.462745
0.243137 0.27451 0.466667
0.313725 0.282353 0.47451
0.411765 0.298039 0.486275
0.52549 0.301961 0.501961
0.619608 0.298039 0.490196
0.72549 0.309804 0.490196
0.8 0.360784 0.501961
0.870588 0.411765 0.517647
0.227451 0.372549 0.47451
0.25098 0.376471 0.466667
0.321569 0.384314 0.47451
0.435294 0.415686 0.494118
0.54902 0.435294 0.513725
0.639216 0.431373 0.509804
0.729412 0.45098 0.513725
0.803922 0.482353 0.529412
0.870588 0.517647 0.552941
0.301961 0.541176 0.509804
0.333333 0.541176 0.509804
0.388235 0.545098 0.513725
0.47451 0.54902 0.52549
0.572549 0.560784 0.533333
0.65098 0.560784 0.537255
0.729412 0.572549 0.541176
0.8 0.576471 0.541176
0.870588 0.588235 0.545098
0.407843 0.666667 0.533333
0.427451 0.666667 0.537255
0.470588 0.662745 0.537255
0.529412 0.658824 0.537255
0.580392 0.643137 0.529412
0.65098 0.647059 0.529412
0.729412 0.65098 0.521569
0.8 0.643137 0.505882
0.87451 0.654902 0.517647
0.494118 0.74902 0.552941
0.505882 0.74902 0.556863
0.533333 0.745098 0.552941
0.556863 0.741176 0.537255
0.596078 0.729412 0.529412
0.65098 0.721569 0.52549
0.729412 0.729412 0.533333
0.811765 0.745098 0.533333
0.890196 0.745098 0.529412
0.560784 0.835294 0.588235
0.564706 0.835294 0.580392
0.572549 0.835294 0.564706
0.588235 0.827451 0.552941
0.627451 0.823529 0.552941
0.67451 0.819608 0.54902
0.741176 0.823529 0.552941
0.811765 0.827451 0.564706
0.901961 0.854902 0.572549
0.603922 0.937255 0.603922
0.603922 0.941176 0.6
0.623529 0.937255 0.603922
0.647059 0.937255 0.603922
0.682353 0.937255 0.615686
0.729412 0.933333 0.623529
0.780392 0.937255 0.635294
0.854902 0.945098 0.65098
0.92549 0.94902 0.658824
0.203922 0.14902 0.584314
0.243137 0.14902 0.580392
0.317647 0.152941 0.592157
0.423529 0.160784 0.603922
0.529412 0.180392 0.611765
0.631373 0.192157 0.631373
0.698039 0.188235 0.603922
0.792157 0.219608 0.607843
0.870588 0.27451 0.603922
0.227451 0.196078 0.584314
0.262745 0.2 0.588235
0.329412 0.203922 0.592157
0.431373 0.211765 0.603922
0.537255 0.231373 0.619608
0.639216 0.247059 0.631373
0.698039 0.247059 0.611765
0.796078 0.270588 0.611765
0.870588 0.321569 0.607843
0.254902 0.282353 0.588235
0.290196 0.286275 0.592157
0.345098 0.290196 0.592157
0.447059 0.301961 0.607843
0.54902 0.329412 0.623529
0.635294 0.34902 0.635294
0.705882 0.34902 0.619608
0.796078 0.360784 0.619608
0.870588 0.403922 0.615686
0.247059 0.368627 0.584314
0.27451 0.372549 0.584314
0.368627 0.396078 0.6
0.462745 0.415686 0.611765
0.556863 0.443137 0.623529
0.647059 0.462745 0.635294
0.717647 0.462745 0.627451
0.803922 0.470588 0.623529
0.870588 0.501961 0.635294
0.309804 0.505882 0.596078
0.333333 0.509804 0.6
0.388235 0.513725 0.603922
0.462745 0.521569 0.611765
0.576471 0.545098 0.627451
0.662745 0.572549 0.65098
0.733333 0.572549 0.643137
0.807843 0.584314 0.643137
0.878431 0.6 0.654902
0.411765 0.647059 0.639216
0.427451 0.647059 0.635294
0.470588 0.65098 0.639216
0.529412 0.654902 0.643137
0.603922 0.662745 0.65098
0.682353 0.666667 0.654902
0.745098 0.670588 0.654902
0.811765 0.67451 0.658824
0.878431 0.678431 0.666667
0.509804 0.768627 0.662745
0.517647 0.764706 0.666667
0.545098 0.764706 0.666667
0.588235 0.760784 0.662745
0.639216 0.756863 0.662745
0.682353 0.741176 0.65098
0.741176 0.741176 0.647059
0.815686 0.74902 0.647059
0.894118 0.745098 0.631373
0.572549 0.85098 0.678431
0.584314 0.847059 0.678431
0.6 0.847059 0.678431
0.635294 0.843137 0.678431
0.658824 0.835294 0.666667
0.690196 0.831373 0.65098
0.752941 0.827451 0.65098
0.819608 0.831373 0.654902
0.909804 0.854902 0.662745
0.639216 0.945098 0.709804
0.647059 0.941176 0.709804
0.662745 0.941176 0.713725
0.67451 0.941176 0.701961
0.690196 0.945098 0.686275
0.741176 0.945098 0.694118
0.784314 0.937255 0.698039
0.858824 0.952941 0.709804
0.933333 0.952941 0.721569
0.305882 0.180392 0.701961
0.329412 0.184314 0.701961
0.388235 0.184314 0.709804
0.470588 0.196078 0.713725
0.560784 0.223529 0.721569
0.654902 0.270588 0.729412
0.72549 0.294118 0.737255
0.776471 0.301961 0.717647
0.858824 0.333333 0.721569
0.317647 0.223529 0.701961
0.341176 0.223529 0.701961
0.396078 0.235294 0.713725
0.47451 0.243137 0.713725
0.568627 0.266667 0.721569
0.654902 0.313725 0.733333
0.729412 0.333333 0.741176
0.776471 0.337255 0.721569
0.862745 0.364706 0.72549
0.333333 0.301961 0.705882
0.352941 0.305882 0.705882
0.411765 0.313725 0.709804
0.482353 0.32549 0.713725
0.572549 0.34902 0.721569
0.658824 0.392157 0.733333
0.733333 0.411765 0.745098
0.780392 0.407843 0.72549
0.862745 0.427451 0.729412
0.333333 0.396078 0.698039
0.368627 0.403922 0.705882
0.423529 0.411765 0.705882
0.494118 0.427451 0.717647
0.580392 0.45098 0.721569
0.662745 0.490196 0.737255
0.733333 0.505882 0.745098
0.792157 0.501961 0.733333
0.866667 0.509804 0.737255
0.32549 0.486275 0.690196
0.345098 0.490196 0.694118
0.4 0.501961 0.701961
0.486275 0.517647 0.709804
0.580392 0.545098 0.721569
0.67451 0.576471 0.733333
0.741176 0.6 0.74902
0.796078 0.592157 0.741176
0.882353 0.596078 0.741176
0.403922 0.619608 0.713725
0.419608 0.623529 0.717647
0.458824 0.623529 0.717647
0.509804 0.619608 0.713725
0.576471 0.623529 0.717647
0.67451 0.654902 0.741176
0.756863 0.682353 0.760784
0.815686 0.682353 0.74902
0.890196 0.682353 0.756863
0.494118 0.745098 0.745098
0.509804 0.745098 0.745098
0.533333 0.745098 0.745098
0.584314 0.745098 0.752941
0.631373 0.74902 0.74902
0.701961 0.756863 0.760784
0.768627 0.768627 0.768627
0.839216 0.768627 0.768627
0.901961 0.768627 0.768627
0.584314 0.866667 0.780392
0.588235 0.866667 0.772549
0.607843 0.862745 0.776471
0.643137 0.858824 0.768627
0.682353 0.858824 0.776471
0.72549 0.85098 0.768627
0.764706 0.839216 0.752941
0.831373 0.839216 0.756863
0.917647 0.85098 0.756863
0.635294 0.952941 0.792157
0.643137 0.94902 0.784314
0.658824 0.952941 0.792157
0.686275 0.952941 0.792157
0.721569 0.94902 0.788235
0.756863 0.945098 0.780392
0.796078 0.94902 0.772549
0.862745 0.952941 0.780392
0.937255 0.960784 0.788235
0.423529 0.247059 0.815686
0.443137 0.25098 0.815686
0.482353 0.258824 0.819608
0.537255 0.27451 0.827451
0.607843 0.301961 0.831373
0.678431 0.34902 0.827451
0.74902 0.403922 0.835294
0.807843 0.419608 0.843137
0.862745 0.411765 0.831373
0.431373 0.282353 0.819608
0.45098 0.286275 0.819608
0.490196 0.294118 0.823529
0.541176 0.309804 0.815686
0.611765 0.337255 0.827451
0.678431 0.376471 0.831373
0.752941 0.435294 0.839216
0.815686 0.443137 0.843137
0.854902 0.435294 0.831373
0.435294 0.352941 0.811765
0.454902 0.356863 0.819608
0.494118 0.364706 0.823529
0.545098 0.380392 0.819608
0.611765 0.403922 0.827451
0.682353 0.439216 0.835294
0.752941 0.482353 0.831373
0.811765 0.498039 0.847059
0.858824 0.486275 0.827451
0.443137 0.443137 0.819608
0.458824 0.443137 0.815686
0.494118 0.45098 0.819608
0.552941 0.462745 0.819608
0.619608 0.486275 0.827451
0.682353 0.513725 0.827451
0.756863 0.552941 0.843137
0.819608 0.560784 0.843137
0.862745 0.552941 0.831373
0.4 0.505882 0.815686
0.415686 0.505882 0.811765
0.47451 0.521569 0.811765
0.54902 0.545098 0.819608
0.615686 0.564706 0.823529
0.690196 0.588235 0.835294
0.756863 0.619608 0.839216
0.823529 0.631373 0.847059
0.866667 0.623529 0.831373
0.415686 0.611765 0.811765
0.431373 0.611765 0.807843
0.458824 0.603922 0.807843
0.505882 0.607843 0.807843
0.592157 0.619608 0.823529
0.682353 0.654902 0.827451
0.764706 0.682353 0.843137
0.831373 0.705882 0.858824
0.882353 0.698039 0.847059
0.490196 0.72549 0.827451
0.501961 0.72549 0.831373
0.521569 0.721569 0.827451
0.564706 0.729412 0.827451
0.603922 0.721569 0.823529
0.662745 0.717647 0.823529
0.764706 0.74902 0.839216
0.847059 0.776471 0.862745
0.909804 0.776471 0.858824
0.564706 0.843137 0.85098
0.568627 0.843137 0.85098
0.592157 0.843137 0.85098
0.627451 0.843137 0.854902
0.666667 0.843137 0.854902
0.72549 0.847059 0.858824
0.784314 0.854902 0.862745
0.866667 0.866667 0.87451
0.933333 0.862745 0.870588
0.635294 0.964706 0.87451
0.639216 0.960784 0.87451
0.658824 0.964706 0.878431
0.682353 0.964706 0.878431
0.721569 0.964706 0.882353
0.768627 0.960784 0.878431
0.823529 0.960784 0.87451
0.870588 0.956863 0.866667
0.945098 0.960784 0.870588
0.545098 0.388235 0.921569
0.560784 0.4 0.92549
0.580392 0.407843 0.933333
0.619608 0.423529 0.929412
0.666667 0.443137 0.929412
0.717647 0.478431 0.929412
0.780392 0.513725 0.929412
0.839216 0.552941 0.933333
0.890196 0.54902 0.929412
0.54902 0.415686 0.929412
0.564706 0.423529 0.929412
0.588235 0.431373 0.92549
0.619608 0.443137 0.929412
0.670588 0.466667 0.933333
0.721569 0.490196 0.92549
0.776471 0.533333 0.929412
0.839216 0.568627 0.92549
0.894118 0.560784 0.929412
0.556863 0.466667 0.92549
0.568627 0.466667 0.929412
0.592157 0.478431 0.92549
0.623529 0.486275 0.929412
0.67451 0.509804 0.929412
0.721569 0.533333 0.92549
0.780392 0.564706 0.929412
0.847059 0.596078 0.933333
0.894118 0.588235 0.937255
0.560784 0.537255 0.929412
0.568627 0.537255 0.92549
0.596078 0.541176 0.92549
0.631373 0.552941 0.933333
0.678431 0.564706 0.929412
0.72549 0.584314 0.929412
0.784314 0.607843 0.933333
0.847059 0.635294 0.933333
0.898039 0.631373 0.933333
0.54902 0.592157 0.933333
0.560784 0.596078 0.929412
0.584314 0.6 0.933333
0.623529 0.611765 0.929412
0.670588 0.619608 0.929412
0.729412 0.635294 0.933333
0.784314 0.654902 0.933333
0.854902 0.678431 0.933333
0.909804 0.682353 0.941176
0.513725 0.65098 0.929412
0.52549 0.65098 0.929412
0.545098 0.647059 0.933333
0.584314 0.65098 0.929412
0.658824 0.67451 0.933333
0.72549 0.690196 0.937255
0.792157 0.709804 0.937255
0.862745 0.733333 0.941176
0.917647 0.737255 0.945098
0.541176 0.745098 0.941176
0.54902 0.745098 0.941176
0.560784 0.741176 0.937255
0.592157 0.737255 0.941176
0.631373 0.729412 0.937255
0.690196 0.737255 0.941176
0.788235 0.764706 0.945098
0.862745 0.792157 0.94902
0.92549 0.803922 0.94902
0.588235 0.843137 0.952941
0.592157 0.85098 0.952941
0.607843 0.847059 0.956863
0.635294 0.847059 0.956863
0.666667 0.843137 0.956863
0.705882 0.839216 0.94902
0.768627 0.835294 0.952941
0.866667 0.858824 0.952941
0.945098 0.878431 0.956863
0.635294 0.952941 0.964706
0.643137 0.956863 0.960784
0.654902 0.956863 0.964706
0.678431 0.960784 0.964706
0.717647 0.956863 0.960784
0.764706 0.960784 0.964706
0.815686 0.964706 0.964706
0.886275 0.964706 0.968627
0.964706 0.964706 0.968627
