lut/Fuji 400H ++.cube
#Generated by Picture Instruments - Look Creator
TITLE "Fuji 400H ++"
LUT_3D_SIZE 5
0.0980392 0.113725 0.0588235
0.207843 0.117647 0.0627451
0.498039 0 0.00392157
0.74902 0.0431373 0
0.905882 0.247059 0
0.121569 0.243137 0.0745098
0.219608 0.25098 0.0588235
0.509804 0.262745 0
0.74902 0.294118 0
0.905882 0.368627 0
0.211765 0.498039 0.0862745
0.282353 0.486275 0.101961
0.501961 0.505882 0
0.741176 0.54902 0.00392157
0.905882 0.568627 0
0.4 0.737255 0.207843
0.45098 0.729412 0.219608
0.568627 0.72549 0.207843
0.733333 0.745098 0.160784
0.921569 0.780392 0.0980392
0.619608 0.945098 0.490196
0.639216 0.941176 0.498039
0.698039 0.937255 0.533333
0.8 0.952941 0.533333
0.937255 0.964706 0.521569
0.113725 0.121569 0.203922
0.231373 0.121569 0.211765
0.521569 0 0.207843
0.760784 0.101961 0.243137
0.913725 0.278431 0.266667
0.141176 0.266667 0.223529
0.266667 0.27451 0.223529
0.537255 0.270588 0.227451
0.756863 0.305882 0.231373
0.909804 0.384314 0.247059
0.278431 0.537255 0.258824
0.345098 0.521569 0.258824
0.537255 0.521569 0.235294
0.74902 0.54902 0.188235
0.913725 0.572549 0.2
0.427451 0.74902 0.32549
0.478431 0.741176 0.329412
0.580392 0.729412 0.333333
0.737255 0.74902 0.305882
0.92549 0.780392 0.282353
0.627451 0.945098 0.537255
0.647059 0.945098 0.541176
0.705882 0.937255 0.572549
0.807843 0.952941 0.576471
0.937255 0.960784 0.568627
0.160784 0.137255 0.513725
0.305882 0.133333 0.517647
0.556863 0.0705882 0.541176
0.760784 0 0.521569
0.905882 0.254902 0.52549
0.180392 0.266667 0.501961
0.32549 0.282353 0.517647
0.572549 0.298039 0.545098
0.760784 0.290196 0.529412
0.909804 0.407843 0.545098
0.301961 0.556863 0.541176
0.407843 0.560784 0.54902
0.607843 0.576471 0.568627
0.768627 0.580392 0.564706
0.909804 0.603922 0.568627
0.517647 0.780392 0.572549
0.564706 0.776471 0.584314
0.627451 0.752941 0.560784
0.74902 0.760784 0.552941
0.92549 0.776471 0.529412
0.643137 0.952941 0.643137
0.662745 0.952941 0.643137
0.721569 0.94902 0.658824
0.811765 0.952941 0.678431
0.94902 0.964706 0.666667
0.360784 0.168627 0.760784
0.443137 0.168627 0.756863
0.611765 0.207843 0.768627
0.764706 0.282353 0.780392
0.898039 0.305882 0.752941
0.372549 0.298039 0.74902
0.454902 0.309804 0.752941
0.607843 0.345098 0.760784
0.764706 0.407843 0.780392
0.901961 0.423529 0.760784
0.341176 0.498039 0.737255
0.423529 0.501961 0.733333
0.623529 0.556863 0.760784
0.780392 0.619608 0.784314
0.913725 0.611765 0.764706
0.509804 0.776471 0.772549
0.556863 0.776471 0.772549
0.658824 0.784314 0.780392
0.8 0.8 0.792157
0.933333 0.8 0.792157
0.662745 0.972549 0.796078
0.690196 0.968627 0.803922
0.74902 0.964706 0.807843
0.831373 0.956863 0.796078
0.960784 0.964706 0.8
0.580392 0.403922 0.937255
0.615686 0.427451 0.941176
0.694118 0.462745 0.937255
0.803922 0.533333 0.933333
0.921569 0.564706 0.941176
0.596078 0.490196 0.941176
0.619608 0.501961 0.937255
0.701961 0.533333 0.937255
0.811765 0.592157 0.941176
0.92549 0.615686 0.941176
0.592157 0.615686 0.941176
0.627451 0.635294 0.937255
0.705882 0.654902 0.937255
0.815686 0.690196 0.937255
0.937255 0.713725 0.941176
0.580392 0.764706 0.945098
0.603922 0.764706 0.945098
0.670588 0.764706 0.945098
0.823529 0.8 0.94902
0.956863 0.831373 0.94902
0.654902 0.972549 0.956863
0.67451 0.972549 0.956863
0.741176 0.976471 0.964706
0.85098 0.976471 0.960784
0.988235 0.972549 0.964706
