lut/Fuji 400H ++.cube
#Generated by Picture Instruments - Look Creator
TITLE "Fuji 400H ++"
LUT_3D_SIZE 9
0.0980392 0.113725 0.0588235
0.129412 0.113725 0.0666667
0.207843 0.117647 0.0627451
0.341176 0.0901961 0.0431373
0.498039 0 0.00392157
0.643137 0 0
0.74902 0.0431373 0
0.835294 0.176471 0
0.905882 0.247059 0
0.105882 0.160784 0.0705882
0.129412 0.160784 0.0666667
0.219608 0.168627 0.0431373
0.34902 0.156863 0.027451
0.501961 0.137255 0.00392157
0.643137 0.133333 0
0.745098 0.168627 0
0.839216 0.235294 0
0.905882 0.286275 0
0.121569 0.243137 0.0745098
0.141176 0.239216 0.0745098
0.219608 0.25098 0.0588235
0.356863 0.266667 0
0.509804 0.262745 0
0.639216 0.266667 0
0.74902 0.294118 0
0.835294 0.329412 0
0.905882 0.368627 0
0.152941 0.364706 0.0705882
0.180392 0.360784 0.0784314
0.239216 0.364706 0.0745098
0.352941 0.372549 0.0117647
0.513725 0.4 0
0.635294 0.403922 0
0.741176 0.419608 0
0.827451 0.447059 0
0.909804 0.466667 0
0.211765 0.498039 0.0862745
0.235294 0.498039 0.0941176
0.282353 0.486275 0.101961
0.380392 0.494118 0.0784314
0.501961 0.505882 0
0.643137 0.533333 0
0.741176 0.54902 0.00392157
0.827451 0.560784 0
0.905882 0.568627 0
0.301961 0.623529 0.137255
0.313725 0.619608 0.141176
0.356863 0.611765 0.14902
0.431373 0.607843 0.141176
0.529412 0.615686 0.117647
0.635294 0.627451 0.0588235
0.745098 0.654902 0
0.831373 0.67451 0
0.913725 0.67451 0
0.4 0.737255 0.207843
0.415686 0.737255 0.211765
0.45098 0.729412 0.219608
0.498039 0.717647 0.227451
0.568627 0.72549 0.207843
0.65098 0.733333 0.188235
0.733333 0.745098 0.160784
0.839216 0.772549 0.117647
0.921569 0.780392 0.0980392
0.509804 0.847059 0.32549
0.517647 0.839216 0.32549
0.541176 0.835294 0.329412
0.576471 0.831373 0.337255
0.627451 0.831373 0.337255
0.682353 0.835294 0.329412
0.756863 0.843137 0.313725
0.831373 0.85098 0.286275
0.92549 0.866667 0.270588
0.619608 0.945098 0.490196
0.627451 0.941176 0.486275
0.639216 0.941176 0.498039
0.666667 0.937255 0.509804
0.698039 0.937255 0.533333
0.745098 0.945098 0.537255
0.8 0.952941 0.533333
0.866667 0.956863 0.52549
0.937255 0.964706 0.521569
0.101961 0.117647 0.113725
0.133333 0.117647 0.113725
0.223529 0.113725 0.109804
0.352941 0.0941176 0.109804
0.505882 0 0.109804
0.65098 0 0.0980392
0.752941 0.0745098 0.0901961
0.835294 0.184314 0.0980392
0.909804 0.258824 0.109804
0.113725 0.168627 0.117647
0.145098 0.168627 0.113725
0.231373 0.168627 0.117647
0.356863 0.164706 0.109804
0.509804 0.141176 0.101961
0.647059 0.133333 0.0941176
0.74902 0.176471 0.0862745
0.835294 0.239216 0.0862745
0.905882 0.294118 0.101961
0.145098 0.262745 0.129412
0.164706 0.258824 0.12549
0.235294 0.258824 0.117647
0.372549 0.266667 0.0980392
0.513725 0.262745 0.0823529
0.647059 0.266667 0.0666667
0.74902 0.298039 0.0431373
0.835294 0.333333 0.0470588
0.905882 0.372549 0.0823529
0.176471 0.380392 0.129412
0.2 0.372549 0.12549
0.258824 0.368627 0.129412
0.372549 0.384314 0.113725
0.52549 0.4 0.0666667
0.647059 0.403922 0
0.74902 0.427451 0.00392157
0.831373 0.45098 0
0.913725 0.470588 0
0.231373 0.509804 0.141176
0.254902 0.509804 0.14902
0.301961 0.494118 0.156863
0.396078 0.498039 0.141176
0.513725 0.509804 0.113725
0.65098 0.537255 0.027451
0.74902 0.54902 0
0.831373 0.552941 0
0.905882 0.568627 0
0.313725 0.627451 0.184314
0.329412 0.627451 0.180392
0.368627 0.619608 0.188235
0.435294 0.615686 0.192157
0.541176 0.619608 0.168627
0.635294 0.631373 0.141176
0.74902 0.662745 0.0941176
0.835294 0.670588 0
0.917647 0.67451 0
0.407843 0.741176 0.243137
0.423529 0.737255 0.247059
0.458824 0.733333 0.254902
0.505882 0.721569 0.262745
0.576471 0.72549 0.25098
0.65098 0.733333 0.235294
0.733333 0.741176 0.207843
0.839216 0.772549 0.184314
0.917647 0.776471 0.168627
0.509804 0.843137 0.341176
0.52549 0.843137 0.345098
0.545098 0.835294 0.352941
0.580392 0.835294 0.364706
0.623529 0.831373 0.368627
0.686275 0.835294 0.356863
0.756863 0.843137 0.345098
0.827451 0.85098 0.317647
0.92549 0.866667 0.301961
0.619608 0.941176 0.501961
0.627451 0.941176 0.501961
0.643137 0.941176 0.509804
0.670588 0.941176 0.521569
0.701961 0.937255 0.54902
0.745098 0.941176 0.54902
0.8 0.94902 0.54902
0.866667 0.956863 0.541176
0.937255 0.964706 0.533333
0.113725 0.121569 0.203922
0.145098 0.12549 0.211765
0.231373 0.121569 0.211765
0.360784 0.0784314 0.203922
0.521569 0 0.207843
0.658824 0 0.211765
0.760784 0.101961 0.243137
0.839216 0.203922 0.254902
0.913725 0.278431 0.266667
0.117647 0.164706 0.211765
0.164706 0.172549 0.211765
0.243137 0.176471 0.215686
0.372549 0.14902 0.207843
0.52549 0.117647 0.215686
0.662745 0.121569 0.223529
0.756863 0.188235 0.239216
0.839216 0.25098 0.247059
0.909804 0.313725 0.262745
0.141176 0.266667 0.223529
0.184314 0.270588 0.223529
0.266667 0.27451 0.223529
0.4 0.27451 0.231373
0.537255 0.270588 0.227451
0.658824 0.27451 0.223529
0.756863 0.305882 0.231373
0.835294 0.345098 0.235294
0.909804 0.384314 0.247059
0.207843 0.407843 0.239216
0.247059 0.407843 0.243137
0.298039 0.396078 0.239216
0.403922 0.4 0.227451
0.54902 0.407843 0.211765
0.658824 0.407843 0.196078
0.74902 0.427451 0.2
0.839216 0.454902 0.215686
0.909804 0.47451 0.227451
0.278431 0.537255 0.258824
0.294118 0.529412 0.247059
0.345098 0.521569 0.258824
0.423529 0.513725 0.254902
0.537255 0.521569 0.235294
0.658824 0.545098 0.215686
0.74902 0.54902 0.188235
0.831373 0.556863 0.172549
0.913725 0.572549 0.2
0.345098 0.647059 0.278431
0.364706 0.643137 0.282353
0.403922 0.635294 0.282353
0.462745 0.619608 0.282353
0.54902 0.627451 0.278431
0.65098 0.639216 0.258824
0.752941 0.666667 0.239216
0.835294 0.67451 0.219608
0.913725 0.67451 0.192157
0.427451 0.74902 0.32549
0.447059 0.74902 0.321569
0.478431 0.741176 0.329412
0.517647 0.733333 0.337255
0.580392 0.729412 0.333333
0.662745 0.737255 0.317647
0.737255 0.74902 0.305882
0.847059 0.776471 0.290196
0.92549 0.780392 0.282353
0.521569 0.847059 0.4
0.533333 0.847059 0.403922
0.552941 0.843137 0.407843
0.588235 0.835294 0.415686
0.631373 0.831373 0.427451
0.690196 0.835294 0.419608
0.756863 0.843137 0.407843
0.835294 0.854902 0.392157
0.929412 0.870588 0.376471
0.627451 0.945098 0.537255
0.631373 0.941176 0.537255
0.647059 0.945098 0.541176
0.67451 0.941176 0.552941
0.705882 0.937255 0.572549
0.74902 0.941176 0.576471
0.807843 0.952941 0.576471
0.866667 0.960784 0.576471
0.937255 0.960784 0.568627
0.117647 0.133333 0.360784
0.172549 0.133333 0.364706
0.266667 0.12549 0.368627
0.396078 0.101961 0.376471
0.529412 0 0.368627
0.670588 0 0.368627
0.764706 0 0.368627
0.843137 0.160784 0.380392
0.913725 0.270588 0.403922
0.137255 0.180392 0.356863
0.188235 0.184314 0.360784
0.282353 0.184314 0.368627
0.403922 0.172549 0.372549
0.533333 0.117647 0.368627
0.670588 0.0627451 0.368627
0.764706 0.145098 0.376471
0.843137 0.235294 0.392157
0.905882 0.341176 0.423529
0.141176 0.258824 0.352941
0.184314 0.262745 0.360784
0.294118 0.278431 0.368627
0.423529 0.286275 0.388235
0.556863 0.262745 0.380392
0.67451 0.270588 0.384314
0.764706 0.305882 0.392157
0.839216 0.384314 0.427451
0.909804 0.419608 0.435294
0.196078 0.411765 0.388235
0.239216 0.415686 0.388235
0.329412 0.419608 0.396078
0.454902 0.427451 0.4
0.572549 0.427451 0.396078
0.678431 0.431373 0.396078
0.760784 0.45098 0.4
0.835294 0.470588 0.403922
0.909804 0.490196 0.411765
0.305882 0.568627 0.407843
0.337255 0.564706 0.407843
0.411765 0.560784 0.415686
0.482353 0.545098 0.403922
0.564706 0.545098 0.396078
0.67451 0.552941 0.380392
0.756863 0.552941 0.364706
0.839216 0.564706 0.372549
0.913725 0.576471 0.384314
0.419608 0.670588 0.435294
0.443137 0.670588 0.443137
0.458824 0.662745 0.419608
0.509804 0.647059 0.419608
0.568627 0.639216 0.411765
0.666667 0.65098 0.403922
0.756863 0.670588 0.384314
0.839216 0.670588 0.364706
0.917647 0.666667 0.345098
0.47451 0.760784 0.443137
0.478431 0.760784 0.439216
0.509804 0.756863 0.447059
0.545098 0.745098 0.443137
0.592157 0.733333 0.443137
0.666667 0.741176 0.431373
0.745098 0.752941 0.423529
0.839216 0.772549 0.411765
0.92549 0.780392 0.4
0.541176 0.85098 0.490196
0.552941 0.854902 0.486275
0.572549 0.85098 0.490196
0.6 0.847059 0.498039
0.643137 0.839216 0.505882
0.690196 0.839216 0.498039
0.756863 0.847059 0.490196
0.831373 0.854902 0.478431
0.933333 0.87451 0.470588
0.631373 0.94902 0.584314
0.639216 0.94902 0.588235
0.654902 0.94902 0.592157
0.678431 0.94902 0.6
0.709804 0.941176 0.611765
0.752941 0.945098 0.623529
0.803922 0.952941 0.623529
0.870588 0.956863 0.619608
0.945098 0.964706 0.619608
0.160784 0.137255 0.513725
0.207843 0.137255 0.517647
0.305882 0.133333 0.517647
0.435294 0.117647 0.529412
0.556863 0.0705882 0.541176
0.65098 0 0.529412
0.760784 0 0.521569
0.839216 0.133333 0.521569
0.905882 0.254902 0.52549
0.180392 0.192157 0.509804
0.223529 0.188235 0.513725
0.313725 0.188235 0.521569
0.435294 0.184314 0.52549
0.560784 0.168627 0.545098
0.65098 0.133333 0.529412
0.760784 0.12549 0.529412
0.839216 0.219608 0.521569
0.909804 0.309804 0.529412
0.180392 0.266667 0.501961
0.239216 0.278431 0.517647
0.32549 0.282353 0.517647
0.45098 0.286275 0.533333
0.572549 0.298039 0.545098
0.662745 0.286275 0.537255
0.760784 0.290196 0.529412
0.843137 0.34902 0.537255
0.909804 0.407843 0.545098
0.207843 0.384314 0.505882
0.25098 0.388235 0.513725
0.329412 0.392157 0.513725
0.470588 0.419608 0.537255
0.584314 0.439216 0.552941
0.678431 0.431373 0.545098
0.764706 0.45098 0.54902
0.843137 0.486275 0.556863
0.909804 0.52549 0.576471
0.301961 0.556863 0.541176
0.337255 0.556863 0.545098
0.407843 0.560784 0.54902
0.501961 0.564706 0.560784
0.607843 0.576471 0.568627
0.690196 0.572549 0.564706
0.768627 0.580392 0.564706
0.839216 0.592157 0.564706
0.909804 0.603922 0.568627
0.423529 0.698039 0.564706
0.443137 0.694118 0.560784
0.494118 0.686275 0.568627
0.560784 0.678431 0.568627
0.611765 0.666667 0.564706
0.686275 0.670588 0.556863
0.764706 0.678431 0.533333
0.843137 0.670588 0.517647
0.917647 0.67451 0.529412
0.517647 0.780392 0.572549
0.533333 0.776471 0.576471
0.564706 0.776471 0.584314
0.596078 0.768627 0.576471
0.627451 0.752941 0.560784
0.678431 0.74902 0.560784
0.74902 0.760784 0.552941
0.847059 0.772549 0.541176
0.92549 0.776471 0.529412
0.592157 0.862745 0.615686
0.596078 0.862745 0.607843
0.6 0.862745 0.592157
0.623529 0.854902 0.588235
0.658824 0.85098 0.592157
0.701961 0.843137 0.592157
0.760784 0.85098 0.584314
0.835294 0.858824 0.576471
0.937255 0.87451 0.572549
0.643137 0.952941 0.643137
0.647059 0.956863 0.647059
0.662745 0.952941 0.643137
0.682353 0.94902 0.647059
0.721569 0.94902 0.658824
0.760784 0.945098 0.678431
0.811765 0.952941 0.678431
0.87451 0.960784 0.67451
0.94902 0.964706 0.666667
0.243137 0.145098 0.643137
0.286275 0.141176 0.647059
0.368627 0.137255 0.65098
0.47451 0.133333 0.654902
0.588235 0.152941 0.666667
0.682353 0.156863 0.678431
0.737255 0.145098 0.658824
0.831373 0.176471 0.65098
0.909804 0.235294 0.643137
0.25098 0.196078 0.635294
0.290196 0.196078 0.639216
0.368627 0.196078 0.647059
0.478431 0.196078 0.654902
0.584314 0.215686 0.662745
0.67451 0.227451 0.67451
0.741176 0.215686 0.65098
0.831373 0.239216 0.65098
0.909804 0.294118 0.647059
0.266667 0.282353 0.639216
0.301961 0.282353 0.635294
0.380392 0.282353 0.639216
0.486275 0.294118 0.65098
0.588235 0.321569 0.662745
0.682353 0.337255 0.67451
0.745098 0.333333 0.662745
0.839216 0.34902 0.654902
0.913725 0.392157 0.654902
0.243137 0.376471 0.627451
0.282353 0.372549 0.635294
0.384314 0.4 0.639216
0.494118 0.415686 0.647059
0.6 0.447059 0.662745
0.682353 0.470588 0.67451
0.756863 0.466667 0.666667
0.839216 0.47451 0.658824
0.909804 0.509804 0.662745
0.321569 0.521569 0.643137
0.345098 0.521569 0.643137
0.403922 0.52549 0.639216
0.486275 0.521569 0.643137
0.611765 0.560784 0.662745
0.698039 0.588235 0.678431
0.764706 0.588235 0.678431
0.843137 0.603922 0.67451
0.909804 0.619608 0.686275
0.423529 0.67451 0.670588
0.443137 0.678431 0.670588
0.486275 0.67451 0.67451
0.556863 0.682353 0.678431
0.631373 0.686275 0.686275
0.713725 0.698039 0.694118
0.776471 0.701961 0.686275
0.85098 0.701961 0.690196
0.917647 0.705882 0.690196
0.529412 0.807843 0.690196
0.533333 0.803922 0.690196
0.568627 0.8 0.690196
0.615686 0.796078 0.686275
0.670588 0.788235 0.694118
0.713725 0.772549 0.682353
0.764706 0.772549 0.678431
0.847059 0.780392 0.662745
0.929412 0.772549 0.647059
0.6 0.882353 0.701961
0.607843 0.878431 0.694118
0.631373 0.878431 0.701961
0.666667 0.87451 0.701961
0.698039 0.866667 0.698039
0.72549 0.854902 0.686275
0.772549 0.854902 0.686275
0.847059 0.858824 0.67451
0.937255 0.87451 0.67451
0.670588 0.960784 0.729412
0.682353 0.960784 0.733333
0.694118 0.960784 0.737255
0.709804 0.956863 0.733333
0.729412 0.956863 0.72549
0.768627 0.952941 0.737255
0.819608 0.956863 0.745098
0.882353 0.960784 0.741176
0.94902 0.964706 0.737255
0.360784 0.168627 0.760784
0.388235 0.168627 0.760784
0.443137 0.168627 0.756863
0.52549 0.176471 0.764706
0.611765 0.207843 0.768627
0.694118 0.262745 0.776471
0.764706 0.282353 0.780392
0.815686 0.27451 0.752941
0.898039 0.305882 0.752941
0.364706 0.215686 0.752941
0.388235 0.215686 0.752941
0.447059 0.219608 0.760784
0.52549 0.227451 0.756863
0.611765 0.254902 0.768627
0.694118 0.305882 0.772549
0.768627 0.32549 0.780392
0.815686 0.317647 0.760784
0.901961 0.34902 0.756863
0.372549 0.298039 0.74902
0.396078 0.301961 0.74902
0.454902 0.309804 0.752941
0.529412 0.317647 0.756863
0.607843 0.345098 0.760784
0.694118 0.392157 0.768627
0.764706 0.407843 0.780392
0.819608 0.403922 0.760784
0.901961 0.423529 0.760784
0.360784 0.4 0.741176
0.403922 0.411765 0.745098
0.454902 0.419608 0.745098
0.529412 0.431373 0.756863
0.615686 0.454902 0.760784
0.698039 0.498039 0.768627
0.772549 0.517647 0.784314
0.823529 0.505882 0.764706
0.905882 0.513725 0.760784
0.341176 0.498039 0.737255
0.364706 0.498039 0.737255
0.423529 0.501961 0.733333
0.521569 0.52549 0.745098
0.623529 0.556863 0.760784
0.701961 0.596078 0.772549
0.780392 0.619608 0.784314
0.835294 0.611765 0.772549
0.913725 0.611765 0.764706
0.423529 0.643137 0.74902
0.439216 0.639216 0.752941
0.478431 0.639216 0.74902
0.533333 0.639216 0.745098
0.603922 0.643137 0.74902
0.701961 0.682353 0.768627
0.784314 0.709804 0.784314
0.854902 0.709804 0.780392
0.921569 0.713725 0.780392
0.509804 0.776471 0.772549
0.52549 0.776471 0.772549
0.556863 0.776471 0.772549
0.6 0.780392 0.772549
0.658824 0.784314 0.780392
0.72549 0.788235 0.784314
0.8 0.8 0.792157
0.870588 0.8 0.792157
0.933333 0.8 0.792157
0.6 0.898039 0.788235
0.607843 0.898039 0.792157
0.631373 0.901961 0.792157
0.662745 0.890196 0.792157
0.709804 0.890196 0.788235
0.764706 0.878431 0.792157
0.796078 0.866667 0.780392
0.858824 0.866667 0.780392
0.945098 0.878431 0.768627
0.662745 0.972549 0.796078
0.670588 0.972549 0.8
0.690196 0.968627 0.803922
0.713725 0.968627 0.803922
0.74902 0.964706 0.807843
0.796078 0.960784 0.803922
0.831373 0.956863 0.796078
0.890196 0.960784 0.803922
0.960784 0.964706 0.8
0.478431 0.243137 0.854902
0.490196 0.25098 0.858824
0.529412 0.258824 0.858824
0.580392 0.27451 0.854902
0.647059 0.305882 0.858824
0.709804 0.352941 0.858824
0.776471 0.411765 0.862745
0.847059 0.419608 0.870588
0.898039 0.403922 0.854902
0.47451 0.282353 0.847059
0.494118 0.286275 0.85098
0.52549 0.294118 0.85098
0.580392 0.313725 0.858824
0.639216 0.337255 0.854902
0.709804 0.380392 0.858824
0.780392 0.439216 0.858824
0.847059 0.45098 0.866667
0.898039 0.431373 0.854902
0.482353 0.356863 0.847059
0.498039 0.364706 0.847059
0.529412 0.364706 0.85098
0.580392 0.380392 0.847059
0.643137 0.407843 0.854902
0.709804 0.447059 0.858824
0.784314 0.498039 0.858824
0.843137 0.505882 0.862745
0.898039 0.490196 0.854902
0.482353 0.45098 0.847059
0.501961 0.454902 0.847059
0.537255 0.458824 0.847059
0.588235 0.470588 0.847059
0.65098 0.498039 0.854902
0.717647 0.529412 0.858824
0.784314 0.572549 0.866667
0.854902 0.580392 0.866667
0.898039 0.564706 0.85098
0.435294 0.517647 0.843137
0.454902 0.521569 0.843137
0.513725 0.537255 0.843137
0.584314 0.560784 0.843137
0.647059 0.580392 0.847059
0.721569 0.611765 0.85098
0.792157 0.647059 0.858824
0.854902 0.658824 0.866667
0.905882 0.647059 0.854902
0.447059 0.623529 0.839216
0.466667 0.627451 0.839216
0.494118 0.623529 0.835294
0.541176 0.623529 0.835294
0.623529 0.647059 0.843137
0.717647 0.682353 0.85098
0.796078 0.717647 0.862745
0.866667 0.733333 0.862745
0.921569 0.729412 0.866667
0.517647 0.752941 0.854902
0.529412 0.756863 0.85098
0.54902 0.752941 0.847059
0.588235 0.752941 0.847059
0.639216 0.74902 0.843137
0.694118 0.74902 0.85098
0.796078 0.784314 0.858824
0.882353 0.815686 0.878431
0.937255 0.807843 0.870588
0.580392 0.870588 0.866667
0.592157 0.87451 0.862745
0.615686 0.87451 0.866667
0.643137 0.87451 0.866667
0.694118 0.87451 0.866667
0.752941 0.878431 0.866667
0.819608 0.882353 0.878431
0.894118 0.890196 0.882353
0.960784 0.886275 0.878431
0.65098 0.980392 0.878431
0.654902 0.980392 0.878431
0.67451 0.980392 0.878431
0.705882 0.980392 0.882353
0.74902 0.976471 0.882353
0.8 0.972549 0.882353
0.854902 0.968627 0.882353
0.905882 0.964706 0.87451
0.976471 0.968627 0.878431
0.580392 0.403922 0.937255
0.592157 0.419608 0.945098
0.615686 0.427451 0.941176
0.65098 0.443137 0.941176
0.694118 0.462745 0.937255
0.745098 0.498039 0.937255
0.803922 0.533333 0.933333
0.87451 0.576471 0.937255
0.921569 0.564706 0.941176
0.588235 0.443137 0.941176
0.6 0.443137 0.945098
0.615686 0.447059 0.937255
0.654902 0.462745 0.937255
0.698039 0.486275 0.937255
0.74902 0.521569 0.945098
0.807843 0.552941 0.937255
0.870588 0.592157 0.941176
0.921569 0.584314 0.941176
0.596078 0.490196 0.941176
0.603922 0.494118 0.941176
0.619608 0.501961 0.937255
0.654902 0.509804 0.937255
0.701961 0.533333 0.937255
0.756863 0.556863 0.941176
0.811765 0.592157 0.941176
0.87451 0.627451 0.937255
0.92549 0.615686 0.941176
0.6 0.556863 0.941176
0.607843 0.560784 0.941176
0.627451 0.564706 0.941176
0.662745 0.576471 0.937255
0.705882 0.596078 0.937255
0.752941 0.615686 0.937255
0.811765 0.639216 0.941176
0.87451 0.666667 0.937255
0.933333 0.662745 0.941176
0.592157 0.615686 0.941176
0.603922 0.623529 0.945098
0.627451 0.635294 0.937255
0.666667 0.639216 0.941176
0.705882 0.654902 0.937255
0.760784 0.670588 0.945098
0.815686 0.690196 0.937255
0.886275 0.717647 0.937255
0.937255 0.713725 0.941176
0.564706 0.67451 0.945098
0.572549 0.67451 0.937255
0.596078 0.682353 0.945098
0.631373 0.686275 0.941176
0.701961 0.709804 0.941176
0.760784 0.72549 0.941176
0.823529 0.745098 0.945098
0.890196 0.768627 0.941176
0.945098 0.768627 0.94902
0.580392 0.764706 0.945098
0.592157 0.764706 0.945098
0.603922 0.764706 0.945098
0.631373 0.764706 0.945098
0.670588 0.764706 0.945098
0.729412 0.772549 0.94902
0.823529 0.8 0.94902
0.898039 0.823529 0.94902
0.956863 0.831373 0.94902
0.615686 0.870588 0.956863
0.623529 0.866667 0.94902
0.643137 0.870588 0.956863
0.662745 0.866667 0.952941
0.701961 0.866667 0.952941
0.745098 0.866667 0.94902
0.8 0.866667 0.952941
0.898039 0.878431 0.956863
0.968627 0.898039 0.956863
0.654902 0.972549 0.956863
0.662745 0.976471 0.960784
0.67451 0.972549 0.956863
0.701961 0.976471 0.960784
0.741176 0.976471 0.964706
0.792157 0.972549 0.960784
0.85098 0.976471 0.960784
0.917647 0.976471 0.960784
0.988235 0.972549 0.964706
