lut/Ilford HP5 ++.cube
#Generated by Picture Instruments - Look Creator
TITLE "Ilford HP5 ++"
LUT_3D_SIZE 5
0.2 0.2 0.2
0.215686 0.215686 0.215686
0.282353 0.282353 0.282353
0.411765 0.411765 0.411765
0.623529 0.623529 0.623529
0.239216 0.239216 0.239216
0.270588 0.270588 0.270588
0.376471 0.376471 0.376471
0.498039 0.498039 0.498039
0.694118 0.694118 0.694118
0.388235 0.388235 0.388235
0.392157 0.392157 0.392157
0.498039 0.498039 0.498039
0.67451 0.67451 0.67451
0.823529 0.823529 0.823529
0.647059 0.647059 0.647059
0.647059 0.647059 0.647059
0.694118 0.694118 0.694118
0.792157 0.792157 0.792157
0.901961 0.901961 0.901961
0.898039 0.898039 0.898039
0.898039 0.898039 0.898039
0.901961 0.901961 0.901961
0.937255 0.937255 0.937255
0.960784 0.960784 0.960784
0.231373 0.231373 0.231373
0.254902 0.254902 0.254902
0.321569 0.321569 0.321569
0.427451 0.427451 0.427451
0.639216 0.639216 0.639216
0.270588 0.270588 0.270588
0.305882 0.305882 0.305882
0.376471 0.376471 0.376471
0.505882 0.505882 0.505882
0.698039 0.698039 0.698039
0.447059 0.447059 0.447059
0.45098 0.45098 0.45098
0.52549 0.52549 0.52549
0.690196 0.690196 0.690196
0.823529 0.823529 0.823529
0.682353 0.682353 0.682353
0.686275 0.686275 0.686275
0.713725 0.713725 0.713725
0.803922 0.803922 0.803922
0.905882 0.905882 0.905882
0.905882 0.905882 0.905882
0.905882 0.905882 0.905882
0.909804 0.909804 0.909804
0.937255 0.937255 0.937255
0.960784 0.960784 0.960784
0.34902 0.34902 0.34902
0.380392 0.380392 0.380392
0.443137 0.443137 0.443137
0.572549 0.572549 0.572549
0.717647 0.717647 0.717647
0.396078 0.396078 0.396078
0.427451 0.427451 0.427451
0.486275 0.486275 0.486275
0.607843 0.607843 0.607843
0.737255 0.737255 0.737255
0.490196 0.490196 0.490196
0.521569 0.521569 0.521569
0.6 0.6 0.6
0.694118 0.694118 0.694118
0.811765 0.811765 0.811765
0.74902 0.74902 0.74902
0.760784 0.760784 0.760784
0.768627 0.768627 0.768627
0.827451 0.827451 0.827451
0.913725 0.913725 0.913725
0.921569 0.921569 0.921569
0.921569 0.921569 0.921569
0.92549 0.92549 0.92549
0.941176 0.941176 0.941176
0.964706 0.964706 0.964706
0.584314 0.584314 0.584314
0.607843 0.607843 0.607843
0.666667 0.666667 0.666667
0.72549 0.72549 0.72549
0.815686 0.815686 0.815686
0.619608 0.619608 0.619608
0.639216 0.639216 0.639216
0.690196 0.690196 0.690196
0.745098 0.745098 0.745098
0.831373 0.831373 0.831373
0.658824 0.658824 0.658824
0.690196 0.690196 0.690196
0.74902 0.74902 0.74902
0.796078 0.796078 0.796078
0.87451 0.87451 0.87451
0.776471 0.776471 0.776471
0.788235 0.788235 0.788235
0.819608 0.819608 0.819608
0.866667 0.866667 0.866667
0.913725 0.913725 0.913725
0.933333 0.933333 0.933333
0.937255 0.937255 0.937255
0.945098 0.945098 0.945098
0.94902 0.94902 0.94902
0.968627 0.968627 0.968627
0.870588 0.870588 0.870588
0.878431 0.878431 0.878431
0.894118 0.894118 0.894118
0.917647 0.917647 0.917647
0.929412 0.929412 0.929412
0.878431 0.878431 0.878431
0.886275 0.886275 0.886275
0.898039 0.898039 0.898039
0.921569 0.921569 0.921569
0.933333 0.933333 0.933333
0.894118 0.894118 0.894118
0.898039 0.898039 0.898039
0.909804 0.909804 0.909804
0.929412 0.929412 0.929412
0.945098 0.945098 0.945098
0.909804 0.909804 0.909804
0.909804 0.909804 0.909804
0.917647 0.917647 0.917647
0.945098 0.945098 0.945098
0.956863 0.956863 0.956863
0.94902 0.94902 0.94902
0.952941 0.952941 0.952941
0.956863 0.956863 0.956863
0.964706 0.964706 0.964706
0.972549 0.972549 0.972549
