lut/Ilford HP5 ++.cube
#Generated by Picture Instruments - Look Creator
TITLE "Ilford HP5 ++"
LUT_3D_SIZE 17
0.2 0.2 0.2
0.2 0.2 0.2
0.203922 0.203922 0.203922
0.207843 0.207843 0.207843
0.215686 0.215686 0.215686
0.227451 0.227451 0.227451
0.243137 0.243137 0.243137
0.258824 0.258824 0.258824
0.282353 0.282353 0.282353
0.305882 0.305882 0.305882
0.337255 0.337255 0.337255
0.368627 0.368627 0.368627
0.411765 0.411765 0.411765
0.458824 0.458824 0.458824
0.509804 0.509804 0.509804
0.572549 0.572549 0.572549
0.623529 0.623529 0.623529
0.203922 0.203922 0.203922
0.203922 0.203922 0.203922
0.211765 0.211765 0.211765
0.215686 0.215686 0.215686
0.227451 0.227451 0.227451
0.235294 0.235294 0.235294
0.25098 0.25098 0.25098
0.270588 0.270588 0.270588
0.290196 0.290196 0.290196
0.317647 0.317647 0.317647
0.345098 0.345098 0.345098
0.380392 0.380392 0.380392
0.419608 0.419608 0.419608
0.466667 0.466667 0.466667
0.517647 0.517647 0.517647
0.580392 0.580392 0.580392
0.635294 0.635294 0.635294
0.207843 0.207843 0.207843
0.207843 0.207843 0.207843
0.215686 0.215686 0.215686
0.231373 0.231373 0.231373
0.243137 0.243137 0.243137
0.254902 0.254902 0.254902
0.270588 0.270588 0.270588
0.286275 0.286275 0.286275
0.309804 0.309804 0.309804
0.333333 0.333333 0.333333
0.364706 0.364706 0.364706
0.396078 0.396078 0.396078
0.439216 0.439216 0.439216
0.482353 0.482353 0.482353
0.533333 0.533333 0.533333
0.592157 0.592157 0.592157
0.647059 0.647059 0.647059
0.223529 0.223529 0.223529
0.219608 0.219608 0.219608
0.227451 0.227451 0.227451
0.239216 0.239216 0.239216
0.258824 0.258824 0.258824
0.278431 0.278431 0.278431
0.298039 0.298039 0.298039
0.317647 0.317647 0.317647
0.337255 0.337255 0.337255
0.360784 0.360784 0.360784
0.392157 0.392157 0.392157
0.423529 0.423529 0.423529
0.462745 0.462745 0.462745
0.505882 0.505882 0.505882
0.556863 0.556863 0.556863
0.615686 0.615686 0.615686
0.670588 0.670588 0.670588
0.239216 0.239216 0.239216
0.243137 0.243137 0.243137
0.243137 0.243137 0.243137
0.254902 0.254902 0.254902
0.270588 0.270588 0.270588
0.298039 0.298039 0.298039
0.321569 0.321569 0.321569
0.34902 0.34902 0.34902
0.376471 0.376471 0.376471
0.403922 0.403922 0.403922
0.431373 0.431373 0.431373
0.462745 0.462745 0.462745
0.498039 0.498039 0.498039
0.541176 0.541176 0.541176
0.592157 0.592157 0.592157
0.647059 0.647059 0.647059
0.694118 0.694118 0.694118
0.266667 0.266667 0.266667
0.266667 0.266667 0.266667
0.266667 0.266667 0.266667
0.27451 0.27451 0.27451
0.294118 0.294118 0.294118
0.313725 0.313725 0.313725
0.352941 0.352941 0.352941
0.380392 0.380392 0.380392
0.411765 0.411765 0.411765
0.447059 0.447059 0.447059
0.478431 0.478431 0.478431
0.505882 0.505882 0.505882
0.541176 0.541176 0.541176
0.584314 0.584314 0.584314
0.631373 0.631373 0.631373
0.682353 0.682353 0.682353
0.72549 0.72549 0.72549
0.298039 0.298039 0.298039
0.301961 0.301961 0.301961
0.301961 0.301961 0.301961
0.301961 0.301961 0.301961
0.317647 0.317647 0.317647
0.341176 0.341176 0.341176
0.368627 0.368627 0.368627
0.407843 0.407843 0.407843
0.447059 0.447059 0.447059
0.482353 0.482353 0.482353
0.517647 0.517647 0.517647
0.560784 0.560784 0.560784
0.596078 0.596078 0.596078
0.635294 0.635294 0.635294
0.67451 0.67451 0.67451
0.721569 0.721569 0.721569
0.756863 0.756863 0.756863
0.341176 0.341176 0.341176
0.341176 0.341176 0.341176
0.341176 0.341176 0.341176
0.341176 0.341176 0.341176
0.352941 0.352941 0.352941
0.372549 0.372549 0.372549
0.4 0.4 0.4
0.427451 0.427451 0.427451
0.470588 0.470588 0.470588
0.517647 0.517647 0.517647
0.552941 0.552941 0.552941
0.596078 0.596078 0.596078
0.639216 0.639216 0.639216
0.686275 0.686275 0.686275
0.721569 0.721569 0.721569
0.760784 0.760784 0.760784
0.792157 0.792157 0.792157
0.388235 0.388235 0.388235
0.388235 0.388235 0.388235
0.388235 0.388235 0.388235
0.388235 0.388235 0.388235
0.392157 0.392157 0.392157
0.411765 0.411765 0.411765
0.435294 0.435294 0.435294
0.462745 0.462745 0.462745
0.498039 0.498039 0.498039
0.537255 0.537255 0.537255
0.592157 0.592157 0.592157
0.631373 0.631373 0.631373
0.67451 0.67451 0.67451
0.717647 0.717647 0.717647
0.760784 0.760784 0.760784
0.796078 0.796078 0.796078
0.823529 0.823529 0.823529
0.439216 0.439216 0.439216
0.439216 0.439216 0.439216
0.439216 0.439216 0.439216
0.439216 0.439216 0.439216
0.439216 0.439216 0.439216
0.454902 0.454902 0.454902
0.47451 0.47451 0.47451
0.501961 0.501961 0.501961
0.537255 0.537255 0.537255
0.572549 0.572549 0.572549
0.607843 0.607843 0.607843
0.670588 0.670588 0.670588
0.709804 0.709804 0.709804
0.74902 0.74902 0.74902
0.784314 0.784314 0.784314
0.823529 0.823529 0.823529
0.85098 0.85098 0.85098
0.501961 0.501961 0.501961
0.501961 0.501961 0.501961
0.501961 0.501961 0.501961
0.501961 0.501961 0.501961
0.501961 0.501961 0.501961
0.505882 0.505882 0.505882
0.52549 0.52549 0.52549
0.552941 0.552941 0.552941
0.584314 0.584314 0.584314
0.615686 0.615686 0.615686
0.65098 0.65098 0.65098
0.686275 0.686275 0.686275
0.745098 0.745098 0.745098
0.776471 0.776471 0.776471
0.811765 0.811765 0.811765
0.843137 0.843137 0.843137
0.866667 0.866667 0.866667
0.572549 0.572549 0.572549
0.572549 0.572549 0.572549
0.572549 0.572549 0.572549
0.572549 0.572549 0.572549
0.572549 0.572549 0.572549
0.572549 0.572549 0.572549
0.584314 0.584314 0.584314
0.611765 0.611765 0.611765
0.635294 0.635294 0.635294
0.666667 0.666667 0.666667
0.698039 0.698039 0.698039
0.72549 0.72549 0.72549
0.756863 0.756863 0.756863
0.807843 0.807843 0.807843
0.835294 0.835294 0.835294
0.862745 0.862745 0.862745
0.886275 0.886275 0.886275
0.647059 0.647059 0.647059
0.647059 0.647059 0.647059
0.647059 0.647059 0.647059
0.647059 0.647059 0.647059
0.647059 0.647059 0.647059
0.647059 0.647059 0.647059
0.65098 0.65098 0.65098
0.670588 0.670588 0.670588
0.694118 0.694118 0.694118
0.717647 0.717647 0.717647
0.745098 0.745098 0.745098
0.768627 0.768627 0.768627
0.792157 0.792157 0.792157
0.815686 0.815686 0.815686
0.854902 0.854902 0.854902
0.882353 0.882353 0.882353
0.901961 0.901961 0.901961
0.721569 0.721569 0.721569
0.721569 0.721569 0.721569
0.721569 0.721569 0.721569
0.721569 0.721569 0.721569
0.721569 0.721569 0.721569
0.72549 0.72549 0.72549
0.72549 0.72549 0.72549
0.733333 0.733333 0.733333
0.752941 0.752941 0.752941
0.772549 0.772549 0.772549
0.792157 0.792157 0.792157
0.811765 0.811765 0.811765
0.831373 0.831373 0.831373
0.85098 0.85098 0.85098
0.870588 0.870588 0.870588
0.898039 0.898039 0.898039
0.917647 0.917647 0.917647
0.792157 0.792157 0.792157
0.792157 0.792157 0.792157
0.792157 0.792157 0.792157
0.792157 0.792157 0.792157
0.792157 0.792157 0.792157
0.792157 0.792157 0.792157
0.792157 0.792157 0.792157
0.796078 0.796078 0.796078
0.811765 0.811765 0.811765
0.823529 0.823529 0.823529
0.839216 0.839216 0.839216
0.854902 0.854902 0.854902
0.870588 0.870588 0.870588
0.886275 0.886275 0.886275
0.898039 0.898039 0.898039
0.909804 0.909804 0.909804
0.92549 0.92549 0.92549
0.85098 0.85098 0.85098
0.85098 0.85098 0.85098
0.85098 0.85098 0.85098
0.85098 0.85098 0.85098
0.85098 0.85098 0.85098
0.85098 0.85098 0.85098
0.854902 0.854902 0.854902
0.854902 0.854902 0.854902
0.858824 0.858824 0.858824
0.87451 0.87451 0.87451
0.882353 0.882353 0.882353
0.898039 0.898039 0.898039
0.905882 0.905882 0.905882
0.917647 0.917647 0.917647
0.929412 0.929412 0.929412
0.937255 0.937255 0.937255
0.941176 0.941176 0.941176
0.898039 0.898039 0.898039
0.898039 0.898039 0.898039
0.898039 0.898039 0.898039
0.898039 0.898039 0.898039
0.898039 0.898039 0.898039
0.898039 0.898039 0.898039
0.901961 0.901961 0.901961
0.901961 0.901961 0.901961
0.901961 0.901961 0.901961
0.909804 0.909804 0.909804
0.921569 0.921569 0.921569
0.929412 0.929412 0.929412
0.937255 0.937255 0.937255
0.945098 0.945098 0.945098
0.952941 0.952941 0.952941
0.956863 0.956863 0.956863
0.960784 0.960784 0.960784
0.203922 0.203922 0.203922
0.203922 0.203922 0.203922
0.207843 0.207843 0.207843
0.211765 0.211765 0.211765
0.219608 0.219608 0.219608
0.231373 0.231373 0.231373
0.247059 0.247059 0.247059
0.262745 0.262745 0.262745
0.286275 0.286275 0.286275
0.309804 0.309804 0.309804
0.341176 0.341176 0.341176
0.376471 0.376471 0.376471
0.415686 0.415686 0.415686
0.458824 0.458824 0.458824
0.513725 0.513725 0.513725
0.572549 0.572549 0.572549
0.631373 0.631373 0.631373
0.203922 0.203922 0.203922
0.207843 0.207843 0.207843
0.211765 0.211765 0.211765
0.219608 0.219608 0.219608
0.227451 0.227451 0.227451
0.239216 0.239216 0.239216
0.254902 0.254902 0.254902
0.27451 0.27451 0.27451
0.294118 0.294118 0.294118
0.321569 0.321569 0.321569
0.352941 0.352941 0.352941
0.384314 0.384314 0.384314
0.423529 0.423529 0.423529
0.470588 0.470588 0.470588
0.521569 0.521569 0.521569
0.580392 0.580392 0.580392
0.639216 0.639216 0.639216
0.215686 0.215686 0.215686
0.215686 0.215686 0.215686
0.223529 0.223529 0.223529
0.235294 0.235294 0.235294
0.247059 0.247059 0.247059
0.258824 0.258824 0.258824
0.270588 0.270588 0.270588
0.290196 0.290196 0.290196
0.313725 0.313725 0.313725
0.337255 0.337255 0.337255
0.368627 0.368627 0.368627
0.4 0.4 0.4
0.439216 0.439216 0.439216
0.486275 0.486275 0.486275
0.537255 0.537255 0.537255
0.596078 0.596078 0.596078
0.65098 0.65098 0.65098
0.231373 0.231373 0.231373
0.231373 0.231373 0.231373
0.235294 0.235294 0.235294
0.247059 0.247059 0.247059
0.262745 0.262745 0.262745
0.282353 0.282353 0.282353
0.301961 0.301961 0.301961
0.317647 0.317647 0.317647
0.341176 0.341176 0.341176
0.364706 0.364706 0.364706
0.396078 0.396078 0.396078
0.427451 0.427451 0.427451
0.466667 0.466667 0.466667
0.509804 0.509804 0.509804
0.560784 0.560784 0.560784
0.615686 0.615686 0.615686
0.670588 0.670588 0.670588
0.25098 0.25098 0.25098
0.25098 0.25098 0.25098
0.25098 0.25098 0.25098
0.258824 0.258824 0.258824
0.278431 0.278431 0.278431
0.301961 0.301961 0.301961
0.32549 0.32549 0.32549
0.352941 0.352941 0.352941
0.380392 0.380392 0.380392
0.403922 0.403922 0.403922
0.431373 0.431373 0.431373
0.462745 0.462745 0.462745
0.501961 0.501961 0.501961
0.541176 0.541176 0.541176
0.592157 0.592157 0.592157
0.647059 0.647059 0.647059
0.694118 0.694118 0.694118
0.27451 0.27451 0.27451
0.27451 0.27451 0.27451
0.27451 0.27451 0.27451
0.282353 0.282353 0.282353
0.298039 0.298039 0.298039
0.317647 0.317647 0.317647
0.356863 0.356863 0.356863
0.384314 0.384314 0.384314
0.415686 0.415686 0.415686
0.45098 0.45098 0.45098
0.478431 0.478431 0.478431
0.509804 0.509804 0.509804
0.545098 0.545098 0.545098
0.584314 0.584314 0.584314
0.631373 0.631373 0.631373
0.682353 0.682353 0.682353
0.72549 0.72549 0.72549
0.305882 0.305882 0.305882
0.309804 0.309804 0.309804
0.309804 0.309804 0.309804
0.309804 0.309804 0.309804
0.32549 0.32549 0.32549
0.345098 0.345098 0.345098
0.372549 0.372549 0.372549
0.415686 0.415686 0.415686
0.45098 0.45098 0.45098
0.482353 0.482353 0.482353
0.521569 0.521569 0.521569
0.560784 0.560784 0.560784
0.596078 0.596078 0.596078
0.635294 0.635294 0.635294
0.67451 0.67451 0.67451
0.721569 0.721569 0.721569
0.760784 0.760784 0.760784
0.345098 0.345098 0.345098
0.34902 0.34902 0.34902
0.34902 0.34902 0.34902
0.34902 0.34902 0.34902
0.356863 0.356863 0.356863
0.376471 0.376471 0.376471
0.403922 0.403922 0.403922
0.431373 0.431373 0.431373
0.478431 0.478431 0.478431
0.521569 0.521569 0.521569
0.556863 0.556863 0.556863
0.6 0.6 0.6
0.643137 0.643137 0.643137
0.686275 0.686275 0.686275
0.721569 0.721569 0.721569
0.760784 0.760784 0.760784
0.792157 0.792157 0.792157
0.392157 0.392157 0.392157
0.392157 0.392157 0.392157
0.396078 0.396078 0.396078
0.396078 0.396078 0.396078
0.396078 0.396078 0.396078
0.415686 0.415686 0.415686
0.439216 0.439216 0.439216
0.466667 0.466667 0.466667
0.501961 0.501961 0.501961
0.541176 0.541176 0.541176
0.596078 0.596078 0.596078
0.635294 0.635294 0.635294
0.678431 0.678431 0.678431
0.717647 0.717647 0.717647
0.760784 0.760784 0.760784
0.796078 0.796078 0.796078
0.823529 0.823529 0.823529
0.447059 0.447059 0.447059
0.447059 0.447059 0.447059
0.447059 0.447059 0.447059
0.447059 0.447059 0.447059
0.447059 0.447059 0.447059
0.458824 0.458824 0.458824
0.478431 0.478431 0.478431
0.505882 0.505882 0.505882
0.537255 0.537255 0.537255
0.572549 0.572549 0.572549
0.611765 0.611765 0.611765
0.67451 0.67451 0.67451
0.709804 0.709804 0.709804
0.74902 0.74902 0.74902
0.788235 0.788235 0.788235
0.823529 0.823529 0.823529
0.85098 0.85098 0.85098
0.505882 0.505882 0.505882
0.505882 0.505882 0.505882
0.505882 0.505882 0.505882
0.505882 0.505882 0.505882
0.505882 0.505882 0.505882
0.509804 0.509804 0.509804
0.529412 0.529412 0.529412
0.556863 0.556863 0.556863
0.584314 0.584314 0.584314
0.619608 0.619608 0.619608
0.654902 0.654902 0.654902
0.686275 0.686275 0.686275
0.745098 0.745098 0.745098
0.780392 0.780392 0.780392
0.811765 0.811765 0.811765
0.843137 0.843137 0.843137
0.870588 0.870588 0.870588
0.572549 0.572549 0.572549
0.576471 0.576471 0.576471
0.576471 0.576471 0.576471
0.576471 0.576471 0.576471
0.576471 0.576471 0.576471
0.576471 0.576471 0.576471
0.588235 0.588235 0.588235
0.611765 0.611765 0.611765
0.639216 0.639216 0.639216
0.670588 0.670588 0.670588
0.698039 0.698039 0.698039
0.729412 0.729412 0.729412
0.756863 0.756863 0.756863
0.807843 0.807843 0.807843
0.835294 0.835294 0.835294
0.862745 0.862745 0.862745
0.886275 0.886275 0.886275
0.65098 0.65098 0.65098
0.65098 0.65098 0.65098
0.65098 0.65098 0.65098
0.65098 0.65098 0.65098
0.65098 0.65098 0.65098
0.654902 0.654902 0.654902
0.654902 0.654902 0.654902
0.67451 0.67451 0.67451
0.698039 0.698039 0.698039
0.721569 0.721569 0.721569
0.745098 0.745098 0.745098
0.772549 0.772549 0.772549
0.796078 0.796078 0.796078
0.819608 0.819608 0.819608
0.854902 0.854902 0.854902
0.882353 0.882353 0.882353
0.901961 0.901961 0.901961
0.721569 0.721569 0.721569
0.72549 0.72549 0.72549
0.72549 0.72549 0.72549
0.72549 0.72549 0.72549
0.72549 0.72549 0.72549
0.72549 0.72549 0.72549
0.72549 0.72549 0.72549
0.737255 0.737255 0.737255
0.752941 0.752941 0.752941
0.772549 0.772549 0.772549
0.796078 0.796078 0.796078
0.815686 0.815686 0.815686
0.835294 0.835294 0.835294
0.85098 0.85098 0.85098
0.870588 0.870588 0.870588
0.898039 0.898039 0.898039
0.917647 0.917647 0.917647
0.792157 0.792157 0.792157
0.792157 0.792157 0.792157
0.792157 0.792157 0.792157
0.792157 0.792157 0.792157
0.792157 0.792157 0.792157
0.796078 0.796078 0.796078
0.796078 0.796078 0.796078
0.796078 0.796078 0.796078
0.811765 0.811765 0.811765
0.827451 0.827451 0.827451
0.839216 0.839216 0.839216
0.854902 0.854902 0.854902
0.870588 0.870588 0.870588
0.886275 0.886275 0.886275
0.898039 0.898039 0.898039
0.913725 0.913725 0.913725
0.92549 0.92549 0.92549
0.85098 0.85098 0.85098
0.85098 0.85098 0.85098
0.85098 0.85098 0.85098
0.854902 0.854902 0.854902
0.854902 0.854902 0.854902
0.854902 0.854902 0.854902
0.854902 0.854902 0.854902
0.854902 0.854902 0.854902
0.862745 0.862745 0.862745
0.87451 0.87451 0.87451
0.886275 0.886275 0.886275
0.898039 0.898039 0.898039
0.905882 0.905882 0.905882
0.917647 0.917647 0.917647
0.929412 0.929412 0.929412
0.937255 0.937255 0.937255
0.941176 0.941176 0.941176
0.898039 0.898039 0.898039
0.898039 0.898039 0.898039
0.898039 0.898039 0.898039
0.898039 0.898039 0.898039
0.898039 0.898039 0.898039
0.901961 0.901961 0.901961
0.901961 0.901961 0.901961
0.901961 0.901961 0.901961
0.905882 0.905882 0.905882
0.913725 0.913725 0.913725
0.921569 0.921569 0.921569
0.929412 0.929412 0.929412
0.937255 0.937255 0.937255
0.945098 0.945098 0.945098
0.952941 0.952941 0.952941
0.960784 0.960784 0.960784
0.960784 0.960784 0.960784
0.207843 0.207843 0.207843
0.207843 0.207843 0.207843
0.211765 0.211765 0.211765
0.219608 0.219608 0.219608
0.227451 0.227451 0.227451
0.239216 0.239216 0.239216
0.25098 0.25098 0.25098
0.270588 0.270588 0.270588
0.290196 0.290196 0.290196
0.317647 0.317647 0.317647
0.345098 0.345098 0.345098
0.380392 0.380392 0.380392
0.419608 0.419608 0.419608
0.466667 0.466667 0.466667
0.517647 0.517647 0.517647
0.576471 0.576471 0.576471
0.631373 0.631373 0.631373
0.207843 0.207843 0.207843
0.215686 0.215686 0.215686
0.219608 0.219608 0.219608
0.227451 0.227451 0.227451
0.235294 0.235294 0.235294
0.243137 0.243137 0.243137
0.258824 0.258824 0.258824
0.278431 0.278431 0.278431
0.298039 0.298039 0.298039
0.32549 0.32549 0.32549
0.356863 0.356863 0.356863
0.388235 0.388235 0.388235
0.427451 0.427451 0.427451
0.47451 0.47451 0.47451
0.52549 0.52549 0.52549
0.584314 0.584314 0.584314
0.639216 0.639216 0.639216
0.215686 0.215686 0.215686
0.219608 0.219608 0.219608
0.227451 0.227451 0.227451
0.235294 0.235294 0.235294
0.247059 0.247059 0.247059
0.258824 0.258824 0.258824
0.27451 0.27451 0.27451
0.294118 0.294118 0.294118
0.313725 0.313725 0.313725
0.341176 0.341176 0.341176
0.372549 0.372549 0.372549
0.403922 0.403922 0.403922
0.443137 0.443137 0.443137
0.490196 0.490196 0.490196
0.541176 0.541176 0.541176
0.596078 0.596078 0.596078
0.65098 0.65098 0.65098
0.239216 0.239216 0.239216
0.243137 0.243137 0.243137
0.243137 0.243137 0.243137
0.25098 0.25098 0.25098
0.270588 0.270588 0.270588
0.286275 0.286275 0.286275
0.301961 0.301961 0.301961
0.317647 0.317647 0.317647
0.341176 0.341176 0.341176
0.368627 0.368627 0.368627
0.396078 0.396078 0.396078
0.431373 0.431373 0.431373
0.466667 0.466667 0.466667
0.513725 0.513725 0.513725
0.564706 0.564706 0.564706
0.619608 0.619608 0.619608
0.670588 0.670588 0.670588
0.262745 0.262745 0.262745
0.262745 0.262745 0.262745
0.262745 0.262745 0.262745
0.266667 0.266667 0.266667
0.282353 0.282353 0.282353
0.309804 0.309804 0.309804
0.333333 0.333333 0.333333
0.356863 0.356863 0.356863
0.380392 0.380392 0.380392
0.403922 0.403922 0.403922
0.431373 0.431373 0.431373
0.466667 0.466667 0.466667
0.501961 0.501961 0.501961
0.545098 0.545098 0.545098
0.596078 0.596078 0.596078
0.647059 0.647059 0.647059
0.698039 0.698039 0.698039
0.286275 0.286275 0.286275
0.290196 0.290196 0.290196
0.290196 0.290196 0.290196
0.290196 0.290196 0.290196
0.305882 0.305882 0.305882
0.32549 0.32549 0.32549
0.360784 0.360784 0.360784
0.388235 0.388235 0.388235
0.419608 0.419608 0.419608
0.454902 0.454902 0.454902
0.478431 0.478431 0.478431
0.509804 0.509804 0.509804
0.545098 0.545098 0.545098
0.588235 0.588235 0.588235
0.635294 0.635294 0.635294
0.682353 0.682353 0.682353
0.72549 0.72549 0.72549
0.321569 0.321569 0.321569
0.321569 0.321569 0.321569
0.321569 0.321569 0.321569
0.321569 0.321569 0.321569
0.333333 0.333333 0.333333
0.352941 0.352941 0.352941
0.376471 0.376471 0.376471
0.423529 0.423529 0.423529
0.454902 0.454902 0.454902
0.490196 0.490196 0.490196
0.52549 0.52549 0.52549
0.564706 0.564706 0.564706
0.596078 0.596078 0.596078
0.635294 0.635294 0.635294
0.678431 0.678431 0.678431
0.721569 0.721569 0.721569
0.760784 0.760784 0.760784
0.360784 0.360784 0.360784
0.360784 0.360784 0.360784
0.360784 0.360784 0.360784
0.360784 0.360784 0.360784
0.364706 0.364706 0.364706
0.384314 0.384314 0.384314
0.407843 0.407843 0.407843
0.439216 0.439216 0.439216
0.482353 0.482353 0.482353
0.52549 0.52549 0.52549
0.560784 0.560784 0.560784
0.6 0.6 0.6
0.647059 0.647059 0.647059
0.686275 0.686275 0.686275
0.721569 0.721569 0.721569
0.760784 0.760784 0.760784
0.792157 0.792157 0.792157
0.403922 0.403922 0.403922
0.407843 0.407843 0.407843
0.407843 0.407843 0.407843
0.407843 0.407843 0.407843
0.407843 0.407843 0.407843
0.423529 0.423529 0.423529
0.447059 0.447059 0.447059
0.47451 0.47451 0.47451
0.505882 0.505882 0.505882
0.54902 0.54902 0.54902
0.6 0.6 0.6
0.639216 0.639216 0.639216
0.678431 0.678431 0.678431
0.721569 0.721569 0.721569
0.764706 0.764706 0.764706
0.796078 0.796078 0.796078
0.823529 0.823529 0.823529
0.454902 0.454902 0.454902
0.458824 0.458824 0.458824
0.458824 0.458824 0.458824
0.458824 0.458824 0.458824
0.458824 0.458824 0.458824
0.462745 0.462745 0.462745
0.486275 0.486275 0.486275
0.513725 0.513725 0.513725
0.545098 0.545098 0.545098
0.580392 0.580392 0.580392
0.619608 0.619608 0.619608
0.67451 0.67451 0.67451
0.713725 0.713725 0.713725
0.752941 0.752941 0.752941
0.788235 0.788235 0.788235
0.823529 0.823529 0.823529
0.85098 0.85098 0.85098
0.513725 0.513725 0.513725
0.517647 0.517647 0.517647
0.517647 0.517647 0.517647
0.517647 0.517647 0.517647
0.517647 0.517647 0.517647
0.517647 0.517647 0.517647
0.537255 0.537255 0.537255
0.560784 0.560784 0.560784
0.592157 0.592157 0.592157
0.623529 0.623529 0.623529
0.658824 0.658824 0.658824
0.690196 0.690196 0.690196
0.74902 0.74902 0.74902
0.780392 0.780392 0.780392
0.811765 0.811765 0.811765
0.847059 0.847059 0.847059
0.870588 0.870588 0.870588
0.584314 0.584314 0.584314
0.584314 0.584314 0.584314
0.584314 0.584314 0.584314
0.584314 0.584314 0.584314
0.584314 0.584314 0.584314
0.588235 0.588235 0.588235
0.592157 0.592157 0.592157
0.615686 0.615686 0.615686
0.643137 0.643137 0.643137
0.670588 0.670588 0.670588
0.701961 0.701961 0.701961
0.729412 0.729412 0.729412
0.760784 0.760784 0.760784
0.807843 0.807843 0.807843
0.835294 0.835294 0.835294
0.866667 0.866667 0.866667
0.886275 0.886275 0.886275
0.658824 0.658824 0.658824
0.658824 0.658824 0.658824
0.658824 0.658824 0.658824
0.658824 0.658824 0.658824
0.658824 0.658824 0.658824
0.658824 0.658824 0.658824
0.658824 0.658824 0.658824
0.678431 0.678431 0.678431
0.701961 0.701961 0.701961
0.72549 0.72549 0.72549
0.74902 0.74902 0.74902
0.772549 0.772549 0.772549
0.796078 0.796078 0.796078
0.819608 0.819608 0.819608
0.858824 0.858824 0.858824
0.886275 0.886275 0.886275
0.901961 0.901961 0.901961
0.729412 0.729412 0.729412
0.729412 0.729412 0.729412
0.729412 0.729412 0.729412
0.729412 0.729412 0.729412
0.729412 0.729412 0.729412
0.733333 0.733333 0.733333
0.733333 0.733333 0.733333
0.737255 0.737255 0.737255
0.756863 0.756863 0.756863
0.776471 0.776471 0.776471
0.796078 0.796078 0.796078
0.815686 0.815686 0.815686
0.835294 0.835294 0.835294
0.85098 0.85098 0.85098
0.870588 0.870588 0.870588
0.898039 0.898039 0.898039
0.917647 0.917647 0.917647
0.796078 0.796078 0.796078
0.796078 0.796078 0.796078
0.796078 0.796078 0.796078
0.796078 0.796078 0.796078
0.796078 0.796078 0.796078
0.796078 0.796078 0.796078
0.8 0.8 0.8
0.8 0.8 0.8
0.811765 0.811765 0.811765
0.827451 0.827451 0.827451
0.843137 0.843137 0.843137
0.858824 0.858824 0.858824
0.87451 0.87451 0.87451
0.886275 0.886275 0.886275
0.901961 0.901961 0.901961
0.913725 0.913725 0.913725
0.929412 0.929412 0.929412
0.854902 0.854902 0.854902
0.854902 0.854902 0.854902
0.854902 0.854902 0.854902
0.854902 0.854902 0.854902
0.854902 0.854902 0.854902
0.854902 0.854902 0.854902
0.858824 0.858824 0.858824
0.858824 0.858824 0.858824
0.862745 0.862745 0.862745
0.87451 0.87451 0.87451
0.886275 0.886275 0.886275
0.898039 0.898039 0.898039
0.909804 0.909804 0.909804
0.917647 0.917647 0.917647
0.929412 0.929412 0.929412
0.937255 0.937255 0.937255
0.945098 0.945098 0.945098
0.898039 0.898039 0.898039
0.898039 0.898039 0.898039
0.898039 0.898039 0.898039
0.901961 0.901961 0.901961
0.901961 0.901961 0.901961
0.901961 0.901961 0.901961
0.901961 0.901961 0.901961
0.901961 0.901961 0.901961
0.905882 0.905882 0.905882
0.913725 0.913725 0.913725
0.921569 0.921569 0.921569
0.929412 0.929412 0.929412
0.937255 0.937255 0.937255
0.945098 0.945098 0.945098
0.952941 0.952941 0.952941
0.960784 0.960784 0.960784
0.960784 0.960784 0.960784
0.215686 0.215686 0.215686
0.219608 0.219608 0.219608
0.223529 0.223529 0.223529
0.231373 0.231373 0.231373
0.239216 0.239216 0.239216
0.258824 0.258824 0.258824
0.266667 0.266667 0.266667
0.282353 0.282353 0.282353
0.301961 0.301961 0.301961
0.321569 0.321569 0.321569
0.34902 0.34902 0.34902
0.384314 0.384314 0.384314
0.423529 0.423529 0.423529
0.470588 0.470588 0.470588
0.521569 0.521569 0.521569
0.580392 0.580392 0.580392
0.635294 0.635294 0.635294
0.223529 0.223529 0.223529
0.227451 0.227451 0.227451
0.231373 0.231373 0.231373
0.239216 0.239216 0.239216
0.247059 0.247059 0.247059
0.262745 0.262745 0.262745
0.27451 0.27451 0.27451
0.286275 0.286275 0.286275
0.305882 0.305882 0.305882
0.329412 0.329412 0.329412
0.360784 0.360784 0.360784
0.392157 0.392157 0.392157
0.431373 0.431373 0.431373
0.478431 0.478431 0.478431
0.529412 0.529412 0.529412
0.584314 0.584314 0.584314
