lut/Portra 800 ++.cube
#Generated by Picture Instruments - Look Creator
TITLE "Portra 800 ++"
LUT_3D_SIZE 17
0.105882 0.14902 0.188235
0.117647 0.152941 0.188235
0.14902 0.14902 0.188235
0.180392 0.152941 0.184314
0.219608 0.152941 0.184314
0.27451 0.152941 0.184314
0.333333 0.152941 0.184314
0.407843 0.152941 0.184314
0.486275 0.14902 0.180392
0.572549 0.14902 0.172549
0.658824 0.152941 0.168627
0.737255 0.164706 0.160784
0.8 0.184314 0.14902
0.862745 0.215686 0.141176
0.909804 0.247059 0.133333
0.956863 0.278431 0.121569
0.984314 0.301961 0.113725
0.109804 0.160784 0.192157
0.121569 0.164706 0.188235
0.14902 0.160784 0.180392
0.184314 0.164706 0.188235
0.223529 0.164706 0.184314
0.270588 0.164706 0.184314
0.333333 0.168627 0.184314
0.407843 0.172549 0.180392
0.486275 0.172549 0.176471
0.572549 0.168627 0.172549
0.662745 0.176471 0.168627
0.737255 0.192157 0.164706
0.803922 0.207843 0.152941
0.862745 0.235294 0.141176
0.913725 0.258824 0.12549
0.952941 0.290196 0.121569
0.984314 0.313725 0.113725
0.117647 0.176471 0.188235
0.12549 0.180392 0.192157
0.14902 0.188235 0.192157
0.188235 0.192157 0.188235
0.223529 0.188235 0.184314
0.270588 0.188235 0.184314
0.333333 0.196078 0.188235
0.403922 0.2 0.184314
0.486275 0.2 0.176471
0.568627 0.203922 0.172549
0.662745 0.215686 0.172549
0.733333 0.223529 0.160784
0.8 0.243137 0.14902
0.862745 0.262745 0.137255
0.909804 0.286275 0.129412
0.952941 0.313725 0.117647
0.984314 0.333333 0.105882
0.12549 0.203922 0.2
0.129412 0.203922 0.196078
0.145098 0.207843 0.196078
0.180392 0.219608 0.188235
0.227451 0.227451 0.188235
0.27451 0.223529 0.188235
0.333333 0.223529 0.180392
0.403922 0.231373 0.180392
0.482353 0.239216 0.176471
0.564706 0.247059 0.172549
0.65098 0.258824 0.164706
0.733333 0.270588 0.152941
0.796078 0.286275 0.145098
0.858824 0.305882 0.137255
0.913725 0.32549 0.12549
0.952941 0.34902 0.113725
0.980392 0.364706 0.0980392
0.137255 0.239216 0.203922
0.145098 0.235294 0.203922
0.156863 0.239216 0.203922
0.176471 0.247059 0.2
0.215686 0.258824 0.196078
0.286275 0.278431 0.188235
0.341176 0.278431 0.180392
0.403922 0.278431 0.180392
0.478431 0.282353 0.176471
0.560784 0.298039 0.164706
0.643137 0.309804 0.156863
0.72549 0.321569 0.152941
0.792157 0.337255 0.137255
0.858824 0.352941 0.129412
0.909804 0.368627 0.121569
0.94902 0.392157 0.101961
0.980392 0.403922 0.0941176
0.152941 0.27451 0.211765
0.156863 0.27451 0.211765
0.168627 0.27451 0.215686
0.184314 0.282353 0.207843
0.219608 0.294118 0.207843
0.270588 0.313725 0.196078
0.356863 0.345098 0.184314
0.415686 0.34902 0.176471
0.486275 0.352941 0.172549
0.560784 0.34902 0.164706
0.643137 0.364706 0.160784
0.717647 0.376471 0.145098
0.792157 0.392157 0.133333
0.85098 0.403922 0.12549
0.901961 0.419608 0.105882
0.94902 0.439216 0.0941176
0.984314 0.447059 0.0745098
0.164706 0.321569 0.219608
0.172549 0.32549 0.219608
0.184314 0.321569 0.219608
0.196078 0.32549 0.219608
0.223529 0.337255 0.215686
0.270588 0.356863 0.207843
0.333333 0.380392 0.2
0.427451 0.423529 0.172549
0.505882 0.431373 0.164706
0.580392 0.435294 0.156863
0.643137 0.431373 0.145098
0.713725 0.431373 0.133333
0.784314 0.447059 0.121569
0.847059 0.458824 0.101961
0.898039 0.47451 0.0901961
0.945098 0.490196 0.0627451
0.980392 0.501961 0.0235294
0.180392 0.376471 0.227451
0.192157 0.380392 0.231373
0.2 0.376471 0.223529
0.215686 0.372549 0.227451
0.243137 0.388235 0.227451
0.278431 0.403922 0.219608
0.329412 0.427451 0.203922
0.403922 0.454902 0.184314
0.505882 0.498039 0.164706
0.596078 0.517647 0.141176
0.666667 0.517647 0.129412
0.72549 0.513725 0.117647
0.780392 0.509804 0.101961
0.843137 0.509804 0.0901961
0.894118 0.521569 0.0509804
0.945098 0.541176 0.00392157
0.980392 0.54902 0
0.203922 0.439216 0.235294
0.211765 0.439216 0.239216
0.215686 0.439216 0.231373
0.231373 0.439216 0.235294
0.25098 0.435294 0.231373
0.282353 0.454902 0.223529
0.333333 0.478431 0.215686
0.4 0.505882 0.203922
0.478431 0.537255 0.180392
0.580392 0.572549 0.145098
0.682353 0.6 0.109804
0.745098 0.596078 0.0980392
0.8 0.592157 0.0745098
0.847059 0.584314 0.0235294
0.898039 0.584314 0
0.941176 0.588235 0.00392157
0.976471 0.596078 0
0.227451 0.505882 0.239216
0.235294 0.505882 0.243137
0.243137 0.505882 0.243137
0.258824 0.501961 0.247059
0.27451 0.494118 0.239216
0.301961 0.509804 0.235294
0.345098 0.529412 0.223529
0.403922 0.552941 0.211765
0.47451 0.584314 0.192157
0.560784 0.611765 0.168627
0.654902 0.643137 0.129412
0.752941 0.67451 0.0470588
0.811765 0.670588 0
0.854902 0.666667 0
0.901961 0.662745 0
0.945098 0.658824 0.00392157
0.976471 0.654902 0
0.254902 0.584314 0.25098
0.258824 0.580392 0.25098
0.266667 0.576471 0.25098
0.282353 0.576471 0.25098
0.301961 0.572549 0.254902
0.321569 0.568627 0.25098
0.356863 0.588235 0.235294
0.415686 0.611765 0.231373
0.478431 0.635294 0.215686
0.552941 0.662745 0.192157
0.639216 0.686275 0.160784
0.729412 0.709804 0.113725
0.823529 0.745098 0
0.870588 0.741176 0
0.909804 0.733333 0
0.94902 0.729412 0.00392157
0.976471 0.72549 0
0.286275 0.658824 0.266667
0.294118 0.654902 0.266667
0.301961 0.654902 0.262745
0.313725 0.65098 0.262745
0.333333 0.647059 0.266667
0.352941 0.643137 0.262745
0.388235 0.647059 0.254902
0.439216 0.670588 0.247059
0.494118 0.694118 0.231373
0.556863 0.709804 0.211765
0.635294 0.729412 0.188235
0.709804 0.74902 0.156863
0.788235 0.776471 0.0980392
0.878431 0.803922 0
0.921569 0.8 0
0.952941 0.792157 0
0.984314 0.788235 0
0.337255 0.729412 0.286275
0.337255 0.729412 0.282353
0.341176 0.72549 0.282353
0.356863 0.72549 0.286275
0.376471 0.721569 0.282353
0.396078 0.717647 0.282353
0.415686 0.717647 0.278431
0.458824 0.729412 0.270588
0.509804 0.745098 0.258824
0.568627 0.764706 0.243137
0.643137 0.780392 0.223529
0.705882 0.796078 0.2
0.776471 0.807843 0.160784
0.85098 0.827451 0.105882
0.929412 0.854902 0.00392157
0.964706 0.85098 0.00392157
0.992157 0.843137 0
0.388235 0.796078 0.313725
0.388235 0.796078 0.313725
0.4 0.796078 0.317647
0.407843 0.792157 0.309804
0.423529 0.792157 0.313725
0.443137 0.788235 0.309804
0.466667 0.784314 0.309804
0.498039 0.788235 0.305882
0.545098 0.8 0.290196
0.592157 0.811765 0.27451
0.65098 0.827451 0.266667
0.709804 0.839216 0.247059
0.776471 0.85098 0.215686
0.835294 0.862745 0.180392
0.901961 0.87451 0.121569
0.968627 0.898039 0
0.996078 0.894118 0
0.462745 0.862745 0.364706
0.462745 0.862745 0.364706
0.466667 0.858824 0.364706
0.470588 0.858824 0.360784
0.486275 0.858824 0.364706
0.505882 0.854902 0.360784
0.529412 0.85098 0.356863
0.54902 0.847059 0.352941
0.584314 0.854902 0.34902
0.631373 0.866667 0.341176
0.686275 0.878431 0.32549
0.733333 0.882353 0.305882
0.788235 0.894118 0.286275
0.839216 0.905882 0.254902
0.890196 0.909804 0.211765
0.945098 0.917647 0.152941
0.992157 0.929412 0.00784314
0.545098 0.917647 0.447059
0.545098 0.921569 0.439216
0.54902 0.917647 0.439216
0.556863 0.913725 0.439216
0.568627 0.917647 0.435294
0.584314 0.913725 0.439216
0.6 0.913725 0.439216
0.623529 0.913725 0.439216
0.654902 0.913725 0.431373
0.686275 0.921569 0.423529
0.72549 0.92549 0.415686
0.768627 0.933333 0.403922
0.807843 0.937255 0.384314
0.847059 0.941176 0.352941
0.890196 0.94902 0.317647
0.937255 0.952941 0.27451
0.972549 0.956863 0.207843
0.643137 0.960784 0.54902
0.639216 0.960784 0.545098
0.647059 0.960784 0.541176
0.65098 0.960784 0.545098
0.658824 0.956863 0.541176
0.67451 0.960784 0.545098
0.690196 0.960784 0.552941
0.709804 0.956863 0.556863
0.729412 0.960784 0.552941
0.752941 0.964706 0.54902
0.784314 0.968627 0.545098
0.807843 0.972549 0.533333
0.839216 0.976471 0.513725
0.870588 0.980392 0.498039
0.905882 0.984314 0.462745
0.937255 0.980392 0.419608
0.968627 0.980392 0.360784
0.101961 0.14902 0.203922
0.117647 0.14902 0.2
0.14902 0.145098 0.2
0.184314 0.141176 0.196078
0.223529 0.152941 0.2
0.27451 0.156863 0.203922
0.333333 0.156863 0.2
0.403922 0.156863 0.196078
0.486275 0.152941 0.192157
0.572549 0.14902 0.192157
0.658824 0.14902 0.180392
0.733333 0.160784 0.172549
0.803922 0.188235 0.168627
0.862745 0.211765 0.156863
0.909804 0.243137 0.152941
0.952941 0.27451 0.141176
0.988235 0.301961 0.137255
0.105882 0.160784 0.196078
0.12549 0.164706 0.203922
0.14902 0.164706 0.2
0.180392 0.168627 0.203922
0.219608 0.168627 0.203922
0.27451 0.172549 0.196078
0.333333 0.172549 0.196078
0.407843 0.172549 0.196078
0.486275 0.168627 0.192157
0.576471 0.172549 0.188235
0.662745 0.176471 0.184314
0.733333 0.188235 0.176471
0.803922 0.207843 0.164706
0.862745 0.231373 0.160784
0.909804 0.258824 0.14902
0.952941 0.286275 0.145098
0.988235 0.313725 0.137255
0.12549 0.184314 0.203922
0.129412 0.180392 0.203922
0.14902 0.184314 0.203922
0.184314 0.188235 0.203922
0.223529 0.188235 0.2
0.270588 0.192157 0.2
0.333333 0.196078 0.196078
0.403922 0.2 0.196078
0.486275 0.2 0.192157
0.572549 0.207843 0.188235
0.658824 0.207843 0.180392
0.737255 0.227451 0.176471
0.8 0.243137 0.164706
0.862745 0.258824 0.156863
0.909804 0.282353 0.14902
0.94902 0.313725 0.133333
0.980392 0.329412 0.129412
0.133333 0.211765 0.207843
0.137255 0.207843 0.207843
0.152941 0.207843 0.207843
0.184314 0.219608 0.207843
0.227451 0.223529 0.203922
0.278431 0.227451 0.2
0.333333 0.227451 0.2
0.403922 0.235294 0.196078
0.482353 0.239216 0.188235
0.568627 0.25098 0.184314
0.658824 0.254902 0.180392
0.733333 0.270588 0.168627
0.796078 0.286275 0.160784
0.858824 0.301961 0.152941
0.905882 0.32549 0.145098
0.952941 0.345098 0.133333
0.984314 0.364706 0.121569
0.141176 0.239216 0.215686
0.152941 0.243137 0.215686
0.160784 0.235294 0.211765
0.180392 0.247059 0.211765
0.219608 0.262745 0.207843
0.286275 0.27451 0.2
0.345098 0.278431 0.196078
0.403922 0.278431 0.196078
0.482353 0.286275 0.188235
0.568627 0.298039 0.184314
0.647059 0.309804 0.172549
0.72549 0.317647 0.164706
0.796078 0.333333 0.156863
0.858824 0.34902 0.145098
0.901961 0.368627 0.133333
0.94902 0.388235 0.121569
0.980392 0.4 0.113725
0.156863 0.282353 0.219608
0.160784 0.282353 0.223529
0.172549 0.282353 0.223529
0.188235 0.282353 0.219608
0.223529 0.298039 0.219608
0.27451 0.313725 0.207843
0.356863 0.345098 0.196078
0.419608 0.34902 0.188235
0.486275 0.34902 0.184314
0.560784 0.34902 0.176471
0.643137 0.360784 0.164706
0.72549 0.372549 0.164706
0.792157 0.392157 0.14902
0.85098 0.4 0.137255
0.901961 0.415686 0.12549
0.94902 0.435294 0.113725
0.980392 0.447059 0.105882
0.172549 0.329412 0.227451
0.180392 0.329412 0.227451
0.188235 0.329412 0.227451
0.2 0.32549 0.231373
0.227451 0.341176 0.223529
0.27451 0.360784 0.215686
0.337255 0.380392 0.203922
0.439216 0.423529 0.184314
0.505882 0.431373 0.172549
0.580392 0.435294 0.168627
0.647059 0.435294 0.160784
0.717647 0.435294 0.152941
0.784314 0.443137 0.133333
0.85098 0.458824 0.12549
0.898039 0.470588 0.113725
0.94902 0.486275 0.101961
0.976471 0.494118 0.0823529
0.188235 0.384314 0.235294
0.2 0.388235 0.239216
0.203922 0.384314 0.239216
0.219608 0.384314 0.235294
0.243137 0.388235 0.235294
0.278431 0.407843 0.223529
0.333333 0.431373 0.215686
0.407843 0.454902 0.196078
0.509804 0.501961 0.176471
0.6 0.517647 0.152941
0.666667 0.513725 0.145098
0.72549 0.513725 0.133333
0.780392 0.505882 0.121569
0.847059 0.509804 0.105882
0.898039 0.529412 0.0862745
0.945098 0.541176 0.0666667
0.980392 0.545098 0.0235294
0.211765 0.447059 0.243137
0.215686 0.443137 0.243137
0.223529 0.447059 0.247059
0.235294 0.443137 0.239216
0.254902 0.435294 0.243137
0.286275 0.454902 0.235294
0.337255 0.478431 0.227451
0.403922 0.505882 0.215686
0.482353 0.537255 0.192157
0.584314 0.572549 0.160784
0.682353 0.603922 0.129412
0.745098 0.596078 0.113725
0.792157 0.592157 0.0980392
0.85098 0.588235 0.0784314
0.894118 0.580392 0.0352941
0.941176 0.588235 0.00392157
0.980392 0.596078 0
0.231373 0.509804 0.25098
0.235294 0.513725 0.254902
0.243137 0.509804 0.247059
0.262745 0.505882 0.25098
0.270588 0.501961 0.243137
0.305882 0.513725 0.247059
0.34902 0.529412 0.235294
0.403922 0.560784 0.223529
0.478431 0.584314 0.211765
0.560784 0.615686 0.180392
0.658824 0.643137 0.14902
0.760784 0.67451 0.0941176
0.807843 0.670588 0.0666667
0.854902 0.666667 0.00784314
0.905882 0.662745 0
0.941176 0.654902 0
0.972549 0.65098 0
0.254902 0.580392 0.258824
0.262745 0.584314 0.262745
0.270588 0.580392 0.254902
0.286275 0.580392 0.258824
0.305882 0.576471 0.258824
0.321569 0.568627 0.258824
0.360784 0.588235 0.247059
0.415686 0.611765 0.239216
0.482353 0.635294 0.219608
0.552941 0.658824 0.2
0.643137 0.686275 0.176471
0.729412 0.713725 0.129412
0.823529 0.74902 0.0117647
0.870588 0.741176 0
0.909804 0.733333 0
0.945098 0.72549 0
0.976471 0.721569 0
0.290196 0.658824 0.278431
0.298039 0.658824 0.270588
0.301961 0.654902 0.270588
0.317647 0.654902 0.27451
0.337255 0.65098 0.270588
0.356863 0.647059 0.27451
0.392157 0.65098 0.266667
0.439216 0.670588 0.254902
0.494118 0.690196 0.239216
0.560784 0.709804 0.231373
0.631373 0.733333 0.203922
0.713725 0.752941 0.172549
0.792157 0.772549 0.121569
0.886275 0.803922 0
0.921569 0.8 0
0.956863 0.788235 0
0.984314 0.788235 0
0.337255 0.729412 0.290196
0.337255 0.729412 0.290196
0.345098 0.729412 0.294118
0.356863 0.72549 0.286275
0.376471 0.721569 0.290196
0.396078 0.717647 0.286275
0.415686 0.713725 0.286275
0.458824 0.729412 0.27451
0.509804 0.745098 0.266667
0.568627 0.764706 0.25098
0.635294 0.780392 0.235294
0.705882 0.796078 0.207843
0.780392 0.811765 0.176471
0.847059 0.827451 0.129412
0.929412 0.854902 0.00392157
0.964706 0.85098 0
0.992157 0.843137 0
0.384314 0.8 0.321569
0.388235 0.796078 0.321569
0.4 0.796078 0.32549
0.411765 0.796078 0.321569
0.423529 0.792157 0.321569
0.443137 0.788235 0.317647
0.466667 0.784314 0.313725
0.498039 0.788235 0.313725
0.545098 0.8 0.298039
0.596078 0.815686 0.294118
0.654902 0.831373 0.27451
0.721569 0.839216 0.254902
0.772549 0.85098 0.227451
0.839216 0.862745 0.196078
0.894118 0.870588 0.141176
0.968627 0.898039 0
0.996078 0.894118 0
0.454902 0.858824 0.368627
0.458824 0.858824 0.368627
0.466667 0.858824 0.372549
0.47451 0.862745 0.368627
0.486275 0.854902 0.368627
0.505882 0.85098 0.368627
0.529412 0.85098 0.364706
0.552941 0.85098 0.364706
0.588235 0.858824 0.360784
0.631373 0.866667 0.34902
0.678431 0.878431 0.333333
0.733333 0.886275 0.317647
0.788235 0.894118 0.294118
0.839216 0.901961 0.270588
0.894118 0.909804 0.231373
0.945098 0.913725 0.172549
0.992157 0.929412 0.0352941
0.541176 0.913725 0.443137
0.545098 0.917647 0.447059
0.54902 0.917647 0.447059
0.560784 0.917647 0.443137
0.568627 0.913725 0.443137
0.584314 0.913725 0.443137
0.603922 0.913725 0.443137
0.623529 0.909804 0.447059
0.654902 0.909804 0.439216
0.690196 0.917647 0.435294
0.72549 0.92549 0.427451
0.768627 0.929412 0.407843
0.807843 0.937255 0.392157
0.85098 0.945098 0.364706
0.894118 0.94902 0.329412
0.937255 0.952941 0.282353
0.972549 0.952941 0.223529
0.639216 0.960784 0.552941
0.643137 0.960784 0.54902
0.65098 0.964706 0.54902
0.654902 0.960784 0.54902
0.662745 0.960784 0.54902
0.67451 0.956863 0.552941
0.694118 0.956863 0.556863
0.713725 0.960784 0.560784
0.729412 0.956863 0.560784
0.752941 0.960784 0.556863
0.784314 0.968627 0.54902
0.807843 0.972549 0.537255
0.843137 0.976471 0.52549
0.870588 0.980392 0.505882
0.901961 0.984314 0.470588
0.937255 0.988235 0.431373
0.972549 0.988235 0.372549
0.105882 0.14902 0.227451
0.121569 0.14902 0.223529
0.145098 0.14902 0.227451
0.180392 0.145098 0.219608
0.227451 0.145098 0.219608
0.27451 0.141176 0.215686
0.337255 0.145098 0.219608
0.403922 0.156863 0.223529
0.490196 0.14902 0.215686
0.576471 0.145098 0.207843
0.662745 0.141176 0.207843
0.741176 0.152941 0.2
0.803922 0.172549 0.192157
0.866667 0.203922 0.184314
0.913725 0.239216 0.184314
0.952941 0.270588 0.172549
0.988235 0.294118 0.164706
0.105882 0.164706 0.223529
0.12549 0.160784 0.219608
0.152941 0.164706 0.223529
0.180392 0.164706 0.223529
0.227451 0.160784 0.223529
0.27451 0.164706 0.219608
0.337255 0.172549 0.219608
0.407843 0.172549 0.219608
0.490196 0.168627 0.215686
0.580392 0.168627 0.211765
0.662745 0.172549 0.203922
0.741176 0.180392 0.203922
0.807843 0.2 0.192157
0.862745 0.223529 0.188235
0.917647 0.254902 0.180392
0.952941 0.282353 0.172549
0.984314 0.309804 0.164706
0.121569 0.188235 0.219608
0.137255 0.188235 0.223529
0.156863 0.192157 0.227451
0.184314 0.192157 0.219608
0.219608 0.192157 0.223529
0.27451 0.196078 0.223529
0.337255 0.196078 0.219608
0.407843 0.196078 0.219608
0.490196 0.196078 0.215686
0.576471 0.2 0.207843
0.662745 0.207843 0.207843
0.737255 0.215686 0.196078
0.807843 0.231373 0.192157
0.862745 0.254902 0.184314
0.913725 0.278431 0.172549
0.952941 0.309804 0.164706
0.984314 0.329412 0.160784
0.141176 0.211765 0.227451
0.152941 0.211765 0.231373
0.160784 0.215686 0.227451
0.184314 0.223529 0.227451
0.227451 0.223529 0.215686
0.278431 0.223529 0.219608
0.337255 0.227451 0.215686
0.407843 0.235294 0.215686
0.486275 0.239216 0.211765
0.576471 0.247059 0.207843
0.658824 0.25098 0.2
0.737255 0.262745 0.196078
0.803922 0.27451 0.188235
0.858824 0.298039 0.180392
0.905882 0.317647 0.172549
0.952941 0.345098 0.164706
0.988235 0.360784 0.160784
0.160784 0.247059 0.235294
0.164706 0.25098 0.239216
0.172549 0.247059 0.231373
0.188235 0.254902 0.231373
0.223529 0.262745 0.227451
0.290196 0.278431 0.219608
0.345098 0.27451 0.215686
0.407843 0.278431 0.211765
0.486275 0.286275 0.211765
0.572549 0.298039 0.2
0.654902 0.301961 0.196078
0.729412 0.317647 0.192157
0.8 0.329412 0.184314
0.862745 0.34902 0.176471
0.905882 0.368627 0.164706
0.952941 0.384314 0.160784
0.980392 0.4 0.152941
0.164706 0.290196 0.239216
0.168627 0.290196 0.231373
0.184314 0.286275 0.235294
0.2 0.286275 0.235294
0.227451 0.301961 0.227451
0.278431 0.317647 0.223529
0.360784 0.341176 0.215686
0.423529 0.345098 0.207843
0.494118 0.345098 0.203922
0.564706 0.34902 0.196078
0.647059 0.360784 0.192157
0.729412 0.372549 0.188235
0.792157 0.384314 0.168627
0.85098 0.4 0.168627
0.905882 0.415686 0.156863
0.952941 0.435294 0.152941
0.984314 0.447059 0.145098
0.184314 0.341176 0.247059
0.184314 0.341176 0.239216
0.196078 0.333333 0.239216
0.207843 0.333333 0.243137
0.231373 0.345098 0.239216
0.278431 0.360784 0.231373
0.341176 0.384314 0.219608
0.443137 0.423529 0.203922
0.509804 0.431373 0.2
0.580392 0.431373 0.188235
0.65098 0.423529 0.176471
0.717647 0.427451 0.172549
0.788235 0.443137 0.164706
0.847059 0.454902 0.156863
0.901961 0.466667 0.145098
0.94902 0.486275 0.141176
0.980392 0.490196 0.129412
0.196078 0.396078 0.25098
0.2 0.396078 0.25098
0.215686 0.396078 0.25098
0.227451 0.392157 0.25098
0.247059 0.388235 0.247059
0.282353 0.411765 0.243137
0.337255 0.431373 0.231373
0.415686 0.462745 0.219608
0.52549 0.501961 0.192157
0.6 0.513725 0.176471
0.666667 0.509804 0.168627
0.72549 0.509804 0.156863
0.784314 0.505882 0.14902
0.843137 0.513725 0.137255
0.901961 0.52549 0.12549
0.94902 0.537255 0.117647
0.976471 0.545098 0.105882
0.211765 0.454902 0.254902
0.219608 0.454902 0.254902
0.227451 0.454902 0.254902
0.247059 0.45098 0.258824
0.258824 0.447059 0.258824
0.290196 0.458824 0.25098
0.341176 0.482353 0.239216
0.403922 0.509804 0.227451
0.486275 0.537255 0.207843
0.592157 0.576471 0.184314
0.686275 0.6 0.160784
0.741176 0.596078 0.14902
0.796078 0.588235 0.133333
0.843137 0.584314 0.117647
0.894118 0.580392 0.105882
0.937255 0.588235 0.0862745
0.976471 0.592157 0.0666667
0.235294 0.517647 0.266667
0.243137 0.521569 0.262745
0.247059 0.517647 0.262745
0.262745 0.517647 0.266667
0.282353 0.513725 0.262745
0.309804 0.513725 0.262745
0.34902 0.533333 0.25098
0.407843 0.560784 0.243137
0.482353 0.584314 0.223529
0.564706 0.615686 0.203922
0.662745 0.643137 0.172549
0.760784 0.67451 0.133333
0.811765 0.670588 0.121569
0.862745 0.662745 0.101961
0.901961 0.662745 0.0745098
0.941176 0.65098 0.0196078
0.972549 0.65098 0
0.262745 0.588235 0.27451
0.270588 0.588235 0.278431
0.278431 0.588235 0.270588
0.294118 0.584314 0.27451
0.309804 0.580392 0.266667
0.329412 0.572549 0.270588
0.364706 0.592157 0.262745
0.419608 0.611765 0.254902
0.478431 0.639216 0.239216
0.556863 0.662745 0.219608
0.643137 0.690196 0.196078
0.733333 0.709804 0.160784
0.827451 0.741176 0.101961
0.866667 0.737255 0.0823529
0.909804 0.729412 0.0470588
0.952941 0.72549 0
0.984314 0.717647 0
0.294118 0.662745 0.286275
0.305882 0.662745 0.286275
0.309804 0.662745 0.286275
0.32549 0.658824 0.290196
0.341176 0.654902 0.282353
0.360784 0.647059 0.286275
0.392157 0.654902 0.282353
0.443137 0.670588 0.270588
0.498039 0.694118 0.258824
0.560784 0.713725 0.247059
0.635294 0.733333 0.223529
0.717647 0.752941 0.2
0.796078 0.772549 0.160784
0.882353 0.803922 0.0862745
0.917647 0.796078 0.027451
0.956863 0.792157 0.00392157
0.984314 0.788235 0
0.341176 0.729412 0.305882
0.345098 0.733333 0.305882
0.352941 0.737255 0.309804
0.364706 0.729412 0.309804
0.384314 0.72549 0.305882
0.403922 0.72549 0.301961
0.419608 0.717647 0.294118
0.462745 0.729412 0.294118
0.513725 0.745098 0.282353
0.572549 0.764706 0.270588
0.639216 0.780392 0.254902
0.709804 0.796078 0.235294
0.784314 0.811765 0.203922
0.85098 0.823529 0.160784
0.929412 0.854902 0.0705882
0.964706 0.847059 0.00392157
0.992157 0.843137 0
0.392157 0.796078 0.337255
0.396078 0.8 0.337255
0.403922 0.8 0.337255
0.415686 0.796078 0.341176
0.427451 0.792157 0.333333
0.447059 0.788235 0.329412
0.470588 0.788235 0.32549
0.501961 0.788235 0.32549
0.545098 0.803922 0.317647
0.596078 0.811765 0.309804
0.654902 0.827451 0.290196
0.713725 0.839216 0.270588
0.776471 0.85098 0.254902
0.839216 0.866667 0.219608
0.901961 0.87451 0.180392
0.968627 0.898039 0.0823529
0.996078 0.894118 0.00392157
0.462745 0.858824 0.380392
0.462745 0.858824 0.380392
0.470588 0.862745 0.384314
0.47451 0.858824 0.384314
0.490196 0.858824 0.380392
0.509804 0.854902 0.376471
0.533333 0.85098 0.376471
0.556863 0.854902 0.376471
0.588235 0.858824 0.368627
0.635294 0.866667 0.364706
0.678431 0.87451 0.345098
0.733333 0.886275 0.333333
0.792157 0.894118 0.313725
0.839216 0.901961 0.286275
0.890196 0.913725 0.254902
0.941176 0.917647 0.203922
0.992157 0.929412 0.117647
0.545098 0.917647 0.454902
0.54902 0.917647 0.458824
0.552941 0.917647 0.458824
0.560784 0.917647 0.458824
0.572549 0.913725 0.454902
0.588235 0.913725 0.458824
0.607843 0.913725 0.454902
0.627451 0.913725 0.454902
0.654902 0.913725 0.458824
0.690196 0.917647 0.447059
0.729412 0.92549 0.435294
0.772549 0.933333 0.423529
0.811765 0.937255 0.403922
0.85098 0.941176 0.380392
0.890196 0.94902 0.34902
0.933333 0.952941 0.305882
0.972549 0.956863 0.247059
0.643137 0.964706 0.560784
0.647059 0.960784 0.556863
0.65098 0.960784 0.556863
0.658824 0.964706 0.560784
0.662745 0.960784 0.560784
0.678431 0.956863 0.564706
0.694118 0.956863 0.564706
0.713725 0.960784 0.568627
0.733333 0.956863 0.572549
0.752941 0.960784 0.564706
0.784314 0.968627 0.560784
0.811765 0.972549 0.54902
0.843137 0.976471 0.537255
0.870588 0.976471 0.513725
0.905882 0.984314 0.486275
0.937255 0.984314 0.443137
0.968627 0.984314 0.384314
0.105882 0.14902 0.254902
0.121569 0.14902 0.258824
0.14902 0.14902 0.258824
0.184314 0.145098 0.258824
0.223529 0.145098 0.254902
0.278431 0.133333 0.254902
0.341176 0.121569 0.25098
0.415686 0.0980392 0.235294
0.498039 0.0588235 0.231373
0.584314 0.0941176 0.243137
0.670588 0.12549 0.247059
0.741176 0.137255 0.239216
0.811765 0.164706 0.231373
0.866667 0.196078 0.231373
0.913725 0.231373 0.227451
0.960784 0.270588 0.219608
0.988235 0.294118 0.219608
0.105882 0.164706 0.254902
0.12549 0.164706 0.254902
0.14902 0.168627 0.254902
0.184314 0.164706 0.254902
0.223529 0.164706 0.254902
0.278431 0.156863 0.25098
0.341176 0.145098 0.25098
0.415686 0.121569 0.239216
0.501961 0.137255 0.243137
0.584314 0.152941 0.25098
0.670588 0.152941 0.243137
0.745098 0.168627 0.239216
0.807843 0.192157 0.235294
0.866667 0.215686 0.231373
0.913725 0.25098 0.223529
0.956863 0.286275 0.219608
