lut/Portra 800 ++.cube
#Generated by Picture Instruments - Look Creator
TITLE "Portra 800 ++"
LUT_3D_SIZE 9
0.105882 0.14902 0.188235
0.14902 0.14902 0.188235
0.219608 0.152941 0.184314
0.333333 0.152941 0.184314
0.486275 0.14902 0.180392
0.658824 0.152941 0.168627
0.8 0.184314 0.14902
0.909804 0.247059 0.133333
0.984314 0.301961 0.113725
0.117647 0.176471 0.188235
0.14902 0.188235 0.192157
0.223529 0.188235 0.184314
0.333333 0.196078 0.188235
0.486275 0.2 0.176471
0.662745 0.215686 0.172549
0.8 0.243137 0.14902
0.909804 0.286275 0.129412
0.984314 0.333333 0.105882
0.137255 0.239216 0.203922
0.156863 0.239216 0.203922
0.215686 0.258824 0.196078
0.341176 0.278431 0.180392
0.478431 0.282353 0.176471
0.643137 0.309804 0.156863
0.792157 0.337255 0.137255
0.909804 0.368627 0.121569
0.980392 0.403922 0.0941176
0.164706 0.321569 0.219608
0.184314 0.321569 0.219608
0.223529 0.337255 0.215686
0.333333 0.380392 0.2
0.505882 0.431373 0.164706
0.643137 0.431373 0.145098
0.784314 0.447059 0.121569
0.898039 0.47451 0.0901961
0.980392 0.501961 0.0235294
0.203922 0.439216 0.235294
0.215686 0.439216 0.231373
0.25098 0.435294 0.231373
0.333333 0.478431 0.215686
0.478431 0.537255 0.180392
0.682353 0.6 0.109804
0.8 0.592157 0.0745098
0.898039 0.584314 0
0.976471 0.596078 0
0.254902 0.584314 0.25098
0.266667 0.576471 0.25098
0.301961 0.572549 0.254902
0.356863 0.588235 0.235294
0.478431 0.635294 0.215686
0.639216 0.686275 0.160784
0.823529 0.745098 0
0.909804 0.733333 0
0.976471 0.72549 0
0.337255 0.729412 0.286275
0.341176 0.72549 0.282353
0.376471 0.721569 0.282353
0.415686 0.717647 0.278431
0.509804 0.745098 0.258824
0.643137 0.780392 0.223529
0.776471 0.807843 0.160784
0.929412 0.854902 0.00392157
0.992157 0.843137 0
0.462745 0.862745 0.364706
0.466667 0.858824 0.364706
0.486275 0.858824 0.364706
0.529412 0.85098 0.356863
0.584314 0.854902 0.34902
0.686275 0.878431 0.32549
0.788235 0.894118 0.286275
0.890196 0.909804 0.211765
0.992157 0.929412 0.00784314
0.643137 0.960784 0.54902
0.647059 0.960784 0.541176
0.658824 0.956863 0.541176
0.690196 0.960784 0.552941
0.729412 0.960784 0.552941
0.784314 0.968627 0.545098
0.839216 0.976471 0.513725
0.905882 0.984314 0.462745
0.968627 0.980392 0.360784
0.105882 0.14902 0.227451
0.145098 0.14902 0.227451
0.227451 0.145098 0.219608
0.337255 0.145098 0.219608
0.490196 0.14902 0.215686
0.662745 0.141176 0.207843
0.803922 0.172549 0.192157
0.913725 0.239216 0.184314
0.988235 0.294118 0.164706
0.121569 0.188235 0.219608
0.156863 0.192157 0.227451
0.219608 0.192157 0.223529
0.337255 0.196078 0.219608
0.490196 0.196078 0.215686
0.662745 0.207843 0.207843
0.807843 0.231373 0.192157
0.913725 0.278431 0.172549
0.984314 0.329412 0.160784
0.160784 0.247059 0.235294
0.172549 0.247059 0.231373
0.223529 0.262745 0.227451
0.345098 0.27451 0.215686
0.486275 0.286275 0.211765
0.654902 0.301961 0.196078
0.8 0.329412 0.184314
0.905882 0.368627 0.164706
0.980392 0.4 0.152941
0.184314 0.341176 0.247059
0.196078 0.333333 0.239216
0.231373 0.345098 0.239216
0.341176 0.384314 0.219608
0.509804 0.431373 0.2
0.65098 0.423529 0.176471
0.788235 0.443137 0.164706
0.901961 0.466667 0.145098
0.980392 0.490196 0.129412
0.211765 0.454902 0.254902
0.227451 0.454902 0.254902
0.258824 0.447059 0.258824
0.341176 0.482353 0.239216
0.486275 0.537255 0.207843
0.686275 0.6 0.160784
0.796078 0.588235 0.133333
0.894118 0.580392 0.105882
0.976471 0.592157 0.0666667
0.262745 0.588235 0.27451
0.278431 0.588235 0.270588
0.309804 0.580392 0.266667
0.364706 0.592157 0.262745
0.478431 0.639216 0.239216
0.643137 0.690196 0.196078
0.827451 0.741176 0.101961
0.909804 0.729412 0.0470588
0.984314 0.717647 0
0.341176 0.729412 0.305882
0.352941 0.737255 0.309804
0.384314 0.72549 0.305882
0.419608 0.717647 0.294118
0.513725 0.745098 0.282353
0.639216 0.780392 0.254902
0.784314 0.811765 0.203922
0.929412 0.854902 0.0705882
0.992157 0.843137 0
0.462745 0.858824 0.380392
0.470588 0.862745 0.384314
0.490196 0.858824 0.380392
0.533333 0.85098 0.376471
0.588235 0.858824 0.368627
0.678431 0.87451 0.345098
0.792157 0.894118 0.313725
0.890196 0.913725 0.254902
0.992157 0.929412 0.117647
0.643137 0.964706 0.560784
0.65098 0.960784 0.556863
0.662745 0.960784 0.560784
0.694118 0.956863 0.564706
0.733333 0.956863 0.572549
0.784314 0.968627 0.560784
0.843137 0.976471 0.537255
0.905882 0.984314 0.486275
0.968627 0.984314 0.384314
0.0941176 0.14902 0.301961
0.145098 0.14902 0.301961
0.231373 0.141176 0.305882
0.341176 0.117647 0.305882
0.505882 0 0.286275
0.682353 0 0.258824
0.815686 0.141176 0.298039
0.917647 0.231373 0.282353
0.988235 0.305882 0.282353
0.109804 0.188235 0.294118
0.152941 0.192157 0.298039
0.227451 0.188235 0.294118
0.345098 0.168627 0.298039
0.505882 0.121569 0.282353
0.678431 0.152941 0.282353
0.811765 0.219608 0.286275
0.917647 0.278431 0.282353
0.988235 0.337255 0.27451
0.152941 0.258824 0.286275
0.184314 0.262745 0.290196
0.239216 0.266667 0.298039
0.352941 0.27451 0.294118
0.501961 0.282353 0.286275
0.670588 0.298039 0.282353
0.807843 0.321569 0.27451
0.913725 0.364706 0.270588
0.984314 0.403922 0.266667
0.203922 0.364706 0.309804
0.235294 0.368627 0.313725
0.258824 0.364706 0.305882
0.356863 0.396078 0.298039
0.509804 0.415686 0.27451
0.662745 0.419608 0.266667
0.8 0.443137 0.258824
0.905882 0.470588 0.25098
0.984314 0.498039 0.25098
0.247059 0.490196 0.32549
0.258824 0.490196 0.317647
0.294118 0.478431 0.313725
0.356863 0.486275 0.301961
0.505882 0.54902 0.290196
0.686275 0.592157 0.254902
0.796078 0.576471 0.235294
0.901961 0.576471 0.215686
0.980392 0.596078 0.211765
0.294118 0.619608 0.337255
0.301961 0.615686 0.329412
0.333333 0.607843 0.32549
0.380392 0.596078 0.329412
0.494118 0.643137 0.309804
0.65098 0.694118 0.282353
0.823529 0.741176 0.239216
0.909804 0.72549 0.207843
0.980392 0.713725 0.176471
0.364706 0.745098 0.364706
0.372549 0.74902 0.364706
0.403922 0.741176 0.360784
0.443137 0.733333 0.352941
0.52549 0.74902 0.345098
0.647059 0.784314 0.32549
0.788235 0.815686 0.298039
0.933333 0.854902 0.231373
0.988235 0.839216 0.192157
0.478431 0.866667 0.439216
0.482353 0.866667 0.431373
0.509804 0.862745 0.431373
0.54902 0.862745 0.427451
0.596078 0.854902 0.423529
0.686275 0.878431 0.403922
0.788235 0.894118 0.380392
0.898039 0.913725 0.337255
0.996078 0.933333 0.25098
0.658824 0.964706 0.592157
0.662745 0.960784 0.592157
0.678431 0.960784 0.592157
0.701961 0.960784 0.596078
0.741176 0.960784 0.6
0.788235 0.964706 0.596078
0.839216 0.976471 0.576471
0.905882 0.984314 0.533333
0.972549 0.984314 0.447059
0.0588235 0.14902 0.45098
0.141176 0.14902 0.447059
0.25098 0.137255 0.45098
0.384314 0.101961 0.454902
0.52549 0 0.45098
0.701961 0 0.447059
0.831373 0 0.403922
0.933333 0 0.368627
0.992157 0.258824 0.403922
0.0901961 0.192157 0.427451
0.152941 0.192157 0.431373
0.247059 0.184314 0.435294
0.376471 0.164706 0.45098
0.521569 0.0901961 0.439216
0.698039 0 0.431373
0.831373 0 0.4
0.929412 0 0.384314
0.984314 0.364706 0.435294
0.113725 0.270588 0.407843
0.152941 0.270588 0.415686
0.25098 0.270588 0.427451
0.380392 0.270588 0.431373
0.533333 0.239216 0.431373
0.698039 0.219608 0.411765
0.827451 0.254902 0.4
0.917647 0.407843 0.447059
0.984314 0.45098 0.443137
0.192157 0.384314 0.403922
0.219608 0.392157 0.407843
0.286275 0.396078 0.411765
0.388235 0.407843 0.419608
0.533333 0.423529 0.419608
0.686275 0.439216 0.419608
0.811765 0.458824 0.423529
0.913725 0.494118 0.423529
0.984314 0.521569 0.423529
0.278431 0.521569 0.427451
0.309804 0.529412 0.431373
0.360784 0.533333 0.435294
0.403922 0.521569 0.419608
0.529412 0.560784 0.415686
0.686275 0.576471 0.392157
0.803922 0.564706 0.380392
0.905882 0.588235 0.380392
0.980392 0.607843 0.380392
0.364706 0.654902 0.462745
0.384314 0.658824 0.462745
0.392157 0.654902 0.443137
0.431373 0.639216 0.427451
0.513725 0.654902 0.415686
0.666667 0.698039 0.403922
0.827451 0.733333 0.388235
0.909804 0.717647 0.356863
0.984314 0.701961 0.333333
0.411765 0.768627 0.466667
0.423529 0.768627 0.462745
0.447059 0.764706 0.462745
0.482353 0.752941 0.45098
0.537255 0.745098 0.439216
0.65098 0.780392 0.431373
0.788235 0.815686 0.411765
0.929412 0.847059 0.380392
0.984314 0.831373 0.352941
0.509804 0.87451 0.517647
0.521569 0.87451 0.517647
0.537255 0.870588 0.513725
0.572549 0.866667 0.509804
0.611765 0.862745 0.494118
0.694118 0.87451 0.490196
0.792157 0.894118 0.47451
0.894118 0.913725 0.443137
0.992157 0.937255 0.388235
0.67451 0.964706 0.639216
0.67451 0.960784 0.639216
0.690196 0.964706 0.643137
0.713725 0.960784 0.643137
0.74902 0.960784 0.643137
0.796078 0.964706 0.65098
0.847059 0.972549 0.635294
0.905882 0.984314 0.607843
0.972549 0.988235 0.541176
0.00392157 0.145098 0.615686
0.141176 0.137255 0.611765
0.270588 0.121569 0.615686
0.415686 0.0509804 0.623529
0.564706 0 0.631373
0.698039 0 0.611765
0.823529 0 0.6
0.929412 0 0.564706
0.996078 0 0.529412
0 0.188235 0.592157
0.141176 0.184314 0.596078
0.262745 0.176471 0.6
0.407843 0.152941 0.611765
0.560784 0.0705882 0.619608
0.698039 0 0.611765
0.823529 0 0.592157
0.929412 0 0.564706
0.992157 0.152941 0.529412
0 0.266667 0.572549
0.12549 0.270588 0.576471
0.25098 0.270588 0.588235
0.4 0.266667 0.596078
0.560784 0.25098 0.611765
0.698039 0.207843 0.6
0.827451 0.2 0.584314
0.921569 0.262745 0.556863
0.988235 0.352941 0.54902
0.129412 0.396078 0.552941
0.172549 0.4 0.556863
0.25098 0.396078 0.560784
0.4 0.411765 0.580392
0.564706 0.415686 0.6
0.701961 0.403922 0.584314
0.827451 0.427451 0.572549
0.921569 0.47451 0.572549
0.980392 0.572549 0.6
0.262745 0.541176 0.54902
0.290196 0.545098 0.552941
0.356863 0.556863 0.560784
0.447059 0.564706 0.564706
0.564706 0.580392 0.576471
0.701961 0.592157 0.580392
0.819608 0.611765 0.588235
0.905882 0.631373 0.584314
0.972549 0.654902 0.592157
0.4 0.690196 0.584314
0.419608 0.690196 0.580392
0.458824 0.690196 0.580392
0.521569 0.690196 0.584314
0.572549 0.67451 0.560784
0.690196 0.705882 0.560784
0.815686 0.721569 0.54902
0.905882 0.705882 0.521569
0.976471 0.717647 0.529412
0.501961 0.788235 0.607843
0.509804 0.792157 0.611765
0.541176 0.788235 0.603922
0.560784 0.780392 0.588235
0.588235 0.772549 0.568627
0.666667 0.780392 0.552941
0.8 0.819608 0.560784
0.917647 0.843137 0.545098
0.984314 0.827451 0.513725
0.603922 0.882353 0.647059
0.603922 0.882353 0.647059
0.6 0.882353 0.631373
0.615686 0.878431 0.607843
0.65098 0.870588 0.603922
0.701961 0.866667 0.584314
0.796078 0.890196 0.584314
0.898039 0.913725 0.580392
0.992157 0.929412 0.54902
0.694118 0.964706 0.709804
0.698039 0.968627 0.705882
0.709804 0.968627 0.709804
0.729412 0.964706 0.705882
0.760784 0.964706 0.701961
0.803922 0.960784 0.709804
0.85098 0.972549 0.701961
0.909804 0.980392 0.686275
0.972549 0.984314 0.643137
0.0784314 0.137255 0.741176
0.168627 0.12549 0.745098
0.290196 0.105882 0.752941
0.427451 0.00392157 0.756863
0.580392 0 0.764706
0.717647 0 0.772549
0.819608 0 0.745098
0.917647 0 0.733333
0.988235 0 0.698039
0.0705882 0.184314 0.72549
0.160784 0.184314 0.733333
0.282353 0.168627 0.737255
0.419608 0.141176 0.745098
0.572549 0.0941176 0.756863
0.713725 0 0.768627
0.819608 0 0.745098
0.917647 0 0.72549
0.984314 0.105882 0.701961
0.00784314 0.270588 0.713725
0.14902 0.270588 0.72549
0.270588 0.266667 0.72549
0.415686 0.266667 0.733333
0.568627 0.258824 0.74902
0.709804 0.25098 0.760784
0.819608 0.227451 0.741176
0.913725 0.247059 0.72549
0.984314 0.317647 0.701961
0.0156863 0.392157 0.694118
0.137255 0.396078 0.701961
0.266667 0.396078 0.713725
0.415686 0.411765 0.717647
0.572549 0.427451 0.733333
0.717647 0.439216 0.74902
0.815686 0.431373 0.733333
0.909804 0.45098 0.72549
0.980392 0.501961 0.705882
0.219608 0.54902 0.690196
0.254902 0.552941 0.694118
0.32549 0.552941 0.698039
0.419608 0.552941 0.698039
0.580392 0.580392 0.721569
0.721569 0.6 0.733333
0.823529 0.6 0.729412
0.913725 0.627451 0.72549
0.972549 0.654902 0.717647
0.384314 0.698039 0.694118
0.407843 0.698039 0.694118
0.458824 0.701961 0.698039
0.533333 0.705882 0.701961
0.627451 0.713725 0.705882
0.72549 0.72549 0.717647
0.823529 0.741176 0.721569
0.909804 0.756863 0.729412
0.964706 0.768627 0.733333
0.552941 0.819608 0.729412
0.564706 0.815686 0.721569
0.588235 0.815686 0.721569
0.635294 0.811765 0.721569
0.686275 0.811765 0.721569
0.717647 0.796078 0.698039
0.815686 0.827451 0.705882
0.913725 0.835294 0.698039
0.968627 0.819608 0.666667
0.643137 0.894118 0.74902
0.654902 0.898039 0.752941
0.670588 0.898039 0.74902
0.694118 0.890196 0.745098
0.721569 0.886275 0.729412
0.741176 0.882353 0.709804
0.803922 0.890196 0.705882
0.898039 0.917647 0.705882
0.984314 0.92549 0.698039
0.74902 0.964706 0.8
0.752941 0.968627 0.803922
0.768627 0.968627 0.807843
0.776471 0.968627 0.792157
0.788235 0.968627 0.784314
0.819608 0.968627 0.776471
0.854902 0.968627 0.780392
0.905882 0.980392 0.764706
0.968627 0.984314 0.745098
0.180392 0.129412 0.858824
0.235294 0.12549 0.858824
0.32549 0.105882 0.862745
0.447059 0.0313725 0.862745
0.580392 0 0.866667
0.717647 0 0.878431
0.827451 0 0.878431
0.905882 0 0.854902
0.972549 0 0.835294
0.176471 0.180392 0.854902
0.227451 0.180392 0.854902
0.321569 0.172549 0.854902
0.443137 0.14902 0.858824
0.576471 0.117647 0.862745
0.717647 0.113725 0.870588
0.823529 0.0941176 0.870588
0.901961 0.0705882 0.85098
0.976471 0.152941 0.831373
0.172549 0.27451 0.843137
0.227451 0.27451 0.839216
0.321569 0.27451 0.847059
0.443137 0.270588 0.847059
0.580392 0.27451 0.854902
0.717647 0.294118 0.866667
0.823529 0.301961 0.870588
0.909804 0.298039 0.858824
0.972549 0.32549 0.831373
0.14902 0.396078 0.827451
0.231373 0.403922 0.831373
0.329412 0.411765 0.839216
0.45098 0.415686 0.835294
0.588235 0.435294 0.85098
0.721569 0.462745 0.854902
0.827451 0.482353 0.862745
0.898039 0.478431 0.847059
0.964706 0.498039 0.831373
0.196078 0.537255 0.815686
0.239216 0.541176 0.815686
0.329412 0.541176 0.815686
0.45098 0.556863 0.827451
0.6 0.580392 0.839216
0.729412 0.611765 0.847059
0.831373 0.631373 0.854902
0.905882 0.627451 0.847059
0.968627 0.639216 0.835294
0.360784 0.694118 0.807843
0.384314 0.694118 0.811765
0.435294 0.698039 0.811765
0.505882 0.698039 0.815686
0.596078 0.701961 0.815686
0.72549 0.72549 0.827451
0.839216 0.74902 0.85098
0.909804 0.752941 0.847059
0.968627 0.768627 0.839216
0.52549 0.815686 0.811765
0.537255 0.819608 0.807843
0.576471 0.819608 0.815686
0.627451 0.823529 0.819608
0.690196 0.823529 0.819608
0.768627 0.831373 0.827451
0.839216 0.839216 0.831373
0.909804 0.85098 0.839216
0.968627 0.858824 0.847059
0.686275 0.909804 0.843137
0.698039 0.913725 0.839216
0.709804 0.909804 0.843137
0.737255 0.909804 0.843137
0.772549 0.905882 0.839216
0.807843 0.901961 0.839216
0.831373 0.890196 0.815686
0.905882 0.913725 0.827451
0.976471 0.92549 0.819608
0.776471 0.972549 0.866667
0.776471 0.972549 0.866667
0.792157 0.972549 0.870588
0.803922 0.972549 0.866667
0.831373 0.972549 0.870588
0.85098 0.968627 0.858824
0.87451 0.972549 0.854902
0.913725 0.972549 0.843137
0.968627 0.980392 0.839216
0.282353 0.145098 0.945098
0.313725 0.145098 0.945098
0.380392 0.129412 0.945098
0.478431 0.105882 0.945098
0.592157 0.0823529 0.945098
0.709804 0.0862745 0.94902
0.819608 0.160784 0.94902
0.905882 0.184314 0.94902
0.968627 0.176471 0.945098
0.278431 0.196078 0.937255
0.317647 0.196078 0.941176
0.384314 0.192157 0.937255
0.478431 0.180392 0.941176
0.596078 0.172549 0.945098
0.713725 0.188235 0.945098
0.823529 0.243137 0.94902
0.901961 0.266667 0.94902
0.968627 0.258824 0.94902
0.286275 0.294118 0.933333
0.321569 0.298039 0.933333
0.392157 0.294118 0.937255
0.486275 0.298039 0.933333
0.603922 0.305882 0.937255
0.721569 0.329412 0.94902
0.823529 0.380392 0.945098
0.901961 0.4 0.945098
0.964706 0.392157 0.941176
0.309804 0.423529 0.92549
0.345098 0.427451 0.929412
0.411765 0.431373 0.933333
0.501961 0.439216 0.929412
0.615686 0.454902 0.933333
0.729412 0.482353 0.933333
0.827451 0.52549 0.941176
0.905882 0.545098 0.941176
0.956863 0.537255 0.933333
0.305882 0.552941 0.92549
0.337255 0.552941 0.917647
0.415686 0.556863 0.92549
0.52549 0.580392 0.92549
0.631373 0.592157 0.929412
0.741176 0.619608 0.92549
0.835294 0.654902 0.937255
0.909804 0.670588 0.941176
0.956863 0.666667 0.929412
0.372549 0.690196 0.909804
0.396078 0.690196 0.913725
0.435294 0.690196 0.909804
0.513725 0.690196 0.913725
0.627451 0.705882 0.917647
0.745098 0.729412 0.92549
0.843137 0.760784 0.929412
0.917647 0.780392 0.937255
0.960784 0.776471 0.92549
0.521569 0.819608 0.909804
0.537255 0.819608 0.913725
0.564706 0.819608 0.905882
0.615686 0.819608 0.905882
0.678431 0.819608 0.913725
0.741176 0.815686 0.909804
0.847059 0.839216 0.921569
0.921569 0.866667 0.933333
0.964706 0.862745 0.929412
0.658824 0.909804 0.909804
0.666667 0.913725 0.909804
0.690196 0.913725 0.909804
0.721569 0.909804 0.909804
0.764706 0.917647 0.913725
0.811765 0.913725 0.909804
0.870588 0.917647 0.917647
0.92549 0.92549 0.92549
0.968627 0.929412 0.929412
0.784314 0.976471 0.929412
0.792157 0.976471 0.92549
0.807843 0.976471 0.929412
0.827451 0.976471 0.92549
0.85098 0.976471 0.933333
0.87451 0.976471 0.92549
0.905882 0.976471 0.929412
0.92549 0.972549 0.917647
0.976471 0.984314 0.917647
0.380392 0.207843 0.992157
0.4 0.211765 0.992157
0.454902 0.207843 0.992157
0.52549 0.207843 0.992157
0.615686 0.211765 0.992157
0.709804 0.231373 0.992157
0.807843 0.278431 0.992157
0.894118 0.34902 0.992157
0.94902 0.356863 0.992157
0.396078 0.258824 0.996078
0.411765 0.258824 0.992157
0.458824 0.258824 0.992157
0.533333 0.254902 0.992157
0.623529 0.270588 0.992157
0.717647 0.290196 0.992157
0.807843 0.333333 0.992157
0.890196 0.396078 0.992157
0.94902 0.4 0.992157
0.411765 0.352941 0.992157
0.431373 0.34902 0.992157
0.478431 0.356863 0.996078
0.54902 0.360784 0.992157
0.631373 0.372549 0.992157
0.729412 0.396078 0.992157
0.811765 0.435294 0.992157
0.894118 0.494118 0.996078
0.952941 0.498039 0.996078
0.443137 0.482353 0.992157
0.466667 0.482353 0.996078
0.513725 0.486275 0.996078
0.576471 0.494118 0.992157
0.658824 0.505882 0.996078
0.741176 0.52549 0.992157
0.827451 0.556863 0.992157
0.901961 0.6 0.992157
0.952941 0.6 0.992157
0.482353 0.6 0.992157
0.505882 0.611765 0.992157
0.54902 0.611765 0.988235
0.607843 0.619608 0.992157
0.682353 0.631373 0.988235
0.756863 0.647059 0.988235
0.835294 0.670588 0.992157
0.905882 0.698039 0.988235
0.952941 0.705882 0.984314
0.478431 0.705882 0.984314
0.505882 0.705882 0.984314
0.54902 0.709804 0.984314
0.611765 0.717647 0.988235
0.698039 0.733333 0.988235
0.768627 0.745098 0.980392
0.843137 0.768627 0.988235
0.909804 0.792157 0.984314
0.960784 0.796078 0.984314
0.576471 0.823529 0.980392
0.588235 0.819608 0.984314
0.611765 0.819608 0.984314
0.643137 0.819608 0.984314
0.690196 0.815686 0.984314
0.776471 0.831373 0.984314
0.85098 0.847059 0.980392
0.921569 0.866667 0.984314
0.964706 0.870588 0.980392
0.690196 0.913725 0.980392
0.694118 0.913725 0.980392
0.709804 0.913725 0.976471
0.733333 0.913725 0.976471
0.768627 0.913725 0.984314
0.807843 0.913725 0.980392
0.854902 0.913725 0.984314
0.92549 0.92549 0.984314
0.972549 0.937255 0.980392
0.784314 0.976471 0.976471
0.788235 0.980392 0.980392
0.8 0.976471 0.980392
0.819608 0.980392 0.976471
0.839216 0.976471 0.980392
0.878431 0.976471 0.984314
0.909804 0.980392 0.980392
0.945098 0.980392 0.984314
0.980392 0.980392 0.984314
