lut/Portra 400 ++.cube
#Generated by Picture Instruments - Look Creator
TITLE "Portra 400 ++"
LUT_3D_SIZE 17
0.101961 0.105882 0.0862745
0.109804 0.105882 0.0901961
0.12549 0.105882 0.0901961
0.160784 0.105882 0.0862745
0.211765 0.101961 0.0862745
0.278431 0.0941176 0.0823529
0.352941 0.0666667 0.0784314
0.439216 0 0.0627451
0.529412 0 0.0235294
0.611765 0 0.00392157
0.682353 0 0.00392157
0.737255 0 0
0.788235 0.0509804 0
0.835294 0.133333 0.00392157
0.87451 0.192157 0
0.913725 0.231373 0
0.941176 0.254902 0
0.105882 0.113725 0.0941176
0.109804 0.113725 0.0901961
0.133333 0.121569 0.0862745
0.164706 0.121569 0.0862745
0.215686 0.121569 0.0823529
0.27451 0.117647 0.0784314
0.352941 0.105882 0.0705882
0.443137 0.0784314 0.0509804
0.529412 0 0.0156863
0.607843 0 0
0.682353 0 0.00392157
0.737255 0.0588235 0
0.788235 0.12549 0
0.831373 0.172549 0
0.878431 0.215686 0
0.913725 0.25098 0
0.945098 0.27451 0
0.105882 0.137255 0.0941176
0.113725 0.137255 0.0980392
0.129412 0.145098 0.0901961
0.164706 0.152941 0.0862745
0.219608 0.152941 0.0823529
0.278431 0.14902 0.0745098
0.356863 0.14902 0.0666667
0.439216 0.137255 0.0431373
0.529412 0.12549 0
0.607843 0.117647 0
0.678431 0.129412 0
0.733333 0.152941 0
0.784314 0.188235 0
0.831373 0.223529 0
0.870588 0.25098 0
0.913725 0.282353 0
0.941176 0.301961 0
0.113725 0.168627 0.101961
0.117647 0.168627 0.101961
0.12549 0.172549 0.101961
0.160784 0.180392 0.0941176
0.215686 0.196078 0.0823529
0.282353 0.203922 0.0705882
0.356863 0.203922 0.0509804
0.447059 0.203922 0.0196078
0.52549 0.2 0
0.611765 0.203922 0
0.682353 0.211765 0.00392157
0.737255 0.231373 0.00392157
0.784314 0.254902 0
0.835294 0.282353 0
0.87451 0.301961 0
0.913725 0.329412 0
0.937255 0.345098 0
0.117647 0.211765 0.109804
0.121569 0.211765 0.109804
0.137255 0.207843 0.113725
0.160784 0.219608 0.105882
0.207843 0.235294 0.101961
0.27451 0.258824 0.0745098
0.356863 0.270588 0.0470588
0.447059 0.270588 0.00392157
0.537255 0.27451 0
0.611765 0.282353 0
0.67451 0.290196 0
0.737255 0.305882 0
0.784314 0.329412 0.00392157
0.827451 0.341176 0
0.870588 0.364706 0.00392157
0.905882 0.380392 0
0.937255 0.392157 0
0.129412 0.266667 0.121569
0.141176 0.262745 0.129412
0.152941 0.258824 0.129412
0.168627 0.262745 0.121569
0.2 0.282353 0.113725
0.262745 0.301961 0.0980392
0.360784 0.333333 0.0666667
0.443137 0.345098 0
0.529412 0.352941 0
0.611765 0.356863 0
0.67451 0.364706 0
0.733333 0.380392 0
0.780392 0.392157 0
0.823529 0.407843 0
0.862745 0.423529 0
0.905882 0.435294 0
0.941176 0.443137 0
0.145098 0.333333 0.137255
0.14902 0.329412 0.137255
0.168627 0.321569 0.145098
0.180392 0.317647 0.145098
0.215686 0.333333 0.137255
0.258824 0.352941 0.12549
0.333333 0.376471 0.105882
0.443137 0.411765 0.0235294
0.529412 0.427451 0
0.6 0.435294 0
0.666667 0.443137 0
0.72549 0.447059 0
0.776471 0.458824 0
0.823529 0.470588 0
0.866667 0.482353 0
0.905882 0.490196 0
0.941176 0.498039 0
0.164706 0.4 0.14902
0.168627 0.396078 0.156863
0.180392 0.392157 0.156863
0.203922 0.380392 0.164706
0.227451 0.388235 0.160784
0.270588 0.407843 0.14902
0.329412 0.431373 0.129412
0.411765 0.45098 0.101961
0.517647 0.486275 0
0.6 0.501961 0
0.666667 0.513725 0
0.72549 0.517647 0
0.772549 0.521569 0
0.815686 0.52549 0
0.862745 0.537255 0
0.905882 0.541176 0
0.941176 0.545098 0
0.188235 0.470588 0.172549
0.192157 0.470588 0.172549
0.203922 0.462745 0.180392
0.227451 0.45098 0.184314
0.243137 0.443137 0.184314
0.278431 0.458824 0.176471
0.333333 0.478431 0.164706
0.403922 0.501961 0.141176
0.490196 0.52549 0.105882
0.584314 0.54902 0
0.666667 0.568627 0
0.721569 0.580392 0
0.768627 0.584314 0
0.819608 0.584314 0
0.862745 0.588235 0
0.905882 0.588235 0
0.941176 0.592157 0
0.215686 0.541176 0.196078
0.227451 0.533333 0.196078
0.239216 0.52549 0.203922
0.254902 0.517647 0.203922
0.278431 0.505882 0.215686
0.301961 0.509804 0.203922
0.34902 0.52549 0.2
0.407843 0.545098 0.184314
0.478431 0.568627 0.160784
0.556863 0.584314 0.129412
0.643137 0.607843 0.0627451
0.717647 0.631373 0
0.772549 0.643137 0.00392157
0.815686 0.639216 0
0.858824 0.643137 0
0.905882 0.639216 0
0.941176 0.639216 0
0.258824 0.6 0.227451
0.266667 0.596078 0.227451
0.27451 0.592157 0.231373
0.290196 0.580392 0.231373
0.305882 0.572549 0.239216
0.329412 0.560784 0.247059
0.368627 0.576471 0.231373
0.419608 0.592157 0.219608
0.482353 0.611765 0.203922
0.552941 0.623529 0.184314
0.627451 0.643137 0.160784
0.698039 0.662745 0.109804
0.768627 0.682353 0.00784314
0.811765 0.690196 0
0.858824 0.690196 0
0.909804 0.694118 0
0.941176 0.690196 0
0.313725 0.658824 0.266667
0.317647 0.654902 0.266667
0.321569 0.65098 0.266667
0.333333 0.647059 0.27451
0.356863 0.635294 0.27451
0.372549 0.623529 0.282353
0.403922 0.623529 0.27451
0.443137 0.639216 0.266667
0.501961 0.65098 0.254902
0.556863 0.662745 0.243137
0.623529 0.682353 0.223529
0.686275 0.694118 0.196078
0.745098 0.709804 0.164706
0.811765 0.729412 0.121569
0.858824 0.737255 0.0431373
0.909804 0.741176 0
0.945098 0.741176 0
0.368627 0.713725 0.313725
0.372549 0.709804 0.313725
0.376471 0.709804 0.313725
0.388235 0.701961 0.313725
0.403922 0.694118 0.321569
0.423529 0.686275 0.321569
0.443137 0.670588 0.329412
0.486275 0.686275 0.32549
0.521569 0.694118 0.313725
0.580392 0.709804 0.301961
0.631373 0.717647 0.290196
0.682353 0.733333 0.278431
0.737255 0.745098 0.247059
0.792157 0.756863 0.219608
0.858824 0.780392 0.188235
0.905882 0.788235 0.156863
0.945098 0.788235 0.113725
0.431373 0.760784 0.376471
0.439216 0.760784 0.376471
0.443137 0.756863 0.376471
0.454902 0.752941 0.380392
0.470588 0.74902 0.380392
0.486275 0.741176 0.388235
0.501961 0.729412 0.388235
0.52549 0.733333 0.388235
0.564706 0.741176 0.384314
0.603922 0.74902 0.372549
0.643137 0.764706 0.360784
0.686275 0.772549 0.34902
0.733333 0.784314 0.337255
0.788235 0.796078 0.313725
0.839216 0.807843 0.286275
0.909804 0.827451 0.258824
0.94902 0.831373 0.247059
0.513725 0.811765 0.454902
0.509804 0.807843 0.45098
0.513725 0.807843 0.45098
0.521569 0.807843 0.454902
0.533333 0.803922 0.454902
0.545098 0.796078 0.458824
0.564706 0.792157 0.462745
0.580392 0.780392 0.470588
0.603922 0.792157 0.466667
0.635294 0.8 0.462745
0.670588 0.807843 0.454902
0.709804 0.815686 0.443137
0.74902 0.831373 0.435294
0.792157 0.843137 0.419608
0.839216 0.85098 0.392157
0.890196 0.858824 0.368627
0.945098 0.87451 0.345098
0.588235 0.870588 0.541176
0.584314 0.866667 0.537255
0.592157 0.862745 0.537255
0.596078 0.862745 0.537255
0.607843 0.862745 0.545098
0.615686 0.854902 0.54902
0.631373 0.85098 0.552941
0.647059 0.85098 0.564706
0.662745 0.847059 0.564706
0.686275 0.858824 0.564706
0.713725 0.862745 0.560784
0.737255 0.87451 0.552941
0.772549 0.882353 0.545098
0.803922 0.894118 0.537255
0.847059 0.901961 0.521569
0.886275 0.909804 0.501961
0.92549 0.913725 0.47451
0.658824 0.921569 0.631373
0.658824 0.921569 0.627451
0.666667 0.921569 0.627451
0.670588 0.917647 0.635294
0.678431 0.917647 0.639216
0.686275 0.913725 0.643137
0.701961 0.909804 0.647059
0.709804 0.909804 0.658824
0.733333 0.905882 0.67451
0.74902 0.913725 0.67451
0.764706 0.921569 0.670588
0.788235 0.933333 0.666667
0.815686 0.937255 0.662745
0.843137 0.945098 0.658824
0.87451 0.956863 0.654902
0.909804 0.960784 0.643137
0.941176 0.960784 0.627451
0.101961 0.101961 0.101961
0.109804 0.105882 0.0980392
0.12549 0.101961 0.101961
0.168627 0.0980392 0.101961
0.215686 0.0941176 0.101961
0.278431 0.0823529 0.0980392
0.356863 0.0431373 0.0941176
0.443137 0 0.0862745
0.533333 0 0.0784314
0.611765 0 0.0509804
0.682353 0 0.00392157
0.741176 0 0
0.788235 0.00392157 0
0.831373 0.12549 0
0.87451 0.184314 0
0.909804 0.227451 0
0.941176 0.254902 0
0.101961 0.117647 0.101961
0.113725 0.117647 0.0980392
0.133333 0.121569 0.101961
0.172549 0.117647 0.105882
0.215686 0.117647 0.101961
0.282353 0.109804 0.0980392
0.356863 0.0980392 0.0901961
0.443137 0.0588235 0.0862745
0.533333 0 0.0705882
0.611765 0 0.0392157
0.682353 0 0.00392157
0.741176 0.0235294 0
0.792157 0.113725 0
0.835294 0.164706 0
0.87451 0.207843 0.00392157
0.909804 0.243137 0
0.945098 0.27451 0
0.109804 0.14902 0.113725
0.117647 0.145098 0.113725
0.137255 0.14902 0.105882
0.176471 0.152941 0.105882
0.219608 0.14902 0.0941176
0.282353 0.152941 0.0941176
0.364706 0.145098 0.0941176
0.443137 0.133333 0.0823529
0.533333 0.117647 0.0627451
0.615686 0.109804 0.0235294
0.682353 0.121569 0
0.733333 0.145098 0
0.788235 0.180392 0
0.831373 0.215686 0
0.87451 0.25098 0
0.913725 0.278431 0
0.941176 0.301961 0
0.117647 0.184314 0.113725
0.12549 0.180392 0.121569
0.133333 0.176471 0.113725
0.168627 0.188235 0.109804
0.223529 0.2 0.101961
0.286275 0.203922 0.0901961
0.364706 0.2 0.0823529
0.45098 0.2 0.0666667
0.533333 0.2 0.0392157
0.615686 0.2 0.00392157
0.682353 0.211765 0.00392157
0.737255 0.227451 0
0.788235 0.247059 0
0.831373 0.27451 0
0.870588 0.298039 0
0.909804 0.32549 0
0.945098 0.341176 0
0.12549 0.227451 0.121569
0.133333 0.223529 0.129412
0.145098 0.215686 0.129412
0.168627 0.227451 0.12549
0.211765 0.239216 0.109804
0.282353 0.262745 0.0980392
0.364706 0.270588 0.0823529
0.45098 0.270588 0.0392157
0.537255 0.27451 0
0.607843 0.278431 0
0.682353 0.290196 0
0.737255 0.305882 0.00392157
0.788235 0.321569 0
0.827451 0.341176 0
0.870588 0.356863 0
0.913725 0.376471 0
0.94902 0.392157 0
0.137255 0.286275 0.141176
0.145098 0.278431 0.141176
0.156863 0.270588 0.14902
0.176471 0.270588 0.145098
0.207843 0.290196 0.137255
0.270588 0.305882 0.121569
0.368627 0.337255 0.0941176
0.45098 0.34902 0.054902
0.533333 0.356863 0
0.611765 0.356863 0
0.67451 0.364706 0
0.733333 0.380392 0
0.780392 0.392157 0
0.827451 0.407843 0
0.870588 0.419608 0
0.909804 0.431373 0
0.941176 0.443137 0
0.14902 0.345098 0.145098
0.160784 0.341176 0.156863
0.172549 0.337255 0.156863
0.184314 0.321569 0.156863
0.219608 0.337255 0.156863
0.266667 0.356863 0.137255
0.337255 0.380392 0.113725
0.443137 0.411765 0.0784314
0.533333 0.431373 0
0.607843 0.439216 0
0.678431 0.443137 0.00392157
0.72549 0.447059 0
0.776471 0.458824 0
0.823529 0.470588 0
0.866667 0.482353 0
0.909804 0.490196 0
0.941176 0.490196 0
0.172549 0.415686 0.168627
0.176471 0.411765 0.168627
0.192157 0.403922 0.176471
0.207843 0.392157 0.176471
0.235294 0.396078 0.176471
0.27451 0.411765 0.160784
0.333333 0.435294 0.14902
0.419608 0.458824 0.121569
0.52549 0.494118 0.0666667
0.603922 0.505882 0
0.666667 0.513725 0
0.72549 0.517647 0
0.772549 0.521569 0
0.827451 0.529412 0
0.862745 0.537255 0
0.905882 0.541176 0
0.941176 0.545098 0
0.192157 0.482353 0.188235
0.2 0.47451 0.188235
0.211765 0.470588 0.188235
0.227451 0.458824 0.192157
0.254902 0.443137 0.2
0.294118 0.462745 0.192157
0.337255 0.482353 0.176471
0.407843 0.501961 0.156863
0.494118 0.52549 0.129412
0.588235 0.552941 0.0784314
0.670588 0.572549 0.00392157
0.721569 0.580392 0
0.768627 0.584314 0
0.819608 0.584314 0
0.862745 0.588235 0
0.905882 0.588235 0
0.941176 0.592157 0
0.223529 0.541176 0.207843
0.235294 0.541176 0.211765
0.243137 0.537255 0.211765
0.262745 0.52549 0.215686
0.278431 0.513725 0.223529
0.309804 0.513725 0.223529
0.352941 0.529412 0.211765
0.411765 0.54902 0.196078
0.482353 0.568627 0.176471
0.560784 0.588235 0.14902
0.643137 0.607843 0.101961
0.721569 0.635294 0
0.768627 0.639216 0
0.815686 0.639216 0
0.858824 0.643137 0
0.905882 0.639216 0
0.945098 0.639216 0
0.262745 0.603922 0.235294
0.266667 0.6 0.235294
0.282353 0.6 0.239216
0.298039 0.588235 0.247059
0.313725 0.580392 0.25098
0.333333 0.564706 0.258824
0.372549 0.576471 0.25098
0.423529 0.592157 0.239216
0.486275 0.611765 0.223529
0.556863 0.627451 0.203922
0.631373 0.647059 0.176471
0.698039 0.666667 0.141176
0.768627 0.686275 0.0941176
0.815686 0.694118 0
0.862745 0.694118 0
0.905882 0.694118 0
0.945098 0.694118 0
0.317647 0.658824 0.278431
0.321569 0.658824 0.278431
0.32549 0.654902 0.278431
0.345098 0.647059 0.278431
0.360784 0.635294 0.286275
0.376471 0.627451 0.290196
0.407843 0.627451 0.294118
0.447059 0.639216 0.282353
0.505882 0.65098 0.27451
0.560784 0.666667 0.254902
0.627451 0.682353 0.239216
0.690196 0.698039 0.215686
0.74902 0.709804 0.184314
0.815686 0.729412 0.14902
0.862745 0.737255 0.105882
0.909804 0.741176 0
0.945098 0.737255 0
0.368627 0.713725 0.321569
0.376471 0.713725 0.32549
0.388235 0.709804 0.32549
0.396078 0.705882 0.32549
0.407843 0.694118 0.333333
0.427451 0.686275 0.333333
0.447059 0.67451 0.341176
0.486275 0.686275 0.333333
0.52549 0.698039 0.32549
0.580392 0.705882 0.313725
0.631373 0.721569 0.301961
0.682353 0.733333 0.286275
0.741176 0.74902 0.266667
0.792157 0.760784 0.239216
0.862745 0.780392 0.211765
0.905882 0.788235 0.180392
0.94902 0.788235 0.141176
0.431373 0.760784 0.376471
0.439216 0.760784 0.380392
0.447059 0.760784 0.380392
0.458824 0.752941 0.380392
0.470588 0.74902 0.388235
0.486275 0.741176 0.388235
0.505882 0.733333 0.4
0.52549 0.729412 0.396078
0.564706 0.737255 0.388235
0.607843 0.752941 0.388235
0.643137 0.760784 0.372549
0.690196 0.772549 0.360784
0.737255 0.784314 0.345098
0.792157 0.796078 0.32549
0.843137 0.807843 0.298039
0.905882 0.831373 0.278431
0.941176 0.831373 0.262745
0.509804 0.807843 0.45098
0.513725 0.811765 0.454902
0.517647 0.811765 0.454902
0.521569 0.807843 0.454902
0.533333 0.803922 0.458824
0.54902 0.8 0.462745
0.564706 0.792157 0.470588
0.576471 0.784314 0.478431
0.607843 0.792157 0.47451
0.635294 0.8 0.466667
0.67451 0.811765 0.458824
0.705882 0.819608 0.454902
0.74902 0.827451 0.439216
0.788235 0.839216 0.423529
0.835294 0.854902 0.4
0.882353 0.858824 0.372549
0.941176 0.882353 0.356863
0.584314 0.870588 0.537255
0.584314 0.866667 0.537255
0.596078 0.866667 0.541176
0.596078 0.862745 0.545098
0.607843 0.862745 0.54902
0.619608 0.858824 0.552941
0.631373 0.85098 0.556863
0.647059 0.85098 0.568627
0.662745 0.847059 0.572549
0.686275 0.854902 0.572549
0.713725 0.862745 0.560784
0.737255 0.87451 0.560784
0.772549 0.882353 0.552941
0.803922 0.894118 0.541176
0.847059 0.901961 0.52549
0.890196 0.909804 0.505882
0.92549 0.909804 0.482353
0.658824 0.921569 0.627451
0.658824 0.921569 0.631373
0.666667 0.917647 0.635294
0.670588 0.913725 0.635294
0.678431 0.917647 0.639216
0.690196 0.917647 0.647059
0.701961 0.909804 0.65098
0.713725 0.909804 0.662745
0.729412 0.905882 0.67451
0.74902 0.913725 0.67451
0.772549 0.921569 0.67451
0.788235 0.933333 0.670588
0.815686 0.937255 0.666667
0.843137 0.945098 0.658824
0.87451 0.956863 0.654902
0.909804 0.960784 0.643137
0.941176 0.960784 0.635294
0.105882 0.109804 0.129412
0.113725 0.101961 0.129412
0.141176 0.101961 0.137255
0.168627 0.0980392 0.137255
0.219608 0.0862745 0.141176
0.282353 0.0666667 0.129412
0.364706 0 0.129412
0.447059 0 0.129412
0.537255 0 0.117647
0.615686 0 0.113725
0.682353 0 0.0980392
0.741176 0 0.0862745
0.792157 0 0.0627451
0.835294 0.109804 0.027451
0.878431 0.168627 0
0.917647 0.215686 0
0.945098 0.247059 0
0.101961 0.121569 0.133333
0.117647 0.121569 0.137255
0.141176 0.121569 0.145098
0.168627 0.121569 0.137255
0.219608 0.113725 0.133333
0.286275 0.101961 0.133333
0.364706 0.0901961 0.133333
0.45098 0.0313725 0.121569
0.537255 0 0.117647
0.615686 0 0.105882
0.690196 0 0.0941176
0.741176 0 0.0784314
0.792157 0.0941176 0.054902
0.835294 0.152941 0.00784314
0.87451 0.203922 0
0.913725 0.239216 0
0.945098 0.266667 0
0.105882 0.152941 0.137255
0.117647 0.152941 0.141176
0.145098 0.152941 0.141176
0.172549 0.152941 0.137255
0.227451 0.152941 0.137255
0.286275 0.14902 0.133333
0.368627 0.141176 0.129412
0.45098 0.12549 0.117647
0.537255 0.105882 0.109804
0.615686 0.0941176 0.101961
0.686275 0.105882 0.0901961
0.745098 0.133333 0.0745098
0.792157 0.172549 0.0352941
0.835294 0.207843 0.00392157
0.878431 0.243137 0
0.909804 0.27451 0
0.945098 0.294118 0
0.117647 0.196078 0.14902
0.133333 0.196078 0.145098
0.14902 0.188235 0.145098
0.172549 0.196078 0.141176
0.231373 0.203922 0.133333
0.301961 0.2 0.12549
0.372549 0.2 0.12549
0.458824 0.2 0.113725
0.537255 0.192157 0.105882
0.619608 0.196078 0.0941176
0.686275 0.203922 0.0745098
0.741176 0.219608 0.0431373
0.792157 0.243137 0
0.831373 0.270588 0
0.87451 0.298039 0
0.909804 0.317647 0
0.941176 0.337255 0
0.141176 0.25098 0.160784
0.145098 0.243137 0.156863
0.160784 0.235294 0.156863
0.176471 0.235294 0.152941
0.215686 0.25098 0.145098
0.290196 0.266667 0.133333
0.372549 0.270588 0.113725
0.458824 0.266667 0.101961
0.541176 0.27451 0.0901961
0.615686 0.270588 0.0745098
0.686275 0.286275 0.0352941
0.737255 0.298039 0
0.784314 0.317647 0
0.831373 0.337255 0.00392157
0.870588 0.356863 0
0.913725 0.376471 0
0.945098 0.388235 0
0.145098 0.301961 0.164706
0.152941 0.301961 0.164706
0.168627 0.290196 0.164706
0.188235 0.278431 0.168627
0.219608 0.298039 0.160784
0.282353 0.317647 0.14902
0.368627 0.341176 0.129412
0.458824 0.34902 0.101961
0.541176 0.34902 0.0784314
0.615686 0.352941 0.0117647
0.682353 0.364706 0.00392157
0.737255 0.372549 0
0.788235 0.388235 0
0.827451 0.4 0
0.870588 0.419608 0
0.909804 0.431373 0
0.937255 0.439216 0
0.156863 0.368627 0.172549
0.168627 0.364706 0.172549
0.184314 0.352941 0.176471
0.203922 0.341176 0.184314
0.235294 0.345098 0.184314
0.278431 0.364706 0.168627
0.34902 0.388235 0.14902
0.454902 0.419608 0.12549
0.537255 0.431373 0.0901961
0.611765 0.439216 0.0156863
0.67451 0.439216 0
0.733333 0.447059 0.00392157
0.784314 0.454902 0
0.823529 0.466667 0
0.870588 0.478431 0
0.909804 0.486275 0
0.941176 0.490196 0
0.180392 0.431373 0.192157
0.188235 0.427451 0.192157
0.203922 0.419608 0.192157
0.223529 0.407843 0.196078
0.247059 0.396078 0.196078
0.286275 0.415686 0.192157
0.341176 0.439216 0.180392
0.431373 0.466667 0.156863
0.533333 0.501961 0.117647
0.611765 0.509804 0.0784314
0.670588 0.513725 0
0.729412 0.517647 0
0.780392 0.517647 0
0.823529 0.52549 0
0.870588 0.533333 0.00392157
0.905882 0.541176 0
0.945098 0.541176 0
0.207843 0.494118 0.207843
0.211765 0.494118 0.207843
0.227451 0.486275 0.207843
0.247059 0.478431 0.219608
0.266667 0.462745 0.223529
0.301961 0.466667 0.215686
0.34902 0.490196 0.207843
0.415686 0.505882 0.184314
0.498039 0.533333 0.164706
0.6 0.556863 0.133333
0.670588 0.576471 0.0823529
0.72549 0.584314 0
0.772549 0.588235 0
0.819608 0.584314 0
0.862745 0.584314 0
0.905882 0.588235 0
0.945098 0.588235 0
0.235294 0.556863 0.227451
0.243137 0.552941 0.227451
0.254902 0.545098 0.235294
0.27451 0.541176 0.239216
0.290196 0.52549 0.243137
0.317647 0.517647 0.247059
0.360784 0.533333 0.239216
0.419608 0.552941 0.223529
0.490196 0.572549 0.207843
0.564706 0.592157 0.184314
0.65098 0.615686 0.14902
0.721569 0.635294 0.105882
0.772549 0.639216 0.0156863
0.815686 0.639216 0
0.862745 0.643137 0
0.905882 0.639216 0
0.945098 0.639216 0
0.27451 0.611765 0.254902
0.282353 0.615686 0.258824
0.294118 0.607843 0.266667
0.309804 0.6 0.266667
0.32549 0.588235 0.27451
0.34902 0.572549 0.27451
0.380392 0.580392 0.270588
0.431373 0.596078 0.258824
0.494118 0.615686 0.25098
0.560784 0.631373 0.231373
0.631373 0.647059 0.211765
0.701961 0.662745 0.176471
0.772549 0.686275 0.14902
0.815686 0.694118 0.0980392
0.858824 0.690196 0
0.909804 0.694118 0
0.945098 0.694118 0
0.32549 0.666667 0.294118
0.329412 0.662745 0.294118
0.337255 0.666667 0.298039
0.356863 0.654902 0.301961
0.372549 0.647059 0.301961
0.388235 0.639216 0.309804
0.411765 0.627451 0.309804
0.454902 0.643137 0.305882
0.509804 0.654902 0.290196
0.564706 0.666667 0.278431
0.623529 0.686275 0.266667
0.686275 0.698039 0.239216
0.74902 0.713725 0.215686
0.819608 0.733333 0.192157
0.862745 0.741176 0.152941
0.909804 0.737255 0.101961
0.945098 0.737255 0.00392157
0.380392 0.717647 0.337255
0.384314 0.713725 0.337255
0.396078 0.713725 0.341176
0.407843 0.705882 0.34902
0.415686 0.701961 0.34902
0.439216 0.690196 0.34902
0.454902 0.682353 0.352941
0.490196 0.686275 0.352941
0.529412 0.698039 0.345098
0.576471 0.709804 0.337255
0.631373 0.717647 0.321569
0.686275 0.733333 0.309804
0.737255 0.74902 0.290196
0.796078 0.760784 0.262745
0.858824 0.784314 0.243137
0.905882 0.788235 0.215686
0.945098 0.788235 0.180392
0.443137 0.764706 0.392157
0.447059 0.764706 0.392157
0.45098 0.764706 0.392157
0.466667 0.760784 0.403922
0.478431 0.752941 0.403922
0.494118 0.745098 0.403922
0.509804 0.737255 0.407843
0.529412 0.733333 0.411765
0.568627 0.741176 0.407843
0.607843 0.74902 0.396078
0.647059 0.760784 0.396078
0.694118 0.776471 0.380392
0.741176 0.784314 0.364706
0.788235 0.8 0.34902
0.843137 0.811765 0.321569
0.905882 0.827451 0.298039
0.945098 0.831373 0.286275
0.517647 0.815686 0.462745
0.517647 0.815686 0.462745
0.521569 0.811765 0.462745
0.52549 0.811765 0.462745
0.541176 0.807843 0.47451
0.552941 0.803922 0.47451
0.568627 0.792157 0.478431
0.584314 0.788235 0.486275
0.607843 0.792157 0.486275
0.635294 0.8 0.478431
0.67451 0.807843 0.470588
0.709804 0.823529 0.462745
0.752941 0.831373 0.45098
0.792157 0.839216 0.439216
0.835294 0.85098 0.419608
0.886275 0.862745 0.392157
0.945098 0.878431 0.376471
0.588235 0.870588 0.54902
0.588235 0.870588 0.54902
0.596078 0.866667 0.54902
0.6 0.866667 0.54902
0.611765 0.862745 0.552941
0.619608 0.858824 0.556863
0.635294 0.854902 0.564706
0.65098 0.854902 0.572549
0.666667 0.85098 0.580392
0.690196 0.858824 0.576471
0.717647 0.866667 0.572549
0.741176 0.87451 0.568627
0.772549 0.886275 0.560784
0.803922 0.894118 0.54902
0.843137 0.901961 0.537255
0.890196 0.909804 0.517647
0.929412 0.913725 0.494118
0.662745 0.92549 0.639216
0.662745 0.92549 0.639216
0.670588 0.921569 0.639216
0.670588 0.921569 0.639216
0.678431 0.917647 0.643137
0.690196 0.917647 0.647059
0.701961 0.913725 0.658824
0.713725 0.913725 0.666667
0.729412 0.909804 0.67451
0.74902 0.913725 0.67451
0.772549 0.921569 0.678431
0.792157 0.929412 0.67451
0.815686 0.937255 0.670588
0.847059 0.945098 0.670588
0.87451 0.952941 0.662745
0.905882 0.960784 0.65098
0.945098 0.964706 0.639216
0.0980392 0.109804 0.176471
0.113725 0.109804 0.180392
0.137255 0.101961 0.188235
0.184314 0.0941176 0.196078
0.223529 0.0901961 0.188235
0.294118 0.0509804 0.196078
0.372549 0 0.196078
0.458824 0 0.184314
0.545098 0 0.172549
0.627451 0 0.172549
0.690196 0 0.172549
0.74902 0 0.160784
0.792157 0 0.14902
0.839216 0.0745098 0.141176
0.878431 0.152941 0.133333
0.917647 0.207843 0.12549
0.945098 0.239216 0.113725
0.0980392 0.121569 0.176471
0.113725 0.12549 0.184314
0.137255 0.121569 0.180392
0.188235 0.121569 0.196078
0.223529 0.113725 0.192157
0.294118 0.0980392 0.196078
0.372549 0.0509804 0.192157
0.458824 0 0.176471
0.54902 0 0.164706
0.627451 0 0.172549
0.690196 0 0.160784
0.745098 0 0.156863
0.796078 0.0392157 0.152941
0.835294 0.133333 0.145098
0.878431 0.188235 0.129412
0.917647 0.231373 0.12549
