lut/Portra 800 ++.cube
#Generated by Picture Instruments - Look Creator
TITLE "Portra 800 ++"
LUT_3D_SIZE 5
0.105882 0.14902 0.188235
0.219608 0.152941 0.184314
0.486275 0.14902 0.180392
0.8 0.184314 0.14902
0.984314 0.301961 0.113725
0.137255 0.239216 0.203922
0.215686 0.258824 0.196078
0.478431 0.282353 0.176471
0.792157 0.337255 0.137255
0.980392 0.403922 0.0941176
0.203922 0.439216 0.235294
0.25098 0.435294 0.231373
0.478431 0.537255 0.180392
0.8 0.592157 0.0745098
0.976471 0.596078 0
0.337255 0.729412 0.286275
0.376471 0.721569 0.282353
0.509804 0.745098 0.258824
0.776471 0.807843 0.160784
0.992157 0.843137 0
0.643137 0.960784 0.54902
0.658824 0.956863 0.541176
0.729412 0.960784 0.552941
0.839216 0.976471 0.513725
0.968627 0.980392 0.360784
0.0941176 0.14902 0.301961
0.231373 0.141176 0.305882
0.505882 0 0.286275
0.815686 0.141176 0.298039
0.988235 0.305882 0.282353
0.152941 0.258824 0.286275
0.239216 0.266667 0.298039
0.501961 0.282353 0.286275
0.807843 0.321569 0.27451
0.984314 0.403922 0.266667
0.247059 0.490196 0.32549
0.294118 0.478431 0.313725
0.505882 0.54902 0.290196
0.796078 0.576471 0.235294
0.980392 0.596078 0.211765
0.364706 0.745098 0.364706
0.403922 0.741176 0.360784
0.52549 0.74902 0.345098
0.788235 0.815686 0.298039
0.988235 0.839216 0.192157
0.658824 0.964706 0.592157
0.678431 0.960784 0.592157
0.741176 0.960784 0.6
0.839216 0.976471 0.576471
0.972549 0.984314 0.447059
0.00392157 0.145098 0.615686
0.270588 0.121569 0.615686
0.564706 0 0.631373
0.823529 0 0.6
0.996078 0 0.529412
0 0.266667 0.572549
0.25098 0.270588 0.588235
0.560784 0.25098 0.611765
0.827451 0.2 0.584314
0.988235 0.352941 0.54902
0.262745 0.541176 0.54902
0.356863 0.556863 0.560784
0.564706 0.580392 0.576471
0.819608 0.611765 0.588235
0.972549 0.654902 0.592157
0.501961 0.788235 0.607843
0.541176 0.788235 0.603922
0.588235 0.772549 0.568627
0.8 0.819608 0.560784
0.984314 0.827451 0.513725
0.694118 0.964706 0.709804
0.709804 0.968627 0.709804
0.760784 0.964706 0.701961
0.85098 0.972549 0.701961
0.972549 0.984314 0.643137
0.180392 0.129412 0.858824
0.32549 0.105882 0.862745
0.580392 0 0.866667
0.827451 0 0.878431
0.972549 0 0.835294
0.172549 0.27451 0.843137
0.321569 0.27451 0.847059
0.580392 0.27451 0.854902
0.823529 0.301961 0.870588
0.972549 0.32549 0.831373
0.196078 0.537255 0.815686
0.329412 0.541176 0.815686
0.6 0.580392 0.839216
0.831373 0.631373 0.854902
0.968627 0.639216 0.835294
0.52549 0.815686 0.811765
0.576471 0.819608 0.815686
0.690196 0.823529 0.819608
0.839216 0.839216 0.831373
0.968627 0.858824 0.847059
0.776471 0.972549 0.866667
0.792157 0.972549 0.870588
0.831373 0.972549 0.870588
0.87451 0.972549 0.854902
0.968627 0.980392 0.839216
0.380392 0.207843 0.992157
0.454902 0.207843 0.992157
0.615686 0.211765 0.992157
0.807843 0.278431 0.992157
0.94902 0.356863 0.992157
0.411765 0.352941 0.992157
0.478431 0.356863 0.996078
0.631373 0.372549 0.992157
0.811765 0.435294 0.992157
0.952941 0.498039 0.996078
0.482353 0.6 0.992157
0.54902 0.611765 0.988235
0.682353 0.631373 0.988235
0.835294 0.670588 0.992157
0.952941 0.705882 0.984314
0.576471 0.823529 0.980392
0.611765 0.819608 0.984314
0.690196 0.815686 0.984314
0.85098 0.847059 0.980392
0.964706 0.870588 0.980392
0.784314 0.976471 0.976471
0.8 0.976471 0.980392
0.839216 0.976471 0.980392
0.909804 0.980392 0.980392
0.980392 0.980392 0.984314
