lut/Portra 160 ++.cube
#Generated by Picture Instruments - Look Creator
TITLE "Portra 160 ++"
LUT_3D_SIZE 5
0.137255 0.0980392 0.0941176
0.227451 0.0901961 0.0901961
0.494118 0 0.0705882
0.72549 0.0901961 0
0.905882 0.219608 0
0.168627 0.227451 0.101961
0.243137 0.243137 0.0941176
0.529412 0.286275 0
0.737255 0.305882 0
0.913725 0.352941 0
0.294118 0.494118 0.121569
0.333333 0.478431 0.113725
0.521569 0.537255 0.0941176
0.760784 0.580392 0
0.933333 0.564706 0
0.466667 0.721569 0.219608
0.490196 0.709804 0.211765
0.580392 0.717647 0.207843
0.752941 0.764706 0.25098
0.952941 0.819608 0.254902
0.690196 0.956863 0.501961
0.709804 0.956863 0.501961
0.756863 0.952941 0.509804
0.854902 0.968627 0.533333
0.964706 0.984314 0.580392
0.12549 0.101961 0.254902
0.243137 0.101961 0.258824
0.52549 0 0.270588
0.72549 0.0392157 0.254902
0.901961 0.231373 0.266667
0.164706 0.278431 0.258824
0.282353 0.278431 0.262745
0.537255 0.27451 0.25098
0.741176 0.294118 0.25098
0.909804 0.352941 0.258824
0.341176 0.545098 0.294118
0.376471 0.529412 0.282353
0.545098 0.556863 0.294118
0.768627 0.572549 0.239216
0.929412 0.560784 0.215686
0.498039 0.741176 0.360784
0.513725 0.72549 0.341176
0.584314 0.721569 0.329412
0.74902 0.768627 0.376471
0.952941 0.815686 0.376471
0.701961 0.956863 0.552941
0.717647 0.956863 0.54902
0.760784 0.952941 0.54902
0.858824 0.968627 0.572549
0.968627 0.984314 0.611765
0.0784314 0.133333 0.611765
0.286275 0.14902 0.611765
0.556863 0.196078 0.623529
0.776471 0.329412 0.611765
0.909804 0.392157 0.592157
0.188235 0.317647 0.588235
0.333333 0.337255 0.6
0.572549 0.384314 0.611765
0.768627 0.45098 0.611765
0.909804 0.454902 0.596078
0.372549 0.615686 0.596078
0.45098 0.615686 0.6
0.6 0.6 0.6
0.756863 0.584314 0.572549
0.917647 0.584314 0.564706
0.568627 0.796078 0.596078
0.592157 0.784314 0.6
0.635294 0.74902 0.568627
0.768627 0.780392 0.596078
0.956863 0.807843 0.576471
0.721569 0.964706 0.670588
0.729412 0.968627 0.666667
0.772549 0.960784 0.662745
0.858824 0.968627 0.666667
0.972549 0.984314 0.705882
0.298039 0.270588 0.827451
0.396078 0.294118 0.827451
0.584314 0.368627 0.831373
0.764706 0.462745 0.831373
0.921569 0.556863 0.831373
0.368627 0.415686 0.807843
0.447059 0.431373 0.811765
0.603922 0.486275 0.823529
0.772549 0.552941 0.831373
0.921569 0.619608 0.831373
0.443137 0.6 0.792157
0.509804 0.615686 0.8
0.643137 0.65098 0.811765
0.796078 0.694118 0.831373
0.933333 0.737255 0.839216
0.611765 0.843137 0.819608
0.635294 0.843137 0.819608
0.713725 0.831373 0.823529
0.819608 0.819608 0.819608
0.94902 0.803922 0.796078
0.760784 0.984314 0.823529
0.772549 0.984314 0.827451
0.803922 0.980392 0.827451
0.862745 0.976471 0.803922
0.976471 0.984314 0.831373
0.541176 0.521569 0.980392
0.584314 0.541176 0.984314
0.67451 0.584314 0.980392
0.796078 0.647059 0.980392
0.917647 0.690196 0.980392
0.588235 0.607843 0.976471
0.619608 0.615686 0.980392
0.698039 0.643137 0.976471
0.811765 0.686275 0.980392
0.921569 0.721569 0.980392
0.639216 0.721569 0.980392
0.662745 0.721569 0.976471
0.733333 0.741176 0.980392
0.839216 0.772549 0.984314
0.941176 0.8 0.980392
0.670588 0.843137 0.980392
0.690196 0.839216 0.980392
0.745098 0.839216 0.980392
0.862745 0.866667 0.984314
0.964706 0.898039 0.984314
0.788235 0.992157 0.984314
0.8 0.992157 0.988235
0.843137 0.992157 0.988235
0.917647 0.992157 0.988235
0.988235 0.992157 0.988235
