lut/Portra 160 ++.cube
#Generated by Picture Instruments - Look Creator
TITLE "Portra 160 ++"
LUT_3D_SIZE 17
0.137255 0.0980392 0.0941176
0.137255 0.0980392 0.0941176
0.156863 0.0941176 0.0941176
0.188235 0.0980392 0.0980392
0.227451 0.0901961 0.0901961
0.282353 0.0823529 0.0901961
0.34902 0.0666667 0.0823529
0.419608 0.0196078 0.0745098
0.494118 0 0.0705882
0.560784 0 0.0509804
0.627451 0 0.0313725
0.67451 0.027451 0.00784314
0.72549 0.0901961 0
0.772549 0.12549 0
0.819608 0.164706 0
0.866667 0.192157 0
0.905882 0.219608 0
0.137255 0.105882 0.0941176
0.141176 0.109804 0.0980392
0.164706 0.113725 0.0901961
0.196078 0.113725 0.0901961
0.235294 0.113725 0.0941176
0.286275 0.109804 0.0862745
0.352941 0.101961 0.0862745
0.427451 0.0941176 0.0784314
0.498039 0.0784314 0.0627451
0.564706 0.0784314 0.0470588
0.627451 0.0901961 0.0196078
0.678431 0.109804 0.00392157
0.729412 0.129412 0
0.776471 0.160784 0
0.823529 0.188235 0
0.866667 0.211765 0
0.905882 0.239216 0
0.145098 0.133333 0.0980392
0.152941 0.137255 0.0941176
0.164706 0.141176 0.0941176
0.196078 0.14902 0.0862745
0.243137 0.152941 0.0862745
0.298039 0.14902 0.0784314
0.364706 0.145098 0.0745098
0.435294 0.14902 0.0666667
0.501961 0.145098 0.0470588
0.568627 0.14902 0.0235294
0.631373 0.152941 0
0.682353 0.168627 0
0.733333 0.180392 0
0.780392 0.203922 0
0.823529 0.223529 0
0.866667 0.247059 0
0.905882 0.266667 0
0.156863 0.176471 0.0980392
0.160784 0.172549 0.0980392
0.168627 0.176471 0.0941176
0.192157 0.184314 0.0941176
0.247059 0.203922 0.0862745
0.305882 0.211765 0.0784314
0.376471 0.211765 0.0588235
0.443137 0.211765 0.0392157
0.513725 0.215686 0.0196078
0.576471 0.219608 0.00392157
0.635294 0.223529 0
0.686275 0.231373 0
0.733333 0.239216 0
0.780392 0.258824 0
0.823529 0.270588 0
0.870588 0.290196 0
0.905882 0.305882 0
0.168627 0.227451 0.101961
0.172549 0.227451 0.0980392
0.188235 0.223529 0.101961
0.211765 0.235294 0.101961
0.243137 0.243137 0.0941176
0.305882 0.27451 0.0823529
0.380392 0.286275 0.0588235
0.458824 0.286275 0
0.529412 0.286275 0
0.588235 0.290196 0
0.647059 0.290196 0.00392157
0.690196 0.298039 0
0.737255 0.305882 0
0.784314 0.317647 0.00392157
0.831373 0.32549 0
0.87451 0.341176 0.00392157
0.913725 0.352941 0
0.188235 0.290196 0.101961
0.196078 0.290196 0.105882
0.207843 0.282353 0.101961
0.227451 0.290196 0.101961
0.262745 0.301961 0.0980392
0.305882 0.317647 0.0901961
0.384314 0.356863 0.0745098
0.462745 0.372549 0.00392157
0.533333 0.368627 0
0.596078 0.364706 0
0.65098 0.364706 0
0.698039 0.364706 0
0.741176 0.368627 0
0.792157 0.372549 0
0.831373 0.384314 0.00392157
0.878431 0.392157 0
0.917647 0.403922 0
0.219608 0.360784 0.109804
0.223529 0.360784 0.105882
0.235294 0.352941 0.109804
0.25098 0.352941 0.105882
0.282353 0.364706 0.101961
0.32549 0.376471 0.0941176
0.380392 0.4 0.0862745
0.454902 0.431373 0.054902
0.537255 0.447059 0
0.603922 0.447059 0
0.65098 0.443137 0
0.709804 0.435294 0
0.74902 0.435294 0
0.796078 0.435294 0
0.839216 0.443137 0
0.878431 0.447059 0
0.921569 0.454902 0
0.254902 0.431373 0.113725
0.258824 0.427451 0.113725
0.262745 0.427451 0.109804
0.278431 0.415686 0.113725
0.301961 0.423529 0.109804
0.345098 0.439216 0.101961
0.396078 0.454902 0.0980392
0.454902 0.47451 0.0823529
0.529412 0.498039 0.0627451
0.6 0.521569 0
0.654902 0.521569 0
0.709804 0.513725 0
0.756863 0.505882 0
0.803922 0.501961 0
0.847059 0.505882 0
0.890196 0.509804 0
0.929412 0.509804 0
0.294118 0.494118 0.121569
0.294118 0.494118 0.121569
0.305882 0.490196 0.113725
0.313725 0.486275 0.113725
0.333333 0.478431 0.113725
0.368627 0.494118 0.113725
0.407843 0.505882 0.105882
0.458824 0.521569 0.101961
0.521569 0.537255 0.0941176
0.584314 0.560784 0.0901961
0.658824 0.588235 0.0156863
0.709804 0.588235 0
0.760784 0.580392 0
0.807843 0.572549 0
0.85098 0.568627 0
0.898039 0.564706 0.00392157
0.933333 0.564706 0
0.329412 0.552941 0.133333
0.333333 0.552941 0.133333
0.341176 0.54902 0.133333
0.352941 0.545098 0.133333
0.360784 0.537255 0.12549
0.388235 0.541176 0.12549
0.427451 0.552941 0.12549
0.47451 0.560784 0.12549
0.529412 0.580392 0.12549
0.584314 0.6 0.12549
0.639216 0.619608 0.12549
0.717647 0.647059 0.105882
0.764706 0.647059 0.0196078
0.811765 0.643137 0
0.854902 0.639216 0
0.901961 0.631373 0
0.945098 0.627451 0
0.372549 0.611765 0.152941
0.376471 0.607843 0.152941
0.380392 0.603922 0.152941
0.392157 0.603922 0.156863
0.407843 0.6 0.14902
0.415686 0.588235 0.145098
0.45098 0.596078 0.141176
0.498039 0.611765 0.14902
0.541176 0.623529 0.14902
0.592157 0.639216 0.152941
0.639216 0.658824 0.156863
0.694118 0.67451 0.164706
0.768627 0.705882 0.160784
0.815686 0.705882 0.133333
0.858824 0.701961 0.0745098
0.905882 0.698039 0
0.945098 0.698039 0
0.423529 0.666667 0.184314
0.423529 0.666667 0.184314
0.427451 0.662745 0.184314
0.431373 0.658824 0.176471
0.443137 0.654902 0.176471
0.458824 0.647059 0.168627
0.486275 0.647059 0.168627
0.517647 0.658824 0.172549
0.556863 0.670588 0.176471
0.6 0.682353 0.184314
0.647059 0.694118 0.192157
0.698039 0.709804 0.203922
0.745098 0.72549 0.215686
0.815686 0.760784 0.231373
0.862745 0.764706 0.2
0.905882 0.760784 0.168627
0.94902 0.756863 0.12549
0.466667 0.721569 0.219608
0.47451 0.717647 0.219608
0.47451 0.717647 0.219608
0.482353 0.713725 0.211765
0.490196 0.709804 0.211765
0.501961 0.705882 0.207843
0.517647 0.701961 0.2
0.54902 0.709804 0.207843
0.580392 0.717647 0.207843
0.623529 0.729412 0.223529
0.662745 0.741176 0.227451
0.705882 0.74902 0.239216
0.752941 0.764706 0.25098
0.796078 0.776471 0.266667
0.862745 0.811765 0.298039
0.909804 0.819608 0.278431
0.952941 0.819608 0.254902
0.517647 0.772549 0.262745
0.517647 0.772549 0.262745
0.529412 0.776471 0.266667
0.533333 0.772549 0.262745
0.533333 0.764706 0.258824
0.545098 0.760784 0.25098
0.556863 0.756863 0.243137
0.580392 0.760784 0.243137
0.611765 0.768627 0.25098
0.647059 0.776471 0.262745
0.682353 0.788235 0.27451
0.721569 0.8 0.286275
0.764706 0.807843 0.298039
0.8 0.819608 0.313725
0.847059 0.835294 0.329412
0.909804 0.858824 0.356863
0.956863 0.870588 0.356863
0.572549 0.835294 0.329412
0.576471 0.835294 0.329412
0.580392 0.835294 0.333333
0.584314 0.831373 0.321569
0.592157 0.831373 0.321569
0.603922 0.827451 0.321569
0.611765 0.823529 0.313725
0.623529 0.819608 0.305882
0.65098 0.827451 0.313725
0.682353 0.835294 0.329412
0.713725 0.843137 0.333333
0.745098 0.85098 0.345098
0.784314 0.858824 0.356863
0.823529 0.870588 0.372549
0.858824 0.878431 0.384314
0.901961 0.886275 0.396078
0.945098 0.898039 0.419608
0.631373 0.901961 0.411765
0.639216 0.898039 0.411765
0.639216 0.898039 0.411765
0.643137 0.894118 0.411765
0.654902 0.898039 0.407843
0.658824 0.894118 0.407843
0.67451 0.894118 0.403922
0.686275 0.890196 0.396078
0.698039 0.890196 0.396078
0.733333 0.898039 0.411765
0.752941 0.905882 0.415686
0.784314 0.909804 0.427451
0.815686 0.917647 0.435294
0.85098 0.921569 0.45098
0.886275 0.929412 0.458824
0.921569 0.933333 0.47451
0.945098 0.933333 0.47451
0.690196 0.956863 0.501961
0.698039 0.952941 0.501961
0.698039 0.952941 0.501961
0.705882 0.952941 0.501961
0.709804 0.956863 0.501961
0.721569 0.952941 0.505882
0.733333 0.952941 0.501961
0.745098 0.94902 0.501961
0.756863 0.952941 0.509804
0.784314 0.956863 0.509804
0.803922 0.960784 0.517647
0.831373 0.964706 0.529412
0.854902 0.968627 0.533333
0.882353 0.972549 0.545098
0.913725 0.980392 0.560784
0.941176 0.984314 0.572549
0.964706 0.984314 0.580392
0.133333 0.0980392 0.101961
0.137255 0.0980392 0.101961
0.156863 0.0980392 0.109804
0.188235 0.0901961 0.105882
0.231373 0.0862745 0.113725
0.282353 0.0784314 0.109804
0.34902 0.054902 0.105882
0.419608 0 0.101961
0.498039 0 0.0980392
0.560784 0 0.0941176
0.623529 0 0.0862745
0.678431 0 0.0784314
0.729412 0.0823529 0.0745098
0.772549 0.121569 0.0588235
0.819608 0.160784 0.054902
0.870588 0.196078 0.054902
0.901961 0.223529 0.0588235
0.133333 0.113725 0.101961
0.141176 0.109804 0.101961
0.168627 0.113725 0.109804
0.196078 0.113725 0.109804
0.231373 0.109804 0.101961
0.290196 0.105882 0.105882
0.352941 0.0980392 0.105882
0.423529 0.0862745 0.0980392
0.498039 0.0705882 0.0941176
0.564706 0.0705882 0.0862745
0.627451 0.0784314 0.0823529
0.678431 0.101961 0.0745098
0.72549 0.12549 0.0627451
0.776471 0.156863 0.0509804
0.823529 0.184314 0.0470588
0.870588 0.215686 0.0509804
0.909804 0.239216 0.0588235
0.141176 0.141176 0.109804
0.152941 0.141176 0.113725
0.168627 0.141176 0.109804
0.203922 0.14902 0.105882
0.247059 0.145098 0.101961
0.298039 0.145098 0.105882
0.368627 0.145098 0.101961
0.435294 0.145098 0.0941176
0.505882 0.137255 0.0901961
0.576471 0.145098 0.0862745
0.627451 0.14902 0.0705882
0.678431 0.160784 0.0627451
0.729412 0.180392 0.0509804
0.776471 0.2 0.0352941
0.827451 0.219608 0.0313725
0.870588 0.247059 0.0313725
0.905882 0.266667 0.0431373
0.156863 0.184314 0.121569
0.164706 0.180392 0.113725
0.176471 0.180392 0.117647
0.2 0.188235 0.113725
0.25098 0.203922 0.109804
0.309804 0.203922 0.0980392
0.376471 0.203922 0.0901961
0.447059 0.207843 0.0862745
0.517647 0.207843 0.0784314
0.580392 0.211765 0.0705882
0.639216 0.219608 0.054902
0.686275 0.223529 0.0352941
0.733333 0.235294 0.0196078
0.780392 0.25098 0
0.831373 0.270588 0.00392157
0.866667 0.286275 0
0.905882 0.305882 0.00784314
0.176471 0.235294 0.121569
0.180392 0.235294 0.121569
0.188235 0.227451 0.121569
0.211765 0.239216 0.117647
0.25098 0.25098 0.117647
0.313725 0.278431 0.105882
0.388235 0.286275 0.0941176
0.462745 0.286275 0.0666667
0.52549 0.282353 0.0392157
0.588235 0.286275 0.0196078
0.643137 0.286275 0
0.694118 0.294118 0
0.741176 0.301961 0.00392157
0.788235 0.313725 0.00392157
0.831373 0.32549 0
0.870588 0.337255 0
0.913725 0.34902 0
0.196078 0.301961 0.12549
0.2 0.301961 0.121569
0.211765 0.294118 0.12549
0.231373 0.298039 0.121569
0.262745 0.309804 0.121569
0.313725 0.32549 0.117647
0.392157 0.360784 0.105882
0.470588 0.368627 0.0745098
0.537255 0.368627 0.00784314
0.6 0.360784 0
0.654902 0.360784 0
0.698039 0.364706 0
0.74902 0.368627 0
0.792157 0.372549 0
0.831373 0.384314 0.00392157
0.878431 0.392157 0
0.917647 0.403922 0
0.227451 0.368627 0.12549
0.231373 0.364706 0.12549
0.239216 0.360784 0.12549
0.254902 0.352941 0.12549
0.286275 0.368627 0.117647
0.32549 0.384314 0.117647
0.388235 0.403922 0.113725
0.462745 0.435294 0.0901961
0.537255 0.447059 0.0470588
0.603922 0.447059 0
0.658824 0.439216 0
0.709804 0.435294 0
0.756863 0.435294 0.00392157
0.796078 0.435294 0
0.839216 0.443137 0
0.882353 0.45098 0
0.921569 0.454902 0
0.254902 0.439216 0.12549
0.262745 0.435294 0.12549
0.270588 0.431373 0.12549
0.282353 0.427451 0.12549
0.305882 0.427451 0.129412
0.34902 0.439216 0.121569
0.396078 0.458824 0.113725
0.454902 0.47451 0.113725
0.533333 0.501961 0.101961
0.603922 0.521569 0.054902
0.662745 0.517647 0
0.709804 0.513725 0
0.756863 0.505882 0
0.803922 0.501961 0
0.847059 0.505882 0
0.886275 0.505882 0
0.929412 0.509804 0
0.294118 0.501961 0.141176
0.301961 0.501961 0.137255
0.305882 0.498039 0.137255
0.317647 0.494118 0.137255
0.329412 0.482353 0.133333
0.372549 0.494118 0.129412
0.411765 0.505882 0.129412
0.466667 0.52549 0.129412
0.517647 0.541176 0.12549
0.588235 0.560784 0.121569
0.662745 0.584314 0.0941176
0.709804 0.588235 0
0.760784 0.580392 0
0.807843 0.572549 0
0.847059 0.564706 0
0.898039 0.564706 0.00392157
0.933333 0.564706 0
0.337255 0.560784 0.156863
0.337255 0.560784 0.156863
0.345098 0.552941 0.156863
0.356863 0.54902 0.14902
0.364706 0.541176 0.145098
0.392157 0.541176 0.145098
0.431373 0.552941 0.145098
0.478431 0.568627 0.145098
0.529412 0.584314 0.14902
0.580392 0.6 0.145098
0.643137 0.619608 0.14902
0.717647 0.65098 0.141176
0.760784 0.647059 0.0980392
0.811765 0.643137 0
0.854902 0.639216 0
0.901961 0.627451 0
0.945098 0.627451 0
0.380392 0.615686 0.172549
0.384314 0.611765 0.172549
0.388235 0.607843 0.172549
0.396078 0.607843 0.168627
0.407843 0.603922 0.168627
0.419608 0.588235 0.164706
0.454902 0.6 0.160784
0.494118 0.611765 0.164706
0.545098 0.627451 0.168627
0.592157 0.643137 0.176471
0.643137 0.658824 0.184314
0.694118 0.670588 0.184314
0.764706 0.709804 0.196078
0.811765 0.705882 0.160784
0.858824 0.701961 0.117647
0.901961 0.698039 0.0235294
0.945098 0.694118 0
0.419608 0.670588 0.2
0.427451 0.666667 0.2
0.431373 0.662745 0.2
0.435294 0.662745 0.192157
0.447059 0.654902 0.192157
0.462745 0.65098 0.188235
0.490196 0.65098 0.188235
0.521569 0.658824 0.188235
0.560784 0.670588 0.196078
0.603922 0.682353 0.2
0.65098 0.698039 0.211765
0.698039 0.717647 0.223529
0.745098 0.72549 0.231373
0.819608 0.764706 0.25098
0.866667 0.764706 0.227451
0.909804 0.760784 0.192157
0.94902 0.760784 0.156863
0.470588 0.721569 0.239216
0.470588 0.721569 0.239216
0.478431 0.721569 0.231373
0.482353 0.717647 0.231373
0.494118 0.713725 0.223529
0.501961 0.705882 0.219608
0.517647 0.698039 0.211765
0.552941 0.709804 0.227451
0.584314 0.721569 0.227451
0.623529 0.72549 0.235294
0.658824 0.741176 0.243137
0.705882 0.752941 0.258824
0.74902 0.768627 0.266667
0.796078 0.780392 0.286275
0.862745 0.811765 0.309804
0.913725 0.819608 0.294118
0.952941 0.815686 0.266667
0.52549 0.780392 0.286275
0.521569 0.776471 0.282353
0.529412 0.772549 0.27451
0.533333 0.772549 0.27451
0.537255 0.768627 0.266667
0.54902 0.764706 0.266667
0.560784 0.760784 0.262745
0.584314 0.760784 0.262745
0.611765 0.764706 0.266667
0.65098 0.776471 0.278431
0.682353 0.784314 0.286275
0.72549 0.8 0.301961
0.760784 0.807843 0.313725
0.803922 0.823529 0.329412
0.847059 0.831373 0.341176
0.905882 0.862745 0.368627
0.952941 0.870588 0.368627
0.576471 0.835294 0.341176
0.576471 0.835294 0.341176
0.580392 0.835294 0.341176
0.592157 0.835294 0.337255
0.592157 0.831373 0.333333
0.596078 0.827451 0.32549
0.607843 0.823529 0.321569
0.623529 0.815686 0.313725
0.65098 0.827451 0.329412
0.682353 0.835294 0.337255
0.717647 0.843137 0.345098
0.74902 0.85098 0.352941
0.784314 0.858824 0.368627
0.823529 0.870588 0.384314
0.862745 0.878431 0.396078
0.901961 0.882353 0.411765
0.94902 0.901961 0.431373
0.631373 0.898039 0.415686
0.639216 0.898039 0.415686
0.639216 0.898039 0.415686
0.647059 0.898039 0.415686
0.654902 0.898039 0.415686
0.658824 0.894118 0.415686
0.67451 0.894118 0.411765
0.686275 0.890196 0.403922
0.701961 0.894118 0.403922
0.72549 0.898039 0.415686
0.752941 0.901961 0.423529
0.784314 0.905882 0.435294
0.815686 0.913725 0.443137
0.85098 0.921569 0.458824
0.886275 0.929412 0.466667
0.921569 0.933333 0.482353
0.94902 0.937255 0.486275
0.690196 0.956863 0.501961
0.698039 0.952941 0.501961
0.701961 0.956863 0.505882
0.705882 0.956863 0.505882
0.709804 0.956863 0.505882
0.717647 0.952941 0.505882
0.733333 0.952941 0.509804
0.745098 0.952941 0.513725
0.756863 0.952941 0.505882
0.784314 0.956863 0.517647
0.807843 0.960784 0.529412
0.831373 0.964706 0.529412
0.854902 0.968627 0.541176
0.882353 0.972549 0.552941
0.913725 0.980392 0.560784
0.941176 0.984314 0.572549
0.964706 0.984314 0.580392
0.137255 0.0980392 0.133333
0.145098 0.0980392 0.137255
0.160784 0.0980392 0.137255
0.188235 0.0980392 0.137255
0.235294 0.0901961 0.137255
0.290196 0.0784314 0.141176
0.352941 0.0235294 0.137255
0.427451 0 0.145098
0.498039 0 0.137255
0.564706 0 0.137255
0.623529 0 0.129412
0.682353 0 0.129412
0.729412 0.0588235 0.121569
0.776471 0.117647 0.117647
0.823529 0.152941 0.121569
0.866667 0.196078 0.12549
0.905882 0.223529 0.12549
0.133333 0.113725 0.137255
0.145098 0.117647 0.145098
0.160784 0.117647 0.141176
0.196078 0.121569 0.145098
0.235294 0.113725 0.137255
0.290196 0.105882 0.145098
0.356863 0.0941176 0.141176
0.427451 0.0745098 0.141176
0.501961 0.0392157 0.133333
0.568627 0.027451 0.129412
0.627451 0.0509804 0.12549
0.678431 0.0862745 0.121569
0.729412 0.117647 0.121569
0.780392 0.14902 0.117647
0.819608 0.180392 0.117647
0.862745 0.211765 0.117647
0.905882 0.235294 0.12549
0.141176 0.14902 0.137255
0.152941 0.14902 0.141176
0.168627 0.14902 0.137255
0.203922 0.14902 0.145098
0.247059 0.145098 0.141176
0.301961 0.145098 0.145098
0.368627 0.141176 0.137255
0.435294 0.137255 0.137255
0.505882 0.129412 0.133333
0.572549 0.133333 0.12549
0.631373 0.141176 0.12549
0.682353 0.156863 0.121569
0.733333 0.172549 0.117647
0.780392 0.196078 0.117647
0.823529 0.219608 0.117647
0.866667 0.243137 0.117647
0.905882 0.262745 0.117647
0.160784 0.192157 0.141176
0.168627 0.192157 0.145098
0.184314 0.192157 0.145098
0.207843 0.192157 0.145098
0.254902 0.203922 0.137255
0.313725 0.2 0.129412
0.380392 0.203922 0.129412
0.447059 0.2 0.129412
0.517647 0.2 0.117647
0.580392 0.207843 0.121569
0.639216 0.215686 0.113725
0.690196 0.219608 0.113725
0.737255 0.231373 0.105882
0.784314 0.247059 0.105882
0.827451 0.266667 0.109804
0.866667 0.286275 0.105882
0.909804 0.301961 0.113725
0.180392 0.25098 0.14902
0.188235 0.25098 0.14902
0.2 0.247059 0.14902
0.223529 0.243137 0.152941
0.254902 0.254902 0.145098
0.317647 0.278431 0.137255
0.392157 0.282353 0.12549
0.462745 0.278431 0.113725
0.529412 0.278431 0.105882
0.588235 0.282353 0.101961
0.643137 0.286275 0.101961
0.690196 0.290196 0.0980392
0.745098 0.298039 0.0941176
0.784314 0.305882 0.0941176
0.831373 0.321569 0.0941176
0.870588 0.337255 0.0941176
0.913725 0.34902 0.101961
0.203922 0.313725 0.152941
0.207843 0.313725 0.152941
0.223529 0.309804 0.156863
0.239216 0.301961 0.14902
0.270588 0.313725 0.14902
0.321569 0.333333 0.14902
0.396078 0.360784 0.137255
0.466667 0.368627 0.117647
0.541176 0.364706 0.101961
0.603922 0.356863 0.0784314
0.65098 0.360784 0.0745098
0.698039 0.360784 0.0745098
0.745098 0.360784 0.0666667
0.792157 0.372549 0.0666667
0.831373 0.380392 0.0666667
0.882353 0.392157 0.0784314
0.913725 0.4 0.0784314
0.231373 0.384314 0.160784
0.235294 0.384314 0.160784
0.247059 0.376471 0.152941
0.262745 0.368627 0.152941
0.294118 0.376471 0.152941
0.333333 0.388235 0.14902
0.388235 0.407843 0.14902
0.47451 0.447059 0.141176
0.545098 0.45098 0.113725
0.603922 0.443137 0.0901961
0.658824 0.435294 0.0313725
0.705882 0.431373 0
0.752941 0.431373 0
0.796078 0.435294 0
0.839216 0.439216 0.00392157
0.882353 0.443137 0.0117647
0.917647 0.454902 0.0392157
0.262745 0.45098 0.160784
0.270588 0.45098 0.164706
0.282353 0.447059 0.164706
0.298039 0.439216 0.164706
0.317647 0.435294 0.160784
0.352941 0.447059 0.156863
0.407843 0.462745 0.152941
0.466667 0.482353 0.152941
0.537255 0.509804 0.152941
0.607843 0.521569 0.12549
0.662745 0.517647 0.0980392
0.709804 0.505882 0.027451
0.756863 0.501961 0
0.803922 0.501961 0
0.847059 0.505882 0
0.890196 0.509804 0
0.929412 0.509804 0
0.298039 0.509804 0.172549
0.305882 0.509804 0.176471
0.317647 0.505882 0.168627
0.329412 0.501961 0.168627
0.341176 0.490196 0.164706
0.372549 0.498039 0.164706
0.415686 0.509804 0.164706
0.466667 0.52549 0.160784
0.52549 0.541176 0.168627
0.596078 0.564706 0.168627
0.666667 0.588235 0.145098
0.709804 0.584314 0.117647
0.764706 0.580392 0.0705882
0.807843 0.572549 0
0.854902 0.560784 0
0.898039 0.564706 0.00392157
0.937255 0.564706 0.00392157
0.341176 0.564706 0.184314
0.345098 0.564706 0.184314
0.34902 0.560784 0.184314
0.360784 0.556863 0.176471
0.376471 0.54902 0.176471
0.4 0.545098 0.172549
0.439216 0.556863 0.180392
0.482353 0.568627 0.176471
0.533333 0.580392 0.180392
0.592157 0.603922 0.192157
0.647059 0.623529 0.192157
0.713725 0.647059 0.184314
0.760784 0.647059 0.152941
0.811765 0.647059 0.121569
0.858824 0.635294 0.0431373
0.901961 0.627451 0
0.941176 0.619608 0
0.388235 0.619608 0.203922
0.388235 0.619608 0.203922
0.392157 0.615686 0.203922
0.403922 0.611765 0.196078
0.415686 0.607843 0.196078
0.427451 0.592157 0.192157
0.458824 0.603922 0.192157
0.501961 0.615686 0.2
0.541176 0.627451 0.2
0.596078 0.643137 0.211765
0.643137 0.658824 0.215686
0.698039 0.67451 0.227451
0.768627 0.705882 0.227451
0.811765 0.705882 0.2
0.854902 0.701961 0.164706
0.901961 0.698039 0.12549
0.941176 0.694118 0.0392157
0.427451 0.67451 0.227451
0.439216 0.67451 0.231373
0.439216 0.666667 0.227451
0.443137 0.666667 0.223529
0.454902 0.658824 0.223529
0.462745 0.65098 0.211765
0.482353 0.647059 0.207843
0.52549 0.658824 0.215686
0.560784 0.67451 0.219608
0.607843 0.686275 0.235294
0.65098 0.698039 0.243137
0.698039 0.709804 0.25098
0.74902 0.729412 0.266667
0.819608 0.764706 0.282353
0.862745 0.764706 0.258824
0.909804 0.760784 0.223529
0.945098 0.760784 0.196078
0.478431 0.72549 0.266667
0.478431 0.72549 0.266667
0.486275 0.72549 0.258824
0.490196 0.721569 0.258824
0.501961 0.717647 0.25098
0.509804 0.709804 0.247059
0.517647 0.705882 0.243137
0.54902 0.709804 0.239216
0.584314 0.717647 0.247059
0.619608 0.729412 0.262745
0.662745 0.741176 0.266667
0.709804 0.752941 0.282353
0.752941 0.768627 0.298039
0.8 0.780392 0.309804
0.858824 0.811765 0.333333
0.909804 0.819608 0.317647
0.94902 0.819608 0.298039
0.52549 0.784314 0.301961
0.52549 0.780392 0.301961
0.52549 0.776471 0.298039
0.537255 0.780392 0.298039
0.541176 0.768627 0.294118
0.552941 0.764706 0.286275
0.564706 0.760784 0.278431
0.580392 0.760784 0.27451
0.611765 0.768627 0.286275
0.643137 0.776471 0.294118
0.682353 0.788235 0.305882
0.721569 0.8 0.317647
0.768627 0.811765 0.333333
0.807843 0.823529 0.34902
0.85098 0.831373 0.360784
0.909804 0.862745 0.392157
0.952941 0.870588 0.388235
0.580392 0.839216 0.356863
0.580392 0.839216 0.356863
0.584314 0.835294 0.356863
0.584314 0.835294 0.352941
0.596078 0.831373 0.352941
0.603922 0.831373 0.34902
0.615686 0.827451 0.341176
0.627451 0.823529 0.333333
0.654902 0.827451 0.341176
0.682353 0.831373 0.352941
0.717647 0.843137 0.360784
0.74902 0.85098 0.368627
0.788235 0.858824 0.388235
0.823529 0.866667 0.396078
0.862745 0.878431 0.407843
0.898039 0.886275 0.427451
0.94902 0.905882 0.45098
0.635294 0.901961 0.435294
0.635294 0.901961 0.435294
0.643137 0.898039 0.427451
0.647059 0.898039 0.427451
0.654902 0.894118 0.427451
0.662745 0.894118 0.423529
0.67451 0.890196 0.419608
0.682353 0.894118 0.423529
0.701961 0.890196 0.419608
0.72549 0.898039 0.423529
0.752941 0.901961 0.435294
0.788235 0.909804 0.443137
0.819608 0.917647 0.458824
0.847059 0.921569 0.466667
0.886275 0.92549 0.478431
0.917647 0.933333 0.490196
0.94902 0.933333 0.501961
0.694118 0.960784 0.513725
0.694118 0.960784 0.513725
0.701961 0.956863 0.513725
0.705882 0.956863 0.513725
0.709804 0.952941 0.513725
0.721569 0.952941 0.517647
0.733333 0.94902 0.513725
0.741176 0.952941 0.517647
0.760784 0.952941 0.517647
0.776471 0.956863 0.52549
0.807843 0.960784 0.537255
0.827451 0.968627 0.541176
0.854902 0.968627 0.54902
0.886275 0.976471 0.560784
0.913725 0.980392 0.568627
0.941176 0.984314 0.580392
0.968627 0.988235 0.592157
0.133333 0.101961 0.184314
0.145098 0.0980392 0.184314
0.160784 0.101961 0.184314
0.192157 0.0980392 0.184314
0.235294 0.0980392 0.192157
0.298039 0.0901961 0.192157
0.368627 0.0509804 0.2
0.439216 0 0.196078
0.505882 0 0.188235
0.568627 0 0.180392
0.627451 0 0.188235
0.678431 0 0.188235
0.729412 0.027451 0.184314
0.780392 0.109804 0.184314
0.823529 0.152941 0.184314
0.866667 0.192157 0.192157
0.905882 0.223529 0.196078
0.133333 0.121569 0.188235
0.14902 0.121569 0.188235
0.168627 0.121569 0.188235
0.196078 0.12549 0.188235
0.243137 0.121569 0.192157
0.301961 0.117647 0.196078
0.368627 0.0980392 0.196078
0.439216 0.0509804 0.188235
0.509804 0 0.188235
0.572549 0 0.192157
0.627451 0 0.188235
0.682353 0.0666667 0.180392
0.729412 0.105882 0.184314
0.776471 0.141176 0.184314
0.823529 0.180392 0.184314
0.866667 0.211765 0.188235
