lut/Portra 400 ++.cube
#Generated by Picture Instruments - Look Creator
TITLE "Portra 400 ++"
LUT_3D_SIZE 5
0.101961 0.105882 0.0862745
0.211765 0.101961 0.0862745
0.529412 0 0.0235294
0.788235 0.0509804 0
0.941176 0.254902 0
0.117647 0.211765 0.109804
0.207843 0.235294 0.101961
0.537255 0.27451 0
0.784314 0.329412 0.00392157
0.937255 0.392157 0
0.188235 0.470588 0.172549
0.243137 0.443137 0.184314
0.490196 0.52549 0.105882
0.768627 0.584314 0
0.941176 0.592157 0
0.368627 0.713725 0.313725
0.403922 0.694118 0.321569
0.521569 0.694118 0.313725
0.737255 0.745098 0.247059
0.945098 0.788235 0.113725
0.658824 0.921569 0.631373
0.678431 0.917647 0.639216
0.733333 0.905882 0.67451
0.815686 0.937255 0.662745
0.941176 0.960784 0.627451
0.0862745 0.109804 0.243137
0.258824 0.0745098 0.27451
0.556863 0 0.266667
0.8 0 0.247059
0.945098 0.243137 0.219608
0.113725 0.270588 0.254902
0.254902 0.27451 0.258824
0.560784 0.266667 0.243137
0.788235 0.309804 0.219608
0.94902 0.380392 0.2
0.266667 0.552941 0.313725
0.321569 0.521569 0.301961
0.52549 0.545098 0.282353
0.776471 0.584314 0.184314
0.941176 0.588235 0.129412
0.411765 0.733333 0.403922
0.45098 0.721569 0.407843
0.541176 0.701961 0.403922
0.745098 0.752941 0.372549
0.945098 0.788235 0.294118
0.666667 0.929412 0.647059
0.682353 0.92549 0.658824
0.737255 0.913725 0.690196
0.819608 0.937255 0.690196
0.941176 0.968627 0.662745
0 0.121569 0.580392
0.305882 0.0588235 0.611765
0.654902 0 0.67451
0.811765 0.00392157 0.643137
0.945098 0.243137 0.596078
0.0352941 0.286275 0.537255
0.278431 0.286275 0.576471
0.643137 0.321569 0.654902
0.803922 0.341176 0.631373
0.945098 0.411765 0.596078
0.254902 0.611765 0.592157
0.392157 0.611765 0.6
0.615686 0.615686 0.607843
0.788235 0.611765 0.592157
0.937255 0.615686 0.576471
0.541176 0.8 0.643137
0.584314 0.788235 0.639216
0.623529 0.745098 0.611765
0.756863 0.768627 0.6
0.945098 0.784314 0.545098
0.690196 0.945098 0.72549
0.698039 0.945098 0.721569
0.74902 0.937255 0.737255
0.831373 0.941176 0.74902
0.945098 0.968627 0.733333
0.262745 0.164706 0.8
0.407843 0.14902 0.815686
0.654902 0.176471 0.847059
0.847059 0.317647 0.87451
0.945098 0.388235 0.831373
0.247059 0.321569 0.784314
0.4 0.329412 0.792157
0.643137 0.392157 0.831373
0.839216 0.486275 0.862745
0.937255 0.509804 0.831373
0.247059 0.54902 0.721569
0.368627 0.556863 0.737255
0.619608 0.607843 0.792157
0.839216 0.686275 0.858824
0.941176 0.678431 0.839216
0.517647 0.807843 0.803922
0.568627 0.807843 0.811765
0.67451 0.807843 0.811765
0.819608 0.819608 0.823529
0.94902 0.807843 0.811765
0.701961 0.980392 0.847059
0.721569 0.976471 0.847059
0.788235 0.972549 0.847059
0.85098 0.952941 0.839216
0.956863 0.972549 0.843137
0.521569 0.423529 0.968627
0.572549 0.435294 0.972549
0.682353 0.462745 0.976471
0.831373 0.529412 0.984314
0.952941 0.572549 0.984314
0.537255 0.521569 0.960784
0.588235 0.529412 0.968627
0.694118 0.552941 0.968627
0.831373 0.603922 0.976471
0.956863 0.635294 0.980392
0.560784 0.666667 0.956863
0.592157 0.662745 0.960784
0.694118 0.678431 0.968627
0.843137 0.717647 0.980392
0.960784 0.74902 0.976471
0.568627 0.807843 0.952941
0.596078 0.807843 0.956863
0.662745 0.8 0.956863
0.827451 0.819608 0.972549
0.964706 0.87451 0.976471
0.670588 0.984314 0.980392
0.694118 0.984314 0.980392
0.764706 0.984314 0.984314
0.866667 0.984314 0.980392
0.976471 0.980392 0.980392
