lut/Portra 400 ++.cube
#Generated by Picture Instruments - Look Creator
TITLE "Portra 400 ++"
LUT_3D_SIZE 9
0.101961 0.105882 0.0862745
0.12549 0.105882 0.0901961
0.211765 0.101961 0.0862745
0.352941 0.0666667 0.0784314
0.529412 0 0.0235294
0.682353 0 0.00392157
0.788235 0.0509804 0
0.87451 0.192157 0
0.941176 0.254902 0
0.105882 0.137255 0.0941176
0.129412 0.145098 0.0901961
0.219608 0.152941 0.0823529
0.356863 0.14902 0.0666667
0.529412 0.12549 0
0.678431 0.129412 0
0.784314 0.188235 0
0.870588 0.25098 0
0.941176 0.301961 0
0.117647 0.211765 0.109804
0.137255 0.207843 0.113725
0.207843 0.235294 0.101961
0.356863 0.270588 0.0470588
0.537255 0.27451 0
0.67451 0.290196 0
0.784314 0.329412 0.00392157
0.870588 0.364706 0.00392157
0.937255 0.392157 0
0.145098 0.333333 0.137255
0.168627 0.321569 0.145098
0.215686 0.333333 0.137255
0.333333 0.376471 0.105882
0.529412 0.427451 0
0.666667 0.443137 0
0.776471 0.458824 0
0.866667 0.482353 0
0.941176 0.498039 0
0.188235 0.470588 0.172549
0.203922 0.462745 0.180392
0.243137 0.443137 0.184314
0.333333 0.478431 0.164706
0.490196 0.52549 0.105882
0.666667 0.568627 0
0.768627 0.584314 0
0.862745 0.588235 0
0.941176 0.592157 0
0.258824 0.6 0.227451
0.27451 0.592157 0.231373
0.305882 0.572549 0.239216
0.368627 0.576471 0.231373
0.482353 0.611765 0.203922
0.627451 0.643137 0.160784
0.768627 0.682353 0.00784314
0.858824 0.690196 0
0.941176 0.690196 0
0.368627 0.713725 0.313725
0.376471 0.709804 0.313725
0.403922 0.694118 0.321569
0.443137 0.670588 0.329412
0.521569 0.694118 0.313725
0.631373 0.717647 0.290196
0.737255 0.745098 0.247059
0.858824 0.780392 0.188235
0.945098 0.788235 0.113725
0.513725 0.811765 0.454902
0.513725 0.807843 0.45098
0.533333 0.803922 0.454902
0.564706 0.792157 0.462745
0.603922 0.792157 0.466667
0.670588 0.807843 0.454902
0.74902 0.831373 0.435294
0.839216 0.85098 0.392157
0.945098 0.87451 0.345098
0.658824 0.921569 0.631373
0.666667 0.921569 0.627451
0.678431 0.917647 0.639216
0.701961 0.909804 0.647059
0.733333 0.905882 0.67451
0.764706 0.921569 0.670588
0.815686 0.937255 0.662745
0.87451 0.956863 0.654902
0.941176 0.960784 0.627451
0.105882 0.109804 0.129412
0.141176 0.101961 0.137255
0.219608 0.0862745 0.141176
0.364706 0 0.129412
0.537255 0 0.117647
0.682353 0 0.0980392
0.792157 0 0.0627451
0.878431 0.168627 0
0.945098 0.247059 0
0.105882 0.152941 0.137255
0.145098 0.152941 0.141176
0.227451 0.152941 0.137255
0.368627 0.141176 0.129412
0.537255 0.105882 0.109804
0.686275 0.105882 0.0901961
0.792157 0.172549 0.0352941
0.878431 0.243137 0
0.945098 0.294118 0
0.141176 0.25098 0.160784
0.160784 0.235294 0.156863
0.215686 0.25098 0.145098
0.372549 0.270588 0.113725
0.541176 0.27451 0.0901961
0.686275 0.286275 0.0352941
0.784314 0.317647 0
0.870588 0.356863 0
0.945098 0.388235 0
0.156863 0.368627 0.172549
0.184314 0.352941 0.176471
0.235294 0.345098 0.184314
0.34902 0.388235 0.14902
0.537255 0.431373 0.0901961
0.67451 0.439216 0
0.784314 0.454902 0
0.870588 0.478431 0
0.941176 0.490196 0
0.207843 0.494118 0.207843
0.227451 0.486275 0.207843
0.266667 0.462745 0.223529
0.34902 0.490196 0.207843
0.498039 0.533333 0.164706
0.670588 0.576471 0.0823529
0.772549 0.588235 0
0.862745 0.584314 0
0.945098 0.588235 0
0.27451 0.611765 0.254902
0.294118 0.607843 0.266667
0.32549 0.588235 0.27451
0.380392 0.580392 0.270588
0.494118 0.615686 0.25098
0.631373 0.647059 0.211765
0.772549 0.686275 0.14902
0.858824 0.690196 0
0.945098 0.694118 0
0.380392 0.717647 0.337255
0.396078 0.713725 0.341176
0.415686 0.701961 0.34902
0.454902 0.682353 0.352941
0.529412 0.698039 0.345098
0.631373 0.717647 0.321569
0.737255 0.74902 0.290196
0.858824 0.784314 0.243137
0.945098 0.788235 0.180392
0.517647 0.815686 0.462745
0.521569 0.811765 0.462745
0.541176 0.807843 0.47451
0.568627 0.792157 0.478431
0.607843 0.792157 0.486275
0.67451 0.807843 0.470588
0.752941 0.831373 0.45098
0.835294 0.85098 0.419608
0.945098 0.878431 0.376471
0.662745 0.92549 0.639216
0.670588 0.921569 0.639216
0.678431 0.917647 0.643137
0.701961 0.913725 0.658824
0.729412 0.909804 0.67451
0.772549 0.921569 0.678431
0.815686 0.937255 0.670588
0.87451 0.952941 0.662745
0.945098 0.964706 0.639216
0.0862745 0.109804 0.243137
0.133333 0.101961 0.254902
0.258824 0.0745098 0.27451
0.380392 0 0.278431
0.556863 0 0.266667
0.698039 0 0.243137
0.8 0 0.247059
0.878431 0.14902 0.231373
0.945098 0.243137 0.219608
0.101961 0.160784 0.231373
0.141176 0.160784 0.243137
0.25098 0.152941 0.266667
0.388235 0.121569 0.27451
0.560784 0 0.258824
0.698039 0 0.235294
0.796078 0.145098 0.239216
0.878431 0.227451 0.227451
0.94902 0.294118 0.219608
0.113725 0.270588 0.254902
0.156863 0.270588 0.254902
0.254902 0.27451 0.258824
0.403922 0.27451 0.254902
0.560784 0.266667 0.243137
0.694118 0.278431 0.227451
0.788235 0.309804 0.219608
0.87451 0.34902 0.211765
0.94902 0.380392 0.2
0.180392 0.431373 0.286275
0.231373 0.427451 0.290196
0.282353 0.396078 0.278431
0.392157 0.415686 0.266667
0.560784 0.439216 0.227451
0.690196 0.439216 0.2
0.788235 0.454902 0.192157
0.87451 0.47451 0.184314
0.945098 0.486275 0.176471
0.266667 0.552941 0.313725
0.278431 0.545098 0.305882
0.321569 0.521569 0.301961
0.388235 0.505882 0.301961
0.52549 0.545098 0.282353
0.686275 0.584314 0.243137
0.776471 0.584314 0.184314
0.870588 0.584314 0.141176
0.941176 0.588235 0.129412
0.317647 0.647059 0.341176
0.337255 0.639216 0.345098
0.376471 0.623529 0.345098
0.415686 0.588235 0.34902
0.513725 0.623529 0.333333
0.647059 0.658824 0.317647
0.772549 0.690196 0.278431
0.866667 0.690196 0.223529
0.945098 0.686275 0.133333
0.411765 0.733333 0.403922
0.427451 0.729412 0.407843
0.45098 0.721569 0.407843
0.490196 0.698039 0.415686
0.541176 0.701961 0.403922
0.639216 0.72549 0.4
0.745098 0.752941 0.372549
0.862745 0.784314 0.341176
0.945098 0.788235 0.294118
0.529412 0.823529 0.501961
0.537255 0.823529 0.505882
0.552941 0.815686 0.505882
0.584314 0.803922 0.517647
0.615686 0.792157 0.521569
0.678431 0.811765 0.513725
0.745098 0.831373 0.498039
0.839216 0.854902 0.47451
0.94902 0.878431 0.443137
0.666667 0.929412 0.647059
0.666667 0.929412 0.647059
0.682353 0.92549 0.658824
0.705882 0.917647 0.67451
0.737255 0.913725 0.690196
0.772549 0.92549 0.698039
0.819608 0.937255 0.690196
0.878431 0.956863 0.682353
0.941176 0.968627 0.662745
0 0.113725 0.415686
0.121569 0.105882 0.431373
0.290196 0.0431373 0.462745
0.47451 0 0.494118
0.588235 0 0.478431
0.717647 0 0.482353
0.811765 0 0.454902
0.886275 0.00392157 0.419608
0.94902 0.176471 0.392157
0.00392157 0.168627 0.4
0.129412 0.168627 0.411765
0.278431 0.160784 0.45098
0.462745 0.105882 0.482353
0.588235 0.00392157 0.47451
0.713725 0 0.466667
0.803922 0.0196078 0.439216
0.882353 0.176471 0.415686
0.945098 0.309804 0.415686
0.101961 0.270588 0.368627
0.152941 0.27451 0.380392
0.266667 0.282353 0.427451
0.458824 0.290196 0.470588
0.592157 0.270588 0.462745
0.709804 0.27451 0.443137
0.8 0.301961 0.419608
0.878431 0.384314 0.439216
0.941176 0.411765 0.427451
0.133333 0.447059 0.435294
0.192157 0.45098 0.435294
0.301961 0.454902 0.443137
0.45098 0.458824 0.447059
0.588235 0.458824 0.439216
0.698039 0.462745 0.431373
0.792157 0.470588 0.423529
0.870588 0.490196 0.415686
0.937255 0.501961 0.403922
0.278431 0.623529 0.47451
0.321569 0.619608 0.478431
0.403922 0.596078 0.470588
0.466667 0.564706 0.45098
0.560784 0.576471 0.447059
0.694118 0.588235 0.411765
0.784314 0.580392 0.384314
0.866667 0.588235 0.376471
0.945098 0.592157 0.376471
0.427451 0.694118 0.501961
0.45098 0.694118 0.509804
0.466667 0.678431 0.486275
0.494118 0.647059 0.470588
0.54902 0.639216 0.466667
0.658824 0.670588 0.454902
0.776471 0.694118 0.431373
0.866667 0.686275 0.380392
0.945098 0.678431 0.321569
0.486275 0.760784 0.52549
0.490196 0.756863 0.517647
0.498039 0.752941 0.501961
0.537255 0.733333 0.501961
0.568627 0.701961 0.501961
0.65098 0.733333 0.490196
0.74902 0.752941 0.478431
0.866667 0.784314 0.466667
0.945098 0.788235 0.427451
0.552941 0.839216 0.560784
0.556863 0.839216 0.564706
0.576471 0.831373 0.564706
0.6 0.819608 0.564706
0.631373 0.803922 0.572549
0.686275 0.807843 0.572549
0.752941 0.835294 0.564706
0.839216 0.858824 0.545098
0.945098 0.878431 0.529412
0.670588 0.937255 0.670588
0.67451 0.933333 0.67451
0.686275 0.933333 0.682353
0.713725 0.929412 0.690196
0.741176 0.917647 0.705882
0.776471 0.92549 0.721569
0.823529 0.937255 0.713725
0.878431 0.956863 0.705882
0.945098 0.964706 0.701961
0 0.121569 0.580392
0.129412 0.109804 0.584314
0.305882 0.0588235 0.611765
0.509804 0 0.65098
0.654902 0 0.67451
0.721569 0 0.639216
0.811765 0.00392157 0.643137
0.886275 0.129412 0.619608
0.945098 0.243137 0.596078
0.00392157 0.184314 0.564706
0.129412 0.176471 0.576471
0.294118 0.164706 0.603922
0.498039 0.121569 0.643137
0.65098 0.0745098 0.666667
0.717647 0.0862745 0.635294
0.803922 0.152941 0.639216
0.882353 0.239216 0.611765
0.945098 0.309804 0.6
0.0352941 0.286275 0.537255
0.121569 0.278431 0.54902
0.278431 0.286275 0.576471
0.478431 0.301961 0.619608
0.643137 0.321569 0.654902
0.717647 0.321569 0.635294
0.803922 0.341176 0.631373
0.882353 0.380392 0.611765
0.945098 0.411765 0.596078
0.137255 0.415686 0.52549
0.192157 0.419608 0.533333
0.286275 0.427451 0.529412
0.454902 0.454902 0.588235
0.635294 0.494118 0.635294
0.709804 0.490196 0.627451
0.796078 0.498039 0.615686
0.87451 0.513725 0.603922
0.941176 0.529412 0.592157
0.254902 0.611765 0.592157
0.301961 0.611765 0.6
0.392157 0.611765 0.6
0.501961 0.615686 0.607843
0.615686 0.615686 0.607843
0.705882 0.611765 0.603922
0.788235 0.611765 0.592157
0.866667 0.611765 0.588235
0.937255 0.615686 0.576471
0.423529 0.74902 0.639216
0.45098 0.741176 0.635294
0.505882 0.733333 0.635294
0.576471 0.713725 0.619608
0.611765 0.678431 0.603922
0.686275 0.690196 0.596078
0.784314 0.705882 0.576471
0.866667 0.686275 0.545098
0.94902 0.686275 0.537255
0.541176 0.8 0.643137
0.552941 0.796078 0.643137
0.584314 0.788235 0.639216
0.607843 0.772549 0.631373
0.623529 0.745098 0.611765
0.670588 0.737255 0.596078
0.756863 0.768627 0.6
0.870588 0.792157 0.584314
0.945098 0.784314 0.545098
0.623529 0.866667 0.67451
0.627451 0.858824 0.670588
0.631373 0.858824 0.662745
0.635294 0.847059 0.643137
0.662745 0.827451 0.639216
0.694118 0.807843 0.635294
0.756863 0.835294 0.635294
0.843137 0.858824 0.627451
0.94902 0.882353 0.619608
0.690196 0.945098 0.72549
0.694118 0.94902 0.721569
0.698039 0.945098 0.721569
0.713725 0.937255 0.721569
0.74902 0.937255 0.737255
0.784314 0.92549 0.74902
0.831373 0.941176 0.74902
0.882353 0.952941 0.745098
0.945098 0.968627 0.733333
0.109804 0.133333 0.694118
0.207843 0.121569 0.709804
0.345098 0.0901961 0.72549
0.513725 0 0.745098
0.670588 0.00392157 0.776471
0.768627 0.0901961 0.784314
0.811765 0.156863 0.752941
0.886275 0.239216 0.74902
0.945098 0.313725 0.733333
0.109804 0.192157 0.690196
0.196078 0.188235 0.694118
0.341176 0.184314 0.713725
0.501961 0.168627 0.737255
0.658824 0.188235 0.772549
0.760784 0.231373 0.776471
0.807843 0.254902 0.756863
0.886275 0.313725 0.74902
0.945098 0.364706 0.737255
0.0823529 0.286275 0.67451
0.184314 0.294118 0.682353
0.32549 0.301961 0.694118
0.494118 0.317647 0.721569
0.65098 0.356863 0.752941
0.752941 0.396078 0.772549
0.803922 0.4 0.74902
0.882353 0.427451 0.745098
0.945098 0.458824 0.737255
0.160784 0.423529 0.631373
0.211765 0.427451 0.647059
0.32549 0.439216 0.666667
0.47451 0.458824 0.698039
0.639216 0.505882 0.741176
0.74902 0.541176 0.760784
0.803922 0.541176 0.74902
0.878431 0.54902 0.745098
0.937255 0.556863 0.729412
0.258824 0.564706 0.654902
0.290196 0.568627 0.654902
0.364706 0.568627 0.654902
0.458824 0.568627 0.654902
0.615686 0.607843 0.701961
0.745098 0.65098 0.752941
0.8 0.643137 0.745098
0.878431 0.647059 0.733333
0.937255 0.643137 0.72549
0.411765 0.721569 0.709804
0.439216 0.721569 0.709804
0.490196 0.721569 0.713725
0.560784 0.717647 0.713725
0.647059 0.717647 0.717647
0.72549 0.72549 0.72549
0.8 0.721569 0.721569
0.87451 0.717647 0.717647
0.941176 0.713725 0.709804
0.552941 0.847059 0.756863
0.564706 0.847059 0.760784
0.596078 0.839216 0.74902
0.643137 0.827451 0.74902
0.694118 0.807843 0.737255
0.717647 0.772549 0.713725
0.780392 0.784314 0.713725
0.87451 0.796078 0.698039
0.952941 0.780392 0.666667
0.635294 0.901961 0.756863
0.639216 0.898039 0.74902
0.658824 0.894118 0.752941
0.690196 0.882353 0.752941
0.713725 0.870588 0.737255
0.72549 0.839216 0.717647
0.772549 0.839216 0.713725
0.858824 0.866667 0.713725
0.952941 0.886275 0.709804
0.713725 0.960784 0.784314
0.717647 0.964706 0.788235
0.737255 0.960784 0.792157
0.74902 0.956863 0.784314
0.760784 0.952941 0.776471
0.796078 0.945098 0.784314
0.835294 0.937255 0.8
0.886275 0.956863 0.792157
0.952941 0.964706 0.784314
0.262745 0.164706 0.8
0.309804 0.160784 0.807843
0.407843 0.14902 0.815686
0.529412 0.145098 0.823529
0.654902 0.176471 0.847059
0.768627 0.270588 0.866667
0.847059 0.317647 0.87451
0.882353 0.337255 0.843137
0.945098 0.388235 0.831373
0.258824 0.219608 0.8
0.309804 0.223529 0.8
0.407843 0.215686 0.807843
0.521569 0.223529 0.819608
0.647059 0.258824 0.839216
0.764706 0.337255 0.866667
0.843137 0.380392 0.862745
0.878431 0.392157 0.839216
0.945098 0.431373 0.835294
0.247059 0.321569 0.784314
0.298039 0.32549 0.784314
0.4 0.329412 0.792157
0.52549 0.34902 0.807843
0.643137 0.392157 0.831373
0.760784 0.458824 0.858824
0.839216 0.486275 0.862745
0.878431 0.490196 0.843137
0.937255 0.509804 0.831373
0.266667 0.45098 0.756863
0.301961 0.45098 0.768627
0.380392 0.45098 0.780392
0.509804 0.47451 0.792157
0.639216 0.517647 0.815686
0.752941 0.576471 0.847059
0.839216 0.6 0.862745
0.882353 0.592157 0.839216
0.941176 0.596078 0.835294
0.247059 0.54902 0.721569
0.282353 0.552941 0.717647
0.368627 0.556863 0.737255
0.490196 0.576471 0.768627
0.619608 0.607843 0.792157
0.745098 0.654902 0.827451
0.839216 0.686275 0.858824
0.882353 0.67451 0.839216
0.941176 0.678431 0.839216
0.380392 0.682353 0.760784
0.4 0.682353 0.760784
0.447059 0.67451 0.752941
0.509804 0.67451 0.760784
0.584314 0.670588 0.752941
0.721569 0.713725 0.8
0.835294 0.760784 0.847059
0.886275 0.752941 0.839216
0.94902 0.74902 0.835294
0.517647 0.807843 0.803922
0.533333 0.807843 0.807843
0.568627 0.807843 0.811765
0.615686 0.807843 0.815686
0.67451 0.807843 0.811765
0.74902 0.811765 0.811765
0.819608 0.819608 0.823529
0.890196 0.819608 0.819608
0.94902 0.807843 0.811765
0.639216 0.933333 0.85098
0.647059 0.933333 0.854902
0.662745 0.929412 0.847059
0.701961 0.92549 0.85098
0.745098 0.913725 0.839216
0.792157 0.898039 0.831373
0.803922 0.858824 0.8
0.870588 0.87451 0.803922
0.956863 0.890196 0.796078
0.701961 0.980392 0.847059
0.709804 0.984314 0.843137
0.721569 0.976471 0.847059
0.752941 0.976471 0.847059
0.788235 0.972549 0.847059
0.819608 0.964706 0.843137
0.85098 0.952941 0.839216
0.894118 0.956863 0.85098
0.956863 0.972549 0.843137
0.396078 0.25098 0.898039
0.423529 0.25098 0.898039
0.482353 0.254902 0.898039
0.568627 0.270588 0.901961
0.658824 0.301961 0.917647
0.745098 0.364706 0.921569
0.843137 0.443137 0.941176
0.905882 0.470588 0.941176
0.94902 0.470588 0.92549
0.392157 0.298039 0.886275
0.427451 0.298039 0.890196
0.486275 0.305882 0.898039
0.568627 0.317647 0.901961
0.654902 0.352941 0.909804
0.745098 0.411765 0.921569
0.847059 0.482353 0.933333
0.909804 0.501961 0.937255
0.945098 0.505882 0.921569
0.396078 0.388235 0.886275
0.427451 0.392157 0.890196
0.482353 0.396078 0.890196
0.568627 0.419608 0.898039
0.658824 0.45098 0.905882
0.745098 0.498039 0.917647
0.847059 0.556863 0.929412
0.905882 0.572549 0.937255
0.941176 0.568627 0.917647
0.384314 0.486275 0.866667
0.411765 0.490196 0.870588
0.478431 0.501961 0.878431
0.564706 0.521569 0.890196
0.65098 0.54902 0.898039
0.752941 0.588235 0.909804
0.843137 0.639216 0.929412
0.909804 0.65098 0.933333
0.937255 0.639216 0.913725
0.380392 0.588235 0.847059
0.403922 0.592157 0.85098
0.466667 0.596078 0.858824
0.541176 0.6 0.870588
0.647059 0.627451 0.886275
0.745098 0.658824 0.901961
0.843137 0.705882 0.92549
0.913725 0.72549 0.929412
0.941176 0.709804 0.913725
0.384314 0.678431 0.835294
0.392157 0.67451 0.831373
0.427451 0.670588 0.831373
0.498039 0.666667 0.835294
0.611765 0.686275 0.854902
0.72549 0.713725 0.882353
0.835294 0.764706 0.913725
0.913725 0.792157 0.92549
0.952941 0.784314 0.917647
0.486275 0.780392 0.862745
0.501961 0.780392 0.866667
0.52549 0.780392 0.862745
0.572549 0.776471 0.862745
0.623529 0.764706 0.858824
0.678431 0.756863 0.85098
0.815686 0.807843 0.894118
0.921569 0.854902 0.92549
0.956863 0.847059 0.917647
0.6 0.898039 0.898039
0.607843 0.898039 0.901961
0.631373 0.898039 0.901961
0.662745 0.898039 0.898039
0.717647 0.898039 0.898039
0.772549 0.894118 0.901961
0.839216 0.901961 0.901961
0.905882 0.905882 0.905882
0.960784 0.901961 0.905882
0.694118 0.996078 0.92549
0.701961 0.996078 0.921569
0.717647 0.996078 0.921569
0.745098 0.992157 0.921569
0.784314 0.992157 0.92549
0.831373 0.984314 0.917647
0.87451 0.980392 0.921569
0.909804 0.964706 0.905882
0.968627 0.968627 0.905882
0.521569 0.423529 0.968627
0.545098 0.431373 0.972549
0.572549 0.435294 0.972549
0.619608 0.447059 0.972549
0.682353 0.462745 0.976471
0.752941 0.490196 0.980392
0.831373 0.529412 0.984314
0.913725 0.568627 0.988235
0.952941 0.572549 0.984314
0.52549 0.458824 0.964706
0.545098 0.462745 0.972549
0.576471 0.470588 0.972549
0.623529 0.478431 0.976471
0.686275 0.494118 0.976471
0.752941 0.521569 0.976471
0.831373 0.556863 0.984314
0.913725 0.592157 0.992157
0.956863 0.596078 0.984314
0.537255 0.521569 0.960784
0.552941 0.52549 0.968627
0.588235 0.529412 0.968627
0.631373 0.533333 0.968627
0.694118 0.552941 0.968627
0.760784 0.576471 0.976471
0.831373 0.603922 0.976471
0.909804 0.635294 0.984314
0.956863 0.635294 0.980392
0.54902 0.592157 0.964706
0.560784 0.596078 0.964706
0.596078 0.603922 0.968627
0.639216 0.615686 0.968627
0.694118 0.619608 0.968627
0.768627 0.643137 0.976471
0.835294 0.658824 0.976471
0.913725 0.690196 0.984314
0.956863 0.690196 0.980392
0.560784 0.666667 0.956863
0.572549 0.670588 0.960784
0.592157 0.662745 0.960784
0.639216 0.670588 0.964706
0.694118 0.678431 0.968627
0.764706 0.698039 0.972549
0.843137 0.717647 0.980392
0.921569 0.745098 0.984314
0.960784 0.74902 0.976471
0.552941 0.733333 0.952941
0.560784 0.733333 0.94902
0.584314 0.729412 0.952941
0.627451 0.733333 0.956863
0.686275 0.733333 0.968627
0.760784 0.74902 0.972549
0.843137 0.772549 0.976471
0.921569 0.807843 0.984314
0.964706 0.811765 0.980392
0.568627 0.807843 0.952941
0.580392 0.807843 0.956863
0.596078 0.807843 0.956863
0.623529 0.8 0.952941
0.662745 0.8 0.956863
0.733333 0.803922 0.960784
0.827451 0.819608 0.972549
0.917647 0.858824 0.976471
0.964706 0.87451 0.976471
0.615686 0.894118 0.972549
0.627451 0.894118 0.976471
0.639216 0.894118 0.972549
0.666667 0.890196 0.968627
0.705882 0.890196 0.968627
0.74902 0.886275 0.972549
0.803922 0.878431 0.972549
0.905882 0.898039 0.980392
0.976471 0.929412 0.980392
0.670588 0.984314 0.980392
0.67451 0.980392 0.976471
0.694118 0.984314 0.980392
0.72549 0.984314 0.980392
0.764706 0.984314 0.984314
0.807843 0.980392 0.980392
0.866667 0.984314 0.980392
0.921569 0.980392 0.980392
0.976471 0.980392 0.980392
