lut/Portra 160 ++.cube
#Generated by Picture Instruments - Look Creator
TITLE "Portra 160 ++"
LUT_3D_SIZE 9
0.137255 0.0980392 0.0941176
0.156863 0.0941176 0.0941176
0.227451 0.0901961 0.0901961
0.34902 0.0666667 0.0823529
0.494118 0 0.0705882
0.627451 0 0.0313725
0.72549 0.0901961 0
0.819608 0.164706 0
0.905882 0.219608 0
0.145098 0.133333 0.0980392
0.164706 0.141176 0.0941176
0.243137 0.152941 0.0862745
0.364706 0.145098 0.0745098
0.501961 0.145098 0.0470588
0.631373 0.152941 0
0.733333 0.180392 0
0.823529 0.223529 0
0.905882 0.266667 0
0.168627 0.227451 0.101961
0.188235 0.223529 0.101961
0.243137 0.243137 0.0941176
0.380392 0.286275 0.0588235
0.529412 0.286275 0
0.647059 0.290196 0.00392157
0.737255 0.305882 0
0.831373 0.32549 0
0.913725 0.352941 0
0.219608 0.360784 0.109804
0.235294 0.352941 0.109804
0.282353 0.364706 0.101961
0.380392 0.4 0.0862745
0.537255 0.447059 0
0.65098 0.443137 0
0.74902 0.435294 0
0.839216 0.443137 0
0.921569 0.454902 0
0.294118 0.494118 0.121569
0.305882 0.490196 0.113725
0.333333 0.478431 0.113725
0.407843 0.505882 0.105882
0.521569 0.537255 0.0941176
0.658824 0.588235 0.0156863
0.760784 0.580392 0
0.85098 0.568627 0
0.933333 0.564706 0
0.372549 0.611765 0.152941
0.380392 0.603922 0.152941
0.407843 0.6 0.14902
0.45098 0.596078 0.141176
0.541176 0.623529 0.14902
0.639216 0.658824 0.156863
0.768627 0.705882 0.160784
0.858824 0.701961 0.0745098
0.945098 0.698039 0
0.466667 0.721569 0.219608
0.47451 0.717647 0.219608
0.490196 0.709804 0.211765
0.517647 0.701961 0.2
0.580392 0.717647 0.207843
0.662745 0.741176 0.227451
0.752941 0.764706 0.25098
0.862745 0.811765 0.298039
0.952941 0.819608 0.254902
0.572549 0.835294 0.329412
0.580392 0.835294 0.333333
0.592157 0.831373 0.321569
0.611765 0.823529 0.313725
0.65098 0.827451 0.313725
0.713725 0.843137 0.333333
0.784314 0.858824 0.356863
0.858824 0.878431 0.384314
0.945098 0.898039 0.419608
0.690196 0.956863 0.501961
0.698039 0.952941 0.501961
0.709804 0.956863 0.501961
0.733333 0.952941 0.501961
0.756863 0.952941 0.509804
0.803922 0.960784 0.517647
0.854902 0.968627 0.533333
0.913725 0.980392 0.560784
0.964706 0.984314 0.580392
0.137255 0.0980392 0.133333
0.160784 0.0980392 0.137255
0.235294 0.0901961 0.137255
0.352941 0.0235294 0.137255
0.498039 0 0.137255
0.623529 0 0.129412
0.729412 0.0588235 0.121569
0.823529 0.152941 0.121569
0.905882 0.223529 0.12549
0.141176 0.14902 0.137255
0.168627 0.14902 0.137255
0.247059 0.145098 0.141176
0.368627 0.141176 0.137255
0.505882 0.129412 0.133333
0.631373 0.141176 0.12549
0.733333 0.172549 0.117647
0.823529 0.219608 0.117647
0.905882 0.262745 0.117647
0.180392 0.25098 0.14902
0.2 0.247059 0.14902
0.254902 0.254902 0.145098
0.392157 0.282353 0.12549
0.529412 0.278431 0.105882
0.643137 0.286275 0.101961
0.745098 0.298039 0.0941176
0.831373 0.321569 0.0941176
0.913725 0.34902 0.101961
0.231373 0.384314 0.160784
0.247059 0.376471 0.152941
0.294118 0.376471 0.152941
0.388235 0.407843 0.14902
0.545098 0.45098 0.113725
0.658824 0.435294 0.0313725
0.752941 0.431373 0
0.839216 0.439216 0.00392157
0.917647 0.454902 0.0392157
0.298039 0.509804 0.172549
0.317647 0.505882 0.168627
0.341176 0.490196 0.164706
0.415686 0.509804 0.164706
0.52549 0.541176 0.168627
0.666667 0.588235 0.145098
0.764706 0.580392 0.0705882
0.854902 0.560784 0
0.937255 0.564706 0.00392157
0.388235 0.619608 0.203922
0.392157 0.615686 0.203922
0.415686 0.607843 0.196078
0.458824 0.603922 0.192157
0.541176 0.627451 0.2
0.643137 0.658824 0.215686
0.768627 0.705882 0.227451
0.854902 0.701961 0.164706
0.941176 0.694118 0.0392157
0.478431 0.72549 0.266667
0.486275 0.72549 0.258824
0.501961 0.717647 0.25098
0.517647 0.705882 0.243137
0.584314 0.717647 0.247059
0.662745 0.741176 0.266667
0.752941 0.768627 0.298039
0.858824 0.811765 0.333333
0.94902 0.819608 0.298039
0.580392 0.839216 0.356863
0.584314 0.835294 0.356863
0.596078 0.831373 0.352941
0.615686 0.827451 0.341176
0.654902 0.827451 0.341176
0.717647 0.843137 0.360784
0.788235 0.858824 0.388235
0.862745 0.878431 0.407843
0.94902 0.905882 0.45098
0.694118 0.960784 0.513725
0.701961 0.956863 0.513725
0.709804 0.952941 0.513725
0.733333 0.94902 0.513725
0.760784 0.952941 0.517647
0.807843 0.960784 0.537255
0.854902 0.968627 0.54902
0.913725 0.980392 0.568627
0.968627 0.988235 0.592157
0.12549 0.101961 0.254902
0.160784 0.101961 0.254902
0.243137 0.101961 0.258824
0.376471 0.0784314 0.262745
0.52549 0 0.270588
0.639216 0 0.254902
0.72549 0.0392157 0.254902
0.819608 0.160784 0.258824
0.901961 0.231373 0.266667
0.141176 0.156863 0.254902
0.176471 0.160784 0.258824
0.254902 0.168627 0.258824
0.384314 0.164706 0.270588
0.52549 0.129412 0.262745
0.635294 0.109804 0.247059
0.733333 0.168627 0.258824
0.823529 0.219608 0.258824
0.909804 0.27451 0.266667
0.164706 0.278431 0.258824
0.203922 0.278431 0.262745
0.282353 0.278431 0.262745
0.403922 0.270588 0.262745
0.537255 0.27451 0.25098
0.643137 0.278431 0.247059
0.741176 0.294118 0.25098
0.831373 0.32549 0.25098
0.909804 0.352941 0.258824
0.243137 0.427451 0.262745
0.27451 0.423529 0.262745
0.32549 0.411765 0.270588
0.415686 0.423529 0.270588
0.560784 0.443137 0.247059
0.662745 0.427451 0.231373
0.74902 0.427451 0.231373
0.835294 0.439216 0.235294
0.921569 0.45098 0.243137
0.341176 0.545098 0.294118
0.34902 0.541176 0.286275
0.376471 0.529412 0.282353
0.435294 0.521569 0.270588
0.545098 0.556863 0.294118
0.670588 0.588235 0.278431
0.768627 0.572549 0.239216
0.854902 0.560784 0.203922
0.929412 0.560784 0.215686
0.415686 0.643137 0.313725
0.423529 0.639216 0.313725
0.443137 0.631373 0.301961
0.470588 0.607843 0.286275
0.556863 0.635294 0.301961
0.65098 0.666667 0.32549
0.768627 0.705882 0.333333
0.862745 0.701961 0.290196
0.945098 0.686275 0.227451
0.498039 0.741176 0.360784
0.501961 0.737255 0.352941
0.513725 0.72549 0.341176
0.533333 0.713725 0.32549
0.584314 0.721569 0.329412
0.666667 0.74902 0.352941
0.74902 0.768627 0.376471
0.866667 0.815686 0.415686
0.952941 0.815686 0.376471
0.584314 0.843137 0.427451
0.596078 0.843137 0.423529
0.607843 0.839216 0.415686
0.623529 0.831373 0.403922
0.65098 0.823529 0.388235
0.717647 0.843137 0.415686
0.784314 0.858824 0.435294
0.858824 0.882353 0.466667
0.94902 0.905882 0.498039
0.701961 0.956863 0.552941
0.701961 0.956863 0.545098
0.717647 0.956863 0.54902
0.733333 0.952941 0.54902
0.760784 0.952941 0.54902
0.8 0.960784 0.556863
0.858824 0.968627 0.572549
0.917647 0.976471 0.6
0.968627 0.984314 0.611765
0.0745098 0.109804 0.45098
0.152941 0.113725 0.45098
0.266667 0.113725 0.454902
0.403922 0.113725 0.458824
0.552941 0.101961 0.458824
0.67451 0.160784 0.458824
0.756863 0.192157 0.435294
0.831373 0.227451 0.431373
0.898039 0.262745 0.419608
0.117647 0.176471 0.439216
0.180392 0.184314 0.439216
0.27451 0.188235 0.443137
0.411765 0.196078 0.458824
0.552941 0.203922 0.454902
0.670588 0.231373 0.45098
0.756863 0.243137 0.435294
0.831373 0.27451 0.431373
0.898039 0.313725 0.427451
0.156863 0.290196 0.427451
0.203922 0.290196 0.435294
0.305882 0.305882 0.447059
0.427451 0.321569 0.45098
0.564706 0.345098 0.458824
0.662745 0.333333 0.447059
0.741176 0.333333 0.423529
0.819608 0.360784 0.431373
0.901961 0.384314 0.427451
0.231373 0.462745 0.439216
0.270588 0.462745 0.443137
0.34902 0.462745 0.447059
0.454902 0.454902 0.447059
0.564706 0.447059 0.439216
0.658824 0.443137 0.431373
0.74902 0.447059 0.423529
0.835294 0.454902 0.419608
0.909804 0.470588 0.419608
0.368627 0.588235 0.435294
0.392157 0.588235 0.439216
0.435294 0.580392 0.447059
0.482353 0.556863 0.439216
0.568627 0.572549 0.447059
0.678431 0.584314 0.435294
0.768627 0.564706 0.407843
0.847059 0.568627 0.403922
0.92549 0.568627 0.4
0.466667 0.682353 0.458824
0.482353 0.678431 0.470588
0.498039 0.666667 0.458824
0.521569 0.65098 0.443137
0.572549 0.647059 0.431373
0.662745 0.67451 0.458824
0.768627 0.705882 0.470588
0.862745 0.694118 0.423529
0.945098 0.678431 0.376471
0.537255 0.760784 0.490196
0.541176 0.760784 0.482353
0.552941 0.756863 0.47451
0.568627 0.737255 0.454902
0.596078 0.721569 0.435294
0.666667 0.74902 0.454902
0.760784 0.776471 0.486275
0.866667 0.815686 0.509804
0.94902 0.811765 0.47451
0.603922 0.854902 0.517647
0.607843 0.85098 0.513725
0.619608 0.847059 0.513725
0.635294 0.843137 0.498039
0.654902 0.831373 0.47451
0.709804 0.839216 0.482353
0.784314 0.858824 0.509804
0.862745 0.878431 0.537255
0.952941 0.913725 0.572549
0.709804 0.964706 0.611765
0.713725 0.960784 0.603922
0.721569 0.956863 0.603922
0.741176 0.960784 0.6
0.768627 0.956863 0.596078
0.8 0.960784 0.596078
0.854902 0.968627 0.611765
0.917647 0.980392 0.635294
0.968627 0.984314 0.654902
0.0784314 0.133333 0.611765
0.172549 0.141176 0.611765
0.286275 0.14902 0.611765
0.423529 0.172549 0.619608
0.556863 0.196078 0.623529
0.67451 0.223529 0.619608
0.776471 0.329412 0.611765
0.847059 0.368627 0.6
0.909804 0.392157 0.592157
0.129412 0.207843 0.596078
0.196078 0.211765 0.6
0.298039 0.219608 0.6
0.427451 0.243137 0.611765
0.556863 0.266667 0.615686
0.67451 0.290196 0.615686
0.772549 0.376471 0.611765
0.847059 0.4 0.603922
0.913725 0.411765 0.596078
0.188235 0.317647 0.588235
0.235294 0.32549 0.592157
0.333333 0.337255 0.6
0.454902 0.360784 0.603922
0.572549 0.384314 0.611765
0.67451 0.403922 0.615686
0.768627 0.45098 0.611765
0.839216 0.454902 0.603922
0.909804 0.454902 0.596078
0.25098 0.458824 0.580392
0.290196 0.458824 0.584314
0.364706 0.454902 0.580392
0.482353 0.478431 0.6
0.584314 0.505882 0.611765
0.682353 0.529412 0.611765
0.764706 0.521569 0.603922
0.835294 0.509804 0.588235
0.905882 0.505882 0.572549
0.372549 0.615686 0.596078
0.396078 0.619608 0.596078
0.45098 0.615686 0.6
0.52549 0.611765 0.6
0.6 0.6 0.6
0.678431 0.596078 0.592157
0.756863 0.584314 0.572549
0.839216 0.584314 0.568627
0.917647 0.584314 0.564706
0.505882 0.721569 0.596078
0.517647 0.717647 0.596078
0.545098 0.713725 0.596078
0.580392 0.698039 0.596078
0.611765 0.670588 0.580392
0.678431 0.686275 0.592157
0.780392 0.705882 0.580392
0.862745 0.682353 0.54902
0.937255 0.682353 0.545098
0.568627 0.796078 0.596078
0.572549 0.792157 0.6
0.592157 0.784314 0.6
0.623529 0.776471 0.603922
0.635294 0.74902 0.568627
0.678431 0.74902 0.560784
0.768627 0.780392 0.596078
0.87451 0.811765 0.607843
0.956863 0.807843 0.576471
0.643137 0.870588 0.631373
0.643137 0.870588 0.631373
0.654902 0.866667 0.623529
0.666667 0.866667 0.607843
0.682353 0.847059 0.588235
0.709804 0.839216 0.560784
0.784314 0.862745 0.592157
0.870588 0.882353 0.619608
0.956863 0.917647 0.647059
0.721569 0.964706 0.670588
0.72549 0.968627 0.67451
0.729412 0.968627 0.666667
0.745098 0.968627 0.666667
0.772549 0.960784 0.662745
0.8 0.960784 0.65098
0.858824 0.968627 0.666667
0.913725 0.976471 0.682353
0.972549 0.984314 0.705882
0.172549 0.184314 0.721569
0.231373 0.192157 0.721569
0.329412 0.203922 0.72549
0.443137 0.235294 0.733333
0.564706 0.290196 0.737255
0.670588 0.329412 0.737255
0.768627 0.360784 0.733333
0.85098 0.454902 0.729412
0.921569 0.517647 0.733333
0.207843 0.25098 0.713725
0.258824 0.254902 0.721569
0.341176 0.266667 0.717647
0.45098 0.298039 0.72549
0.564706 0.341176 0.729412
0.670588 0.376471 0.733333
0.764706 0.403922 0.729412
0.854902 0.482353 0.733333
0.921569 0.537255 0.733333
0.262745 0.356863 0.709804
0.301961 0.364706 0.709804
0.384314 0.372549 0.713725
0.47451 0.4 0.721569
0.580392 0.439216 0.729412
0.678431 0.462745 0.729412
0.768627 0.486275 0.733333
0.854902 0.54902 0.737255
0.917647 0.572549 0.741176
0.317647 0.470588 0.694118
0.356863 0.478431 0.694118
0.427451 0.494118 0.705882
0.509804 0.509804 0.713725
0.6 0.537255 0.713725
0.690196 0.560784 0.729412
0.776471 0.580392 0.729412
0.862745 0.623529 0.745098
0.917647 0.611765 0.733333
0.403922 0.607843 0.701961
0.423529 0.603922 0.698039
0.466667 0.6 0.698039
0.529412 0.596078 0.698039
0.619608 0.623529 0.705882
0.705882 0.647059 0.721569
0.788235 0.666667 0.729412
0.858824 0.658824 0.72549
0.921569 0.647059 0.713725
0.505882 0.737255 0.713725
0.521569 0.737255 0.717647
0.54902 0.729412 0.717647
0.596078 0.733333 0.717647
0.65098 0.72549 0.717647
0.717647 0.717647 0.717647
0.780392 0.705882 0.701961
0.854902 0.698039 0.690196
0.92549 0.698039 0.682353
0.623529 0.831373 0.721569
0.635294 0.831373 0.72549
0.647059 0.827451 0.717647
0.666667 0.815686 0.717647
0.698039 0.807843 0.717647
0.717647 0.776471 0.694118
0.784314 0.792157 0.705882
0.87451 0.807843 0.698039
0.952941 0.788235 0.662745
0.670588 0.901961 0.721569
0.670588 0.894118 0.717647
0.682353 0.901961 0.72549
0.698039 0.890196 0.713725
0.729412 0.878431 0.717647
0.733333 0.858824 0.678431
0.788235 0.854902 0.678431
0.87451 0.886275 0.709804
0.964706 0.909804 0.72549
0.72549 0.976471 0.741176
0.733333 0.972549 0.741176
0.74902 0.976471 0.74902
0.764706 0.976471 0.74902
0.784314 0.972549 0.745098
0.811765 0.968627 0.72549
0.85098 0.968627 0.717647
0.917647 0.976471 0.745098
0.968627 0.984314 0.756863
0.298039 0.270588 0.827451
0.32549 0.27451 0.823529
0.396078 0.294118 0.827451
0.482353 0.321569 0.823529
0.584314 0.368627 0.831373
0.67451 0.427451 0.835294
0.764706 0.462745 0.831373
0.85098 0.478431 0.831373
0.921569 0.556863 0.831373
0.317647 0.321569 0.815686
0.352941 0.329412 0.823529
0.411765 0.341176 0.819608
0.498039 0.368627 0.827451
0.588235 0.407843 0.831373
0.678431 0.462745 0.827451
0.764706 0.490196 0.831373
0.85098 0.509804 0.827451
0.92549 0.576471 0.827451
0.368627 0.415686 0.807843
0.392157 0.423529 0.811765
0.447059 0.431373 0.811765
0.517647 0.45098 0.819608
0.603922 0.486275 0.823529
0.694118 0.529412 0.827451
0.772549 0.552941 0.831373
0.85098 0.568627 0.827451
0.921569 0.619608 0.831373
0.427451 0.521569 0.803922
0.447059 0.52549 0.803922
0.482353 0.533333 0.807843
0.552941 0.54902 0.807843
0.627451 0.572549 0.815686
0.705882 0.607843 0.823529
0.784314 0.627451 0.831373
0.862745 0.643137 0.835294
0.929412 0.67451 0.831373
0.443137 0.6 0.792157
0.458824 0.6 0.788235
0.509804 0.615686 0.8
0.576471 0.635294 0.803922
0.643137 0.65098 0.811765
0.72549 0.678431 0.819608
0.796078 0.694118 0.831373
0.870588 0.709804 0.835294
0.933333 0.737255 0.839216
0.521569 0.729412 0.8
0.541176 0.729412 0.807843
0.564706 0.72549 0.803922
0.6 0.721569 0.8
0.65098 0.713725 0.803922
0.733333 0.737255 0.815686
0.811765 0.760784 0.827451
0.886275 0.780392 0.839216
0.941176 0.772549 0.831373
0.611765 0.843137 0.819608
0.619608 0.843137 0.819608
0.635294 0.843137 0.819608
0.67451 0.839216 0.823529
0.713725 0.831373 0.823529
0.764706 0.827451 0.823529
0.819608 0.819608 0.819608
0.878431 0.807843 0.8
0.94902 0.803922 0.796078
0.721569 0.92549 0.823529
0.729412 0.92549 0.827451
0.741176 0.921569 0.819608
0.756863 0.921569 0.827451
0.780392 0.913725 0.819608
0.803922 0.901961 0.815686
0.815686 0.87451 0.792157
0.886275 0.894118 0.807843
0.968627 0.909804 0.807843
0.760784 0.984314 0.823529
0.764706 0.988235 0.827451
0.772549 0.984314 0.827451
0.784314 0.984314 0.823529
0.803922 0.980392 0.827451
0.839216 0.980392 0.831373
0.862745 0.976471 0.803922
0.913725 0.980392 0.807843
0.976471 0.984314 0.831373
0.415686 0.384314 0.913725
0.439216 0.396078 0.909804
0.482353 0.407843 0.909804
0.545098 0.435294 0.909804
0.619608 0.470588 0.913725
0.694118 0.509804 0.909804
0.776471 0.560784 0.917647
0.85098 0.584314 0.917647
0.917647 0.592157 0.917647
0.431373 0.423529 0.905882
0.45098 0.427451 0.905882
0.494118 0.443137 0.905882
0.552941 0.462745 0.909804
0.623529 0.494118 0.905882
0.698039 0.537255 0.913725
0.776471 0.580392 0.913725
0.85098 0.603922 0.913725
0.917647 0.611765 0.913725
0.466667 0.494118 0.901961
0.486275 0.498039 0.901961
0.517647 0.509804 0.905882
0.572549 0.529412 0.905882
0.643137 0.552941 0.905882
0.717647 0.584314 0.913725
0.788235 0.623529 0.913725
0.858824 0.639216 0.917647
0.921569 0.647059 0.913725
0.513725 0.580392 0.901961
0.52549 0.584314 0.901961
0.556863 0.592157 0.901961
0.607843 0.603922 0.901961
0.666667 0.619608 0.901961
0.729412 0.647059 0.909804
0.8 0.678431 0.913725
0.866667 0.698039 0.917647
0.92549 0.694118 0.913725
0.533333 0.65098 0.894118
0.552941 0.654902 0.894118
0.584314 0.662745 0.894118
0.623529 0.670588 0.898039
0.682353 0.686275 0.905882
0.74902 0.709804 0.913725
0.819608 0.733333 0.913725
0.878431 0.74902 0.917647
0.933333 0.74902 0.917647
0.560784 0.729412 0.894118
0.568627 0.733333 0.898039
0.592157 0.729412 0.894118
0.623529 0.733333 0.890196
0.690196 0.745098 0.898039
0.764706 0.764706 0.905882
0.831373 0.788235 0.913725
0.890196 0.811765 0.921569
0.945098 0.811765 0.921569
0.623529 0.839216 0.901961
0.631373 0.835294 0.898039
0.647059 0.831373 0.898039
0.678431 0.831373 0.898039
0.713725 0.827451 0.898039
0.760784 0.819608 0.901961
0.839216 0.843137 0.913725
0.909804 0.866667 0.921569
0.964706 0.878431 0.92549
0.698039 0.937255 0.909804
0.701961 0.933333 0.909804
0.717647 0.933333 0.913725
0.741176 0.933333 0.917647
0.776471 0.929412 0.909804
0.823529 0.92549 0.913725
0.870588 0.929412 0.917647
0.917647 0.917647 0.917647
0.972549 0.905882 0.901961
0.8 0.992157 0.905882
0.803922 0.992157 0.905882
0.815686 0.988235 0.909804
0.835294 0.988235 0.905882
0.85098 0.988235 0.909804
0.87451 0.988235 0.913725
0.901961 0.984314 0.913725
0.92549 0.984314 0.898039
0.984314 0.988235 0.905882
0.541176 0.521569 0.980392
0.560784 0.533333 0.976471
0.584314 0.541176 0.984314
0.627451 0.564706 0.980392
0.67451 0.584314 0.980392
0.737255 0.615686 0.980392
0.796078 0.647059 0.980392
0.862745 0.682353 0.976471
0.917647 0.690196 0.980392
0.560784 0.552941 0.984314
0.568627 0.556863 0.980392
0.596078 0.564706 0.976471
0.631373 0.580392 0.976471
0.686275 0.603922 0.976471
0.745098 0.631373 0.980392
0.803922 0.658824 0.972549
0.862745 0.694118 0.976471
0.917647 0.701961 0.976471
0.588235 0.607843 0.976471
0.596078 0.607843 0.980392
0.619608 0.615686 0.980392
0.65098 0.627451 0.980392
0.698039 0.643137 0.976471
0.752941 0.662745 0.976471
0.811765 0.686275 0.980392
0.870588 0.717647 0.980392
0.921569 0.721569 0.980392
0.611765 0.662745 0.972549
0.619608 0.662745 0.976471
0.643137 0.670588 0.984314
0.670588 0.678431 0.980392
0.721569 0.690196 0.984314
0.768627 0.709804 0.980392
0.823529 0.72549 0.980392
0.87451 0.752941 0.976471
0.92549 0.756863 0.980392
0.639216 0.721569 0.980392
0.647059 0.721569 0.980392
0.662745 0.721569 0.976471
0.690196 0.72549 0.980392
0.733333 0.741176 0.980392
0.784314 0.752941 0.984314
0.839216 0.772549 0.984314
0.886275 0.792157 0.980392
0.941176 0.8 0.980392
0.639216 0.768627 0.980392
0.647059 0.768627 0.980392
0.670588 0.768627 0.980392
0.698039 0.776471 0.976471
0.745098 0.784314 0.976471
0.796078 0.8 0.980392
0.85098 0.819608 0.980392
0.905882 0.839216 0.980392
0.94902 0.847059 0.980392
0.670588 0.843137 0.980392
0.678431 0.847059 0.980392
0.690196 0.839216 0.980392
0.713725 0.839216 0.988235
0.745098 0.839216 0.980392
0.8 0.85098 0.984314
0.862745 0.866667 0.984314
0.917647 0.886275 0.980392
0.964706 0.898039 0.984314
0.729412 0.933333 0.988235
0.729412 0.933333 0.984314
0.745098 0.933333 0.988235
0.764706 0.933333 0.984314
0.796078 0.92549 0.984314
0.823529 0.92549 0.984314
0.866667 0.921569 0.984314
0.937255 0.933333 0.988235
0.976471 0.945098 0.988235
0.788235 0.992157 0.984314
0.788235 0.992157 0.984314
0.8 0.992157 0.988235
0.819608 0.988235 0.988235
0.843137 0.992157 0.988235
0.878431 0.992157 0.988235
0.917647 0.992157 0.988235
0.952941 0.992157 0.988235
0.988235 0.992157 0.988235
