lut/TRI-X 400 ++.cube
#Generated by Picture Instruments - Look Creator
TITLE "TRI-X 400 ++"
LUT_3D_SIZE 9
0.152941 0.152941 0.152941
0.152941 0.152941 0.152941
0.152941 0.152941 0.152941
0.160784 0.160784 0.160784
0.180392 0.180392 0.180392
0.207843 0.207843 0.207843
0.247059 0.247059 0.247059
0.313725 0.313725 0.313725
0.407843 0.407843 0.407843
0.152941 0.152941 0.152941
0.156863 0.156863 0.156863
0.168627 0.168627 0.168627
0.180392 0.180392 0.180392
0.2 0.2 0.2
0.227451 0.227451 0.227451
0.270588 0.270588 0.270588
0.341176 0.341176 0.341176
0.435294 0.435294 0.435294
0.172549 0.172549 0.172549
0.172549 0.172549 0.172549
0.196078 0.196078 0.196078
0.231373 0.231373 0.231373
0.254902 0.254902 0.254902
0.286275 0.286275 0.286275
0.329412 0.329412 0.329412
0.407843 0.407843 0.407843
0.517647 0.517647 0.517647
0.219608 0.219608 0.219608
0.215686 0.215686 0.215686
0.227451 0.227451 0.227451
0.27451 0.27451 0.27451
0.345098 0.345098 0.345098
0.388235 0.388235 0.388235
0.447059 0.447059 0.447059
0.533333 0.533333 0.533333
0.635294 0.635294 0.635294
0.298039 0.298039 0.298039
0.294118 0.294118 0.294118
0.282353 0.282353 0.282353
0.329412 0.329412 0.329412
0.407843 0.407843 0.407843
0.521569 0.521569 0.521569
0.588235 0.588235 0.588235
0.670588 0.670588 0.670588
0.752941 0.752941 0.752941
0.423529 0.423529 0.423529
0.415686 0.415686 0.415686
0.396078 0.396078 0.396078
0.415686 0.415686 0.415686
0.494118 0.494118 0.494118
0.592157 0.592157 0.592157
0.713725 0.713725 0.713725
0.776471 0.776471 0.776471
0.843137 0.843137 0.843137
0.611765 0.611765 0.611765
0.6 0.6 0.6
0.584314 0.584314 0.584314
0.556863 0.556863 0.556863
0.623529 0.623529 0.623529
0.698039 0.698039 0.698039
0.768627 0.768627 0.768627
0.858824 0.858824 0.858824
0.909804 0.909804 0.909804
0.784314 0.784314 0.784314
0.776471 0.776471 0.776471
0.764706 0.764706 0.764706
0.74902 0.74902 0.74902
0.764706 0.764706 0.764706
0.815686 0.815686 0.815686
0.866667 0.866667 0.866667
0.909804 0.909804 0.909804
0.945098 0.945098 0.945098
0.913725 0.913725 0.913725
0.909804 0.909804 0.909804
0.901961 0.901961 0.901961
0.898039 0.898039 0.898039
0.894118 0.894118 0.894118
0.92549 0.92549 0.92549
0.952941 0.952941 0.952941
0.968627 0.968627 0.968627
0.976471 0.976471 0.976471
0.152941 0.152941 0.152941
0.156863 0.156863 0.156863
0.164706 0.164706 0.164706
0.168627 0.168627 0.168627
0.188235 0.188235 0.188235
0.215686 0.215686 0.215686
0.258824 0.258824 0.258824
0.321569 0.321569 0.321569
0.415686 0.415686 0.415686
0.160784 0.160784 0.160784
0.164706 0.164706 0.164706
0.172549 0.172549 0.172549
0.184314 0.184314 0.184314
0.207843 0.207843 0.207843
0.235294 0.235294 0.235294
0.278431 0.278431 0.278431
0.34902 0.34902 0.34902
0.443137 0.443137 0.443137
0.196078 0.196078 0.196078
0.188235 0.188235 0.188235
0.203922 0.203922 0.203922
0.231373 0.231373 0.231373
0.258824 0.258824 0.258824
0.290196 0.290196 0.290196
0.337255 0.337255 0.337255
0.411765 0.411765 0.411765
0.521569 0.521569 0.521569
0.243137 0.243137 0.243137
0.239216 0.239216 0.239216
0.239216 0.239216 0.239216
0.282353 0.282353 0.282353
0.34902 0.34902 0.34902
0.392157 0.392157 0.392157
0.45098 0.45098 0.45098
0.533333 0.533333 0.533333
0.635294 0.635294 0.635294
0.321569 0.321569 0.321569
0.317647 0.317647 0.317647
0.301961 0.301961 0.301961
0.341176 0.341176 0.341176
0.415686 0.415686 0.415686
0.52549 0.52549 0.52549
0.592157 0.592157 0.592157
0.67451 0.67451 0.67451
0.752941 0.752941 0.752941
0.443137 0.443137 0.443137
0.439216 0.439216 0.439216
0.419608 0.419608 0.419608
0.427451 0.427451 0.427451
0.505882 0.505882 0.505882
0.6 0.6 0.6
0.717647 0.717647 0.717647
0.780392 0.780392 0.780392
0.847059 0.847059 0.847059
0.615686 0.615686 0.615686
0.615686 0.615686 0.615686
0.6 0.6 0.6
0.576471 0.576471 0.576471
0.631373 0.631373 0.631373
0.701961 0.701961 0.701961
0.772549 0.772549 0.772549
0.862745 0.862745 0.862745
0.909804 0.909804 0.909804
0.784314 0.784314 0.784314
0.784314 0.784314 0.784314
0.776471 0.776471 0.776471
0.760784 0.760784 0.760784
0.768627 0.768627 0.768627
0.819608 0.819608 0.819608
0.870588 0.870588 0.870588
0.909804 0.909804 0.909804
0.94902 0.94902 0.94902
0.917647 0.917647 0.917647
0.913725 0.913725 0.913725
0.909804 0.909804 0.909804
0.905882 0.905882 0.905882
0.898039 0.898039 0.898039
0.929412 0.929412 0.929412
0.952941 0.952941 0.952941
0.972549 0.972549 0.972549
0.976471 0.976471 0.976471
0.160784 0.160784 0.160784
0.164706 0.164706 0.164706
0.184314 0.184314 0.184314
0.215686 0.215686 0.215686
0.231373 0.231373 0.231373
0.243137 0.243137 0.243137
0.266667 0.266667 0.266667
0.329412 0.329412 0.329412
0.431373 0.431373 0.431373
0.168627 0.168627 0.168627
0.176471 0.176471 0.176471
0.192157 0.192157 0.192157
0.227451 0.227451 0.227451
0.231373 0.231373 0.231373
0.247059 0.247059 0.247059
0.286275 0.286275 0.286275
0.352941 0.352941 0.352941
0.458824 0.458824 0.458824
0.203922 0.203922 0.203922
0.207843 0.207843 0.207843
0.215686 0.215686 0.215686
0.231373 0.231373 0.231373
0.254902 0.254902 0.254902
0.290196 0.290196 0.290196
0.341176 0.341176 0.341176
0.419608 0.419608 0.419608
0.529412 0.529412 0.529412
0.286275 0.286275 0.286275
0.282353 0.282353 0.282353
0.270588 0.270588 0.270588
0.298039 0.298039 0.298039
0.352941 0.352941 0.352941
0.396078 0.396078 0.396078
0.45098 0.45098 0.45098
0.537255 0.537255 0.537255
0.639216 0.639216 0.639216
0.376471 0.376471 0.376471
0.372549 0.372549 0.372549
0.352941 0.352941 0.352941
0.356863 0.356863 0.356863
0.431373 0.431373 0.431373
0.533333 0.533333 0.533333
0.6 0.6 0.6
0.678431 0.678431 0.678431
0.756863 0.756863 0.756863
0.501961 0.501961 0.501961
0.498039 0.498039 0.498039
0.478431 0.478431 0.478431
0.447059 0.447059 0.447059
0.52549 0.52549 0.52549
0.615686 0.615686 0.615686
0.721569 0.721569 0.721569
0.784314 0.784314 0.784314
0.85098 0.85098 0.85098
0.654902 0.654902 0.654902
0.654902 0.654902 0.654902
0.643137 0.643137 0.643137
0.619608 0.619608 0.619608
0.643137 0.643137 0.643137
0.713725 0.713725 0.713725
0.784314 0.784314 0.784314
0.870588 0.870588 0.870588
0.913725 0.913725 0.913725
0.807843 0.807843 0.807843
0.807843 0.807843 0.807843
0.8 0.8 0.8
0.788235 0.788235 0.788235
0.776471 0.776471 0.776471
0.827451 0.827451 0.827451
0.87451 0.87451 0.87451
0.917647 0.917647 0.917647
0.952941 0.952941 0.952941
0.92549 0.92549 0.92549
0.921569 0.921569 0.921569
0.921569 0.921569 0.921569
0.917647 0.917647 0.917647
0.909804 0.909804 0.909804
0.929412 0.929412 0.929412
0.952941 0.952941 0.952941
0.972549 0.972549 0.972549
0.976471 0.976471 0.976471
0.188235 0.188235 0.188235
0.196078 0.196078 0.196078
0.219608 0.219608 0.219608
0.247059 0.247059 0.247059
0.298039 0.298039 0.298039
0.376471 0.376471 0.376471
0.388235 0.388235 0.388235
0.419608 0.419608 0.419608
0.466667 0.466667 0.466667
0.2 0.2 0.2
0.207843 0.207843 0.207843
0.227451 0.227451 0.227451
0.254902 0.254902 0.254902
0.309804 0.309804 0.309804
0.368627 0.368627 0.368627
0.384314 0.384314 0.384314
0.423529 0.423529 0.423529
0.466667 0.466667 0.466667
0.211765 0.211765 0.211765
0.223529 0.223529 0.223529
0.25098 0.25098 0.25098
0.282353 0.282353 0.282353
0.345098 0.345098 0.345098
0.360784 0.360784 0.360784
0.380392 0.380392 0.380392
0.419608 0.419608 0.419608
0.52549 0.52549 0.52549
0.294118 0.294118 0.294118
0.298039 0.298039 0.298039
0.309804 0.309804 0.309804
0.32549 0.32549 0.32549
0.356863 0.356863 0.356863
0.396078 0.396078 0.396078
0.45098 0.45098 0.45098
0.533333 0.533333 0.533333
0.635294 0.635294 0.635294
0.45098 0.45098 0.45098
0.45098 0.45098 0.45098
0.443137 0.443137 0.443137
0.415686 0.415686 0.415686
0.462745 0.462745 0.462745
0.541176 0.541176 0.541176
0.603922 0.603922 0.603922
0.670588 0.670588 0.670588
0.74902 0.74902 0.74902
0.580392 0.580392 0.580392
0.584314 0.584314 0.584314
0.568627 0.568627 0.568627
0.541176 0.541176 0.541176
0.552941 0.552941 0.552941
0.635294 0.635294 0.635294
0.72549 0.72549 0.72549
0.788235 0.788235 0.788235
0.85098 0.85098 0.85098
0.713725 0.713725 0.713725
0.713725 0.713725 0.713725
0.701961 0.701961 0.701961
0.682353 0.682353 0.682353
0.662745 0.662745 0.662745
0.72549 0.72549 0.72549
0.792157 0.792157 0.792157
0.870588 0.870588 0.870588
0.913725 0.913725 0.913725
0.839216 0.839216 0.839216
0.839216 0.839216 0.839216
0.831373 0.831373 0.831373
0.823529 0.823529 0.823529
0.803922 0.803922 0.803922
0.831373 0.831373 0.831373
0.878431 0.878431 0.878431
0.917647 0.917647 0.917647
0.956863 0.956863 0.956863
0.937255 0.937255 0.937255
0.937255 0.937255 0.937255
0.937255 0.937255 0.937255
0.933333 0.933333 0.933333
0.92549 0.92549 0.92549
0.929412 0.929412 0.929412
0.952941 0.952941 0.952941
0.972549 0.972549 0.972549
0.976471 0.976471 0.976471
0.231373 0.231373 0.231373
0.239216 0.239216 0.239216
0.262745 0.262745 0.262745
0.301961 0.301961 0.301961
0.34902 0.34902 0.34902
0.403922 0.403922 0.403922
0.556863 0.556863 0.556863
0.611765 0.611765 0.611765
0.654902 0.654902 0.654902
0.243137 0.243137 0.243137
0.25098 0.25098 0.25098
0.27451 0.27451 0.27451
0.309804 0.309804 0.309804
0.352941 0.352941 0.352941
0.415686 0.415686 0.415686
0.564706 0.564706 0.564706
0.607843 0.607843 0.607843
0.658824 0.658824 0.658824
0.266667 0.266667 0.266667
0.278431 0.278431 0.278431
0.301961 0.301961 0.301961
0.337255 0.337255 0.337255
0.384314 0.384314 0.384314
0.454902 0.454902 0.454902
0.568627 0.568627 0.568627
0.607843 0.607843 0.607843
0.65098 0.65098 0.65098
0.301961 0.301961 0.301961
0.305882 0.305882 0.305882
0.321569 0.321569 0.321569
0.380392 0.380392 0.380392
0.431373 0.431373 0.431373
0.517647 0.517647 0.517647
0.560784 0.560784 0.560784
0.596078 0.596078 0.596078
0.635294 0.635294 0.635294
0.439216 0.439216 0.439216
0.447059 0.447059 0.447059
0.458824 0.458824 0.458824
0.47451 0.47451 0.47451
0.501961 0.501961 0.501961
0.541176 0.541176 0.541176
0.596078 0.596078 0.596078
0.658824 0.658824 0.658824
0.733333 0.733333 0.733333
0.654902 0.654902 0.654902
0.654902 0.654902 0.654902
0.65098 0.65098 0.65098
0.643137 0.643137 0.643137
0.611765 0.611765 0.611765
0.658824 0.658824 0.658824
0.733333 0.733333 0.733333
0.788235 0.788235 0.788235
0.843137 0.843137 0.843137
0.768627 0.768627 0.768627
0.772549 0.772549 0.772549
0.768627 0.768627 0.768627
0.756863 0.756863 0.756863
0.733333 0.733333 0.733333
0.745098 0.745098 0.745098
0.807843 0.807843 0.807843
0.878431 0.878431 0.878431
0.917647 0.917647 0.917647
0.878431 0.878431 0.878431
0.878431 0.878431 0.878431
0.87451 0.87451 0.87451
0.866667 0.866667 0.866667
0.85098 0.85098 0.85098
0.839216 0.839216 0.839216
0.886275 0.886275 0.886275
0.92549 0.92549 0.92549
0.960784 0.960784 0.960784
0.952941 0.952941 0.952941
0.952941 0.952941 0.952941
0.952941 0.952941 0.952941
0.94902 0.94902 0.94902
0.945098 0.945098 0.945098
0.937255 0.937255 0.937255
0.956863 0.956863 0.956863
0.972549 0.972549 0.972549
0.980392 0.980392 0.980392
0.294118 0.294118 0.294118
0.309804 0.309804 0.309804
0.337255 0.337255 0.337255
0.380392 0.380392 0.380392
0.447059 0.447059 0.447059
0.501961 0.501961 0.501961
0.556863 0.556863 0.556863
0.705882 0.705882 0.705882
0.807843 0.807843 0.807843
0.301961 0.301961 0.301961
0.317647 0.317647 0.317647
0.341176 0.341176 0.341176
0.384314 0.384314 0.384314
0.447059 0.447059 0.447059
0.505882 0.505882 0.505882
0.564706 0.564706 0.564706
0.713725 0.713725 0.713725
0.807843 0.807843 0.807843
0.333333 0.333333 0.333333
0.345098 0.345098 0.345098
0.368627 0.368627 0.368627
0.411765 0.411765 0.411765
0.470588 0.470588 0.470588
0.529412 0.529412 0.529412
0.596078 0.596078 0.596078
0.737255 0.737255 0.737255
0.807843 0.807843 0.807843
0.34902 0.34902 0.34902
0.368627 0.368627 0.368627
0.415686 0.415686 0.415686
0.458824 0.458824 0.458824
0.517647 0.517647 0.517647
0.572549 0.572549 0.572549
0.647059 0.647059 0.647059
0.764706 0.764706 0.764706
0.8 0.8 0.8
0.458824 0.458824 0.458824
0.462745 0.462745 0.462745
0.47451 0.47451 0.47451
0.494118 0.494118 0.494118
0.576471 0.576471 0.576471
0.631373 0.631373 0.631373
0.709804 0.709804 0.709804
0.752941 0.752941 0.752941
0.780392 0.780392 0.780392
0.635294 0.635294 0.635294
0.639216 0.639216 0.639216
0.643137 0.643137 0.643137
0.654902 0.654902 0.654902
0.670588 0.670588 0.670588
0.694118 0.694118 0.694118
0.729412 0.729412 0.729412
0.776471 0.776471 0.776471
0.827451 0.827451 0.827451
0.831373 0.831373 0.831373
0.827451 0.827451 0.827451
0.827451 0.827451 0.827451
0.819608 0.819608 0.819608
0.811765 0.811765 0.811765
0.792157 0.792157 0.792157
0.827451 0.827451 0.827451
0.882353 0.882353 0.882353
0.921569 0.921569 0.921569
0.913725 0.913725 0.913725
0.913725 0.913725 0.913725
0.913725 0.913725 0.913725
0.909804 0.909804 0.909804
0.901961 0.901961 0.901961
0.886275 0.886275 0.886275
0.898039 0.898039 0.898039
0.933333 0.933333 0.933333
0.964706 0.964706 0.964706
0.968627 0.968627 0.968627
0.968627 0.968627 0.968627
0.968627 0.968627 0.968627
0.968627 0.968627 0.968627
0.964706 0.964706 0.964706
0.960784 0.960784 0.960784
0.956863 0.956863 0.956863
0.976471 0.976471 0.976471
0.980392 0.980392 0.980392
0.423529 0.423529 0.423529
0.435294 0.435294 0.435294
0.458824 0.458824 0.458824
0.505882 0.505882 0.505882
0.568627 0.568627 0.568627
0.639216 0.639216 0.639216
0.682353 0.682353 0.682353
0.705882 0.705882 0.705882
0.831373 0.831373 0.831373
0.427451 0.427451 0.427451
0.439216 0.439216 0.439216
0.462745 0.462745 0.462745
0.509804 0.509804 0.509804
0.568627 0.568627 0.568627
0.639216 0.639216 0.639216
0.682353 0.682353 0.682353
0.717647 0.717647 0.717647
0.839216 0.839216 0.839216
0.454902 0.454902 0.454902
0.466667 0.466667 0.466667
0.490196 0.490196 0.490196
0.533333 0.533333 0.533333
0.592157 0.592157 0.592157
0.654902 0.654902 0.654902
0.701961 0.701961 0.701961
0.737255 0.737255 0.737255
0.85098 0.85098 0.85098
0.498039 0.498039 0.498039
0.513725 0.513725 0.513725
0.537255 0.537255 0.537255
0.576471 0.576471 0.576471
0.627451 0.627451 0.627451
0.686275 0.686275 0.686275
0.72549 0.72549 0.72549
0.768627 0.768627 0.768627
0.870588 0.870588 0.870588
0.490196 0.490196 0.490196
0.505882 0.505882 0.505882
0.54902 0.54902 0.54902
0.615686 0.615686 0.615686
0.666667 0.666667 0.666667
0.717647 0.717647 0.717647
0.760784 0.760784 0.760784
0.811765 0.811765 0.811765
0.898039 0.898039 0.898039
0.662745 0.662745 0.662745
0.666667 0.666667 0.666667
0.67451 0.67451 0.67451
0.682353 0.682353 0.682353
0.690196 0.690196 0.690196
0.760784 0.760784 0.760784
0.803922 0.803922 0.803922
0.862745 0.862745 0.862745
0.898039 0.898039 0.898039
0.8 0.8 0.8
0.803922 0.803922 0.803922
0.807843 0.807843 0.807843
0.811765 0.811765 0.811765
0.823529 0.823529 0.823529
0.835294 0.835294 0.835294
0.85098 0.85098 0.85098
0.878431 0.878431 0.878431
0.909804 0.909804 0.909804
0.941176 0.941176 0.941176
0.941176 0.941176 0.941176
0.941176 0.941176 0.941176
0.941176 0.941176 0.941176
0.937255 0.937255 0.937255
0.933333 0.933333 0.933333
0.921569 0.921569 0.921569
0.941176 0.941176 0.941176
0.964706 0.964706 0.964706
0.976471 0.976471 0.976471
0.976471 0.976471 0.976471
0.976471 0.976471 0.976471
0.976471 0.976471 0.976471
0.976471 0.976471 0.976471
0.976471 0.976471 0.976471
0.968627 0.968627 0.968627
0.976471 0.976471 0.976471
0.980392 0.980392 0.980392
0.615686 0.615686 0.615686
0.623529 0.623529 0.623529
0.647059 0.647059 0.647059
0.678431 0.678431 0.678431
0.721569 0.721569 0.721569
0.768627 0.768627 0.768627
0.815686 0.815686 0.815686
0.839216 0.839216 0.839216
0.854902 0.854902 0.854902
0.615686 0.615686 0.615686
0.627451 0.627451 0.627451
0.647059 0.647059 0.647059
0.678431 0.678431 0.678431
0.721569 0.721569 0.721569
0.768627 0.768627 0.768627
0.815686 0.815686 0.815686
0.843137 0.843137 0.843137
0.858824 0.858824 0.858824
0.635294 0.635294 0.635294
0.643137 0.643137 0.643137
0.662745 0.662745 0.662745
0.694118 0.694118 0.694118
0.733333 0.733333 0.733333
0.780392 0.780392 0.780392
0.823529 0.823529 0.823529
0.85098 0.85098 0.85098
0.866667 0.866667 0.866667
0.666667 0.666667 0.666667
0.67451 0.67451 0.67451
0.690196 0.690196 0.690196
0.717647 0.717647 0.717647
0.752941 0.752941 0.752941
0.796078 0.796078 0.796078
0.839216 0.839216 0.839216
0.862745 0.862745 0.862745
0.878431 0.878431 0.878431
0.670588 0.670588 0.670588
0.682353 0.682353 0.682353
0.713725 0.713725 0.713725
0.745098 0.745098 0.745098
0.776471 0.776471 0.776471
0.815686 0.815686 0.815686
0.854902 0.854902 0.854902
0.882353 0.882353 0.882353
0.901961 0.901961 0.901961
0.709804 0.709804 0.709804
0.709804 0.709804 0.709804
0.713725 0.713725 0.713725
0.737255 0.737255 0.737255
0.796078 0.796078 0.796078
0.839216 0.839216 0.839216
0.878431 0.878431 0.878431
0.901961 0.901961 0.901961
0.929412 0.929412 0.929412
0.843137 0.843137 0.843137
0.843137 0.843137 0.843137
0.843137 0.843137 0.843137
0.847059 0.847059 0.847059
0.85098 0.85098 0.85098
0.854902 0.854902 0.854902
0.901961 0.901961 0.901961
0.929412 0.929412 0.929412
0.956863 0.956863 0.956863
0.92549 0.92549 0.92549
0.92549 0.92549 0.92549
0.929412 0.929412 0.929412
0.929412 0.929412 0.929412
0.933333 0.933333 0.933333
0.937255 0.937255 0.937255
0.945098 0.945098 0.945098
0.952941 0.952941 0.952941
0.964706 0.964706 0.964706
0.980392 0.980392 0.980392
0.984314 0.984314 0.984314
0.984314 0.984314 0.984314
0.984314 0.984314 0.984314
0.984314 0.984314 0.984314
0.984314 0.984314 0.984314
0.984314 0.984314 0.984314
0.980392 0.980392 0.980392
0.980392 0.980392 0.980392
0.803922 0.803922 0.803922
0.815686 0.815686 0.815686
0.823529 0.823529 0.823529
0.843137 0.843137 0.843137
0.862745 0.862745 0.862745
0.890196 0.890196 0.890196
0.917647 0.917647 0.917647
0.937255 0.937255 0.937255
0.945098 0.945098 0.945098
0.811765 0.811765 0.811765
0.815686 0.815686 0.815686
0.827451 0.827451 0.827451
0.843137 0.843137 0.843137
0.866667 0.866667 0.866667
0.894118 0.894118 0.894118
0.917647 0.917647 0.917647
0.941176 0.941176 0.941176
0.945098 0.945098 0.945098
0.819608 0.819608 0.819608
0.823529 0.823529 0.823529
0.835294 0.835294 0.835294
0.85098 0.85098 0.85098
0.870588 0.870588 0.870588
0.898039 0.898039 0.898039
0.921569 0.921569 0.921569
0.945098 0.945098 0.945098
0.94902 0.94902 0.94902
0.831373 0.831373 0.831373
0.835294 0.835294 0.835294
0.847059 0.847059 0.847059
0.858824 0.858824 0.858824
0.882353 0.882353 0.882353
0.905882 0.905882 0.905882
0.929412 0.929412 0.929412
0.94902 0.94902 0.94902
0.952941 0.952941 0.952941
0.839216 0.839216 0.839216
0.847059 0.847059 0.847059
0.854902 0.854902 0.854902
0.870588 0.870588 0.870588
0.894118 0.894118 0.894118
0.913725 0.913725 0.913725
0.933333 0.933333 0.933333
0.952941 0.952941 0.952941
0.960784 0.960784 0.960784
0.819608 0.819608 0.819608
0.827451 0.827451 0.827451
0.843137 0.843137 0.843137
0.870588 0.870588 0.870588
0.901961 0.901961 0.901961
0.921569 0.921569 0.921569
0.941176 0.941176 0.941176
0.960784 0.960784 0.960784
0.964706 0.964706 0.964706
0.894118 0.894118 0.894118
0.894118 0.894118 0.894118
0.890196 0.890196 0.890196
0.890196 0.890196 0.890196
0.886275 0.886275 0.886275
0.92549 0.92549 0.92549
0.94902 0.94902 0.94902
0.964706 0.964706 0.964706
0.972549 0.972549 0.972549
0.956863 0.956863 0.956863
0.956863 0.956863 0.956863
0.956863 0.956863 0.956863
0.956863 0.956863 0.956863
0.956863 0.956863 0.956863
0.956863 0.956863 0.956863
0.956863 0.956863 0.956863
0.972549 0.972549 0.972549
0.980392 0.980392 0.980392
0.980392 0.980392 0.980392
0.980392 0.980392 0.980392
0.980392 0.980392 0.980392
0.980392 0.980392 0.980392
0.980392 0.980392 0.980392
0.984314 0.984314 0.984314
0.984314 0.984314 0.984314
0.984314 0.984314 0.984314
0.984314 0.984314 0.984314
