lut/TRI-X 400 ++.cube
#Generated by Picture Instruments - Look Creator
TITLE "TRI-X 400 ++"
LUT_3D_SIZE 17
0.152941 0.152941 0.152941
0.152941 0.152941 0.152941
0.152941 0.152941 0.152941
0.152941 0.152941 0.152941
0.152941 0.152941 0.152941
0.156863 0.156863 0.156863
0.160784 0.160784 0.160784
0.168627 0.168627 0.168627
0.180392 0.180392 0.180392
0.192157 0.192157 0.192157
0.207843 0.207843 0.207843
0.227451 0.227451 0.227451
0.247059 0.247059 0.247059
0.278431 0.278431 0.278431
0.313725 0.313725 0.313725
0.360784 0.360784 0.360784
0.407843 0.407843 0.407843
0.152941 0.152941 0.152941
0.152941 0.152941 0.152941
0.152941 0.152941 0.152941
0.156863 0.156863 0.156863
0.156863 0.156863 0.156863
0.160784 0.160784 0.160784
0.168627 0.168627 0.168627
0.176471 0.176471 0.176471
0.188235 0.188235 0.188235
0.2 0.2 0.2
0.215686 0.215686 0.215686
0.235294 0.235294 0.235294
0.258824 0.258824 0.258824
0.286275 0.286275 0.286275
0.32549 0.32549 0.32549
0.368627 0.368627 0.368627
0.419608 0.419608 0.419608
0.152941 0.152941 0.152941
0.152941 0.152941 0.152941
0.156863 0.156863 0.156863
0.164706 0.164706 0.164706
0.168627 0.168627 0.168627
0.172549 0.172549 0.172549
0.180392 0.180392 0.180392
0.188235 0.188235 0.188235
0.2 0.2 0.2
0.211765 0.211765 0.211765
0.227451 0.227451 0.227451
0.247059 0.247059 0.247059
0.270588 0.270588 0.270588
0.301961 0.301961 0.301961
0.341176 0.341176 0.341176
0.388235 0.388235 0.388235
0.435294 0.435294 0.435294
0.160784 0.160784 0.160784
0.160784 0.160784 0.160784
0.164706 0.164706 0.164706
0.172549 0.172549 0.172549
0.188235 0.188235 0.188235
0.192157 0.192157 0.192157
0.2 0.2 0.2
0.211765 0.211765 0.211765
0.219608 0.219608 0.219608
0.235294 0.235294 0.235294
0.25098 0.25098 0.25098
0.270588 0.270588 0.270588
0.298039 0.298039 0.298039
0.329412 0.329412 0.329412
0.368627 0.368627 0.368627
0.415686 0.415686 0.415686
0.470588 0.470588 0.470588
0.172549 0.172549 0.172549
0.172549 0.172549 0.172549
0.172549 0.172549 0.172549
0.180392 0.180392 0.180392
0.196078 0.196078 0.196078
0.219608 0.219608 0.219608
0.231373 0.231373 0.231373
0.239216 0.239216 0.239216
0.254902 0.254902 0.254902
0.266667 0.266667 0.266667
0.286275 0.286275 0.286275
0.305882 0.305882 0.305882
0.329412 0.329412 0.329412
0.364706 0.364706 0.364706
0.407843 0.407843 0.407843
0.458824 0.458824 0.458824
0.517647 0.517647 0.517647
0.196078 0.196078 0.196078
0.192157 0.192157 0.192157
0.188235 0.188235 0.188235
0.196078 0.196078 0.196078
0.211765 0.211765 0.211765
0.231373 0.231373 0.231373
0.266667 0.266667 0.266667
0.278431 0.278431 0.278431
0.294118 0.294118 0.294118
0.313725 0.313725 0.313725
0.333333 0.333333 0.333333
0.352941 0.352941 0.352941
0.380392 0.380392 0.380392
0.415686 0.415686 0.415686
0.462745 0.462745 0.462745
0.517647 0.517647 0.517647
0.572549 0.572549 0.572549
0.219608 0.219608 0.219608
0.219608 0.219608 0.219608
0.215686 0.215686 0.215686
0.215686 0.215686 0.215686
0.227451 0.227451 0.227451
0.247059 0.247059 0.247059
0.27451 0.27451 0.27451
0.317647 0.317647 0.317647
0.345098 0.345098 0.345098
0.364706 0.364706 0.364706
0.388235 0.388235 0.388235
0.415686 0.415686 0.415686
0.447059 0.447059 0.447059
0.482353 0.482353 0.482353
0.533333 0.533333 0.533333
0.584314 0.584314 0.584314
0.635294 0.635294 0.635294
0.254902 0.254902 0.254902
0.254902 0.254902 0.254902
0.25098 0.25098 0.25098
0.243137 0.243137 0.243137
0.254902 0.254902 0.254902
0.27451 0.27451 0.27451
0.301961 0.301961 0.301961
0.333333 0.333333 0.333333
0.384314 0.384314 0.384314
0.427451 0.427451 0.427451
0.45098 0.45098 0.45098
0.478431 0.478431 0.478431
0.517647 0.517647 0.517647
0.560784 0.560784 0.560784
0.603922 0.603922 0.603922
0.65098 0.65098 0.65098
0.694118 0.694118 0.694118
0.298039 0.298039 0.298039
0.298039 0.298039 0.298039
0.294118 0.294118 0.294118
0.286275 0.286275 0.286275
0.282353 0.282353 0.282353
0.301961 0.301961 0.301961
0.329412 0.329412 0.329412
0.364706 0.364706 0.364706
0.407843 0.407843 0.407843
0.458824 0.458824 0.458824
0.521569 0.521569 0.521569
0.552941 0.552941 0.552941
0.588235 0.588235 0.588235
0.627451 0.627451 0.627451
0.670588 0.670588 0.670588
0.713725 0.713725 0.713725
0.752941 0.752941 0.752941
0.352941 0.352941 0.352941
0.352941 0.352941 0.352941
0.34902 0.34902 0.34902
0.341176 0.341176 0.341176
0.329412 0.329412 0.329412
0.341176 0.341176 0.341176
0.368627 0.368627 0.368627
0.403922 0.403922 0.403922
0.443137 0.443137 0.443137
0.494118 0.494118 0.494118
0.54902 0.54902 0.54902
0.623529 0.623529 0.623529
0.65098 0.65098 0.65098
0.686275 0.686275 0.686275
0.72549 0.72549 0.72549
0.768627 0.768627 0.768627
0.803922 0.803922 0.803922
0.423529 0.423529 0.423529
0.423529 0.423529 0.423529
0.415686 0.415686 0.415686
0.407843 0.407843 0.407843
0.396078 0.396078 0.396078
0.388235 0.388235 0.388235
0.415686 0.415686 0.415686
0.45098 0.45098 0.45098
0.494118 0.494118 0.494118
0.541176 0.541176 0.541176
0.592157 0.592157 0.592157
0.639216 0.639216 0.639216
0.713725 0.713725 0.713725
0.745098 0.745098 0.745098
0.776471 0.776471 0.776471
0.811765 0.811765 0.811765
0.843137 0.843137 0.843137
0.513725 0.513725 0.513725
0.509804 0.509804 0.509804
0.505882 0.505882 0.505882
0.498039 0.498039 0.498039
0.486275 0.486275 0.486275
0.470588 0.470588 0.470588
0.482353 0.482353 0.482353
0.517647 0.517647 0.517647
0.556863 0.556863 0.556863
0.6 0.6 0.6
0.639216 0.639216 0.639216
0.682353 0.682353 0.682353
0.72549 0.72549 0.72549
0.792157 0.792157 0.792157
0.823529 0.823529 0.823529
0.85098 0.85098 0.85098
0.878431 0.878431 0.878431
0.611765 0.611765 0.611765
0.603922 0.603922 0.603922
0.6 0.6 0.6
0.592157 0.592157 0.592157
0.584314 0.584314 0.584314
0.568627 0.568627 0.568627
0.556863 0.556863 0.556863
0.588235 0.588235 0.588235
0.623529 0.623529 0.623529
0.658824 0.658824 0.658824
0.698039 0.698039 0.698039
0.733333 0.733333 0.733333
0.768627 0.768627 0.768627
0.803922 0.803922 0.803922
0.858824 0.858824 0.858824
0.886275 0.886275 0.886275
0.909804 0.909804 0.909804
0.701961 0.701961 0.701961
0.694118 0.694118 0.694118
0.690196 0.690196 0.690196
0.686275 0.686275 0.686275
0.678431 0.678431 0.678431
0.666667 0.666667 0.666667
0.654902 0.654902 0.654902
0.662745 0.662745 0.662745
0.694118 0.694118 0.694118
0.72549 0.72549 0.72549
0.756863 0.756863 0.756863
0.784314 0.784314 0.784314
0.815686 0.815686 0.815686
0.847059 0.847059 0.847059
0.870588 0.870588 0.870588
0.909804 0.909804 0.909804
0.933333 0.933333 0.933333
0.784314 0.784314 0.784314
0.780392 0.780392 0.780392
0.776471 0.776471 0.776471
0.772549 0.772549 0.772549
0.764706 0.764706 0.764706
0.756863 0.756863 0.756863
0.74902 0.74902 0.74902
0.741176 0.741176 0.741176
0.764706 0.764706 0.764706
0.792157 0.792157 0.792157
0.815686 0.815686 0.815686
0.839216 0.839216 0.839216
0.866667 0.866667 0.866667
0.890196 0.890196 0.890196
0.909804 0.909804 0.909804
0.92549 0.92549 0.92549
0.945098 0.945098 0.945098
0.858824 0.858824 0.858824
0.854902 0.854902 0.854902
0.85098 0.85098 0.85098
0.847059 0.847059 0.847059
0.843137 0.843137 0.843137
0.839216 0.839216 0.839216
0.835294 0.835294 0.835294
0.827451 0.827451 0.827451
0.835294 0.835294 0.835294
0.854902 0.854902 0.854902
0.87451 0.87451 0.87451
0.894118 0.894118 0.894118
0.913725 0.913725 0.913725
0.929412 0.929412 0.929412
0.945098 0.945098 0.945098
0.956863 0.956863 0.956863
0.960784 0.960784 0.960784
0.913725 0.913725 0.913725
0.909804 0.909804 0.909804
0.909804 0.909804 0.909804
0.905882 0.905882 0.905882
0.901961 0.901961 0.901961
0.901961 0.901961 0.901961
0.898039 0.898039 0.898039
0.898039 0.898039 0.898039
0.894118 0.894118 0.894118
0.913725 0.913725 0.913725
0.92549 0.92549 0.92549
0.941176 0.941176 0.941176
0.952941 0.952941 0.952941
0.960784 0.960784 0.960784
0.968627 0.968627 0.968627
0.976471 0.976471 0.976471
0.976471 0.976471 0.976471
0.152941 0.152941 0.152941
0.152941 0.152941 0.152941
0.152941 0.152941 0.152941
0.152941 0.152941 0.152941
0.156863 0.156863 0.156863
0.156863 0.156863 0.156863
0.164706 0.164706 0.164706
0.172549 0.172549 0.172549
0.184314 0.184314 0.184314
0.196078 0.196078 0.196078
0.211765 0.211765 0.211765
0.231373 0.231373 0.231373
0.25098 0.25098 0.25098
0.282353 0.282353 0.282353
0.317647 0.317647 0.317647
0.364706 0.364706 0.364706
0.415686 0.415686 0.415686
0.152941 0.152941 0.152941
0.152941 0.152941 0.152941
0.152941 0.152941 0.152941
0.156863 0.156863 0.156863
0.160784 0.160784 0.160784
0.164706 0.164706 0.164706
0.168627 0.168627 0.168627
0.180392 0.180392 0.180392
0.192157 0.192157 0.192157
0.203922 0.203922 0.203922
0.219608 0.219608 0.219608
0.239216 0.239216 0.239216
0.262745 0.262745 0.262745
0.290196 0.290196 0.290196
0.32549 0.32549 0.32549
0.372549 0.372549 0.372549
0.423529 0.423529 0.423529
0.156863 0.156863 0.156863
0.156863 0.156863 0.156863
0.160784 0.160784 0.160784
0.164706 0.164706 0.164706
0.168627 0.168627 0.168627
0.176471 0.176471 0.176471
0.184314 0.184314 0.184314
0.192157 0.192157 0.192157
0.203922 0.203922 0.203922
0.215686 0.215686 0.215686
0.231373 0.231373 0.231373
0.25098 0.25098 0.25098
0.27451 0.27451 0.27451
0.305882 0.305882 0.305882
0.341176 0.341176 0.341176
0.388235 0.388235 0.388235
0.443137 0.443137 0.443137
0.168627 0.168627 0.168627
0.164706 0.164706 0.164706
0.164706 0.164706 0.164706
0.176471 0.176471 0.176471
0.188235 0.188235 0.188235
0.196078 0.196078 0.196078
0.203922 0.203922 0.203922
0.211765 0.211765 0.211765
0.223529 0.223529 0.223529
0.239216 0.239216 0.239216
0.254902 0.254902 0.254902
0.27451 0.27451 0.27451
0.298039 0.298039 0.298039
0.329412 0.329412 0.329412
0.368627 0.368627 0.368627
0.419608 0.419608 0.419608
0.47451 0.47451 0.47451
0.180392 0.180392 0.180392
0.180392 0.180392 0.180392
0.176471 0.176471 0.176471
0.184314 0.184314 0.184314
0.2 0.2 0.2
0.223529 0.223529 0.223529
0.231373 0.231373 0.231373
0.243137 0.243137 0.243137
0.254902 0.254902 0.254902
0.270588 0.270588 0.270588
0.286275 0.286275 0.286275
0.305882 0.305882 0.305882
0.333333 0.333333 0.333333
0.368627 0.368627 0.368627
0.407843 0.407843 0.407843
0.462745 0.462745 0.462745
0.521569 0.521569 0.521569
0.203922 0.203922 0.203922
0.2 0.2 0.2
0.196078 0.196078 0.196078
0.2 0.2 0.2
0.215686 0.215686 0.215686
0.235294 0.235294 0.235294
0.266667 0.266667 0.266667
0.278431 0.278431 0.278431
0.298039 0.298039 0.298039
0.317647 0.317647 0.317647
0.333333 0.333333 0.333333
0.356863 0.356863 0.356863
0.384314 0.384314 0.384314
0.419608 0.419608 0.419608
0.462745 0.462745 0.462745
0.517647 0.517647 0.517647
0.576471 0.576471 0.576471
0.231373 0.231373 0.231373
0.227451 0.227451 0.227451
0.223529 0.223529 0.223529
0.219608 0.219608 0.219608
0.231373 0.231373 0.231373
0.25098 0.25098 0.25098
0.278431 0.278431 0.278431
0.32549 0.32549 0.32549
0.345098 0.345098 0.345098
0.364706 0.364706 0.364706
0.388235 0.388235 0.388235
0.419608 0.419608 0.419608
0.447059 0.447059 0.447059
0.486275 0.486275 0.486275
0.533333 0.533333 0.533333
0.584314 0.584314 0.584314
0.635294 0.635294 0.635294
0.262745 0.262745 0.262745
0.262745 0.262745 0.262745
0.258824 0.258824 0.258824
0.254902 0.254902 0.254902
0.258824 0.258824 0.258824
0.278431 0.278431 0.278431
0.305882 0.305882 0.305882
0.337255 0.337255 0.337255
0.388235 0.388235 0.388235
0.427451 0.427451 0.427451
0.45098 0.45098 0.45098
0.482353 0.482353 0.482353
0.521569 0.521569 0.521569
0.564706 0.564706 0.564706
0.603922 0.603922 0.603922
0.65098 0.65098 0.65098
0.698039 0.698039 0.698039
0.305882 0.305882 0.305882
0.305882 0.305882 0.305882
0.301961 0.301961 0.301961
0.298039 0.298039 0.298039
0.286275 0.286275 0.286275
0.305882 0.305882 0.305882
0.333333 0.333333 0.333333
0.368627 0.368627 0.368627
0.407843 0.407843 0.407843
0.466667 0.466667 0.466667
0.52549 0.52549 0.52549
0.552941 0.552941 0.552941
0.588235 0.588235 0.588235
0.627451 0.627451 0.627451
0.670588 0.670588 0.670588
0.713725 0.713725 0.713725
0.752941 0.752941 0.752941
0.360784 0.360784 0.360784
0.360784 0.360784 0.360784
0.356863 0.356863 0.356863
0.34902 0.34902 0.34902
0.337255 0.337255 0.337255
0.345098 0.345098 0.345098
0.372549 0.372549 0.372549
0.403922 0.403922 0.403922
0.447059 0.447059 0.447059
0.498039 0.498039 0.498039
0.552941 0.552941 0.552941
0.623529 0.623529 0.623529
0.654902 0.654902 0.654902
0.686275 0.686275 0.686275
0.72549 0.72549 0.72549
0.768627 0.768627 0.768627
0.803922 0.803922 0.803922
0.427451 0.427451 0.427451
0.427451 0.427451 0.427451
0.423529 0.423529 0.423529
0.415686 0.415686 0.415686
0.407843 0.407843 0.407843
0.392157 0.392157 0.392157
0.423529 0.423529 0.423529
0.454902 0.454902 0.454902
0.498039 0.498039 0.498039
0.545098 0.545098 0.545098
0.596078 0.596078 0.596078
0.643137 0.643137 0.643137
0.713725 0.713725 0.713725
0.745098 0.745098 0.745098
0.776471 0.776471 0.776471
0.811765 0.811765 0.811765
0.843137 0.843137 0.843137
0.513725 0.513725 0.513725
0.513725 0.513725 0.513725
0.509804 0.509804 0.509804
0.501961 0.501961 0.501961
0.494118 0.494118 0.494118
0.478431 0.478431 0.478431
0.486275 0.486275 0.486275
0.521569 0.521569 0.521569
0.560784 0.560784 0.560784
0.6 0.6 0.6
0.643137 0.643137 0.643137
0.686275 0.686275 0.686275
0.729412 0.729412 0.729412
0.796078 0.796078 0.796078
0.823529 0.823529 0.823529
0.854902 0.854902 0.854902
0.878431 0.878431 0.878431
0.603922 0.603922 0.603922
0.603922 0.603922 0.603922
0.603922 0.603922 0.603922
0.596078 0.596078 0.596078
0.588235 0.588235 0.588235
0.576471 0.576471 0.576471
0.560784 0.560784 0.560784
0.592157 0.592157 0.592157
0.627451 0.627451 0.627451
0.662745 0.662745 0.662745
0.698039 0.698039 0.698039
0.733333 0.733333 0.733333
0.772549 0.772549 0.772549
0.803922 0.803922 0.803922
0.858824 0.858824 0.858824
0.890196 0.890196 0.890196
0.909804 0.909804 0.909804
0.694118 0.694118 0.694118
0.694118 0.694118 0.694118
0.694118 0.694118 0.694118
0.686275 0.686275 0.686275
0.682353 0.682353 0.682353
0.670588 0.670588 0.670588
0.662745 0.662745 0.662745
0.666667 0.666667 0.666667
0.694118 0.694118 0.694118
0.72549 0.72549 0.72549
0.756863 0.756863 0.756863
0.792157 0.792157 0.792157
0.819608 0.819608 0.819608
0.847059 0.847059 0.847059
0.87451 0.87451 0.87451
0.913725 0.913725 0.913725
0.933333 0.933333 0.933333
0.776471 0.776471 0.776471
0.780392 0.780392 0.780392
0.776471 0.776471 0.776471
0.772549 0.772549 0.772549
0.768627 0.768627 0.768627
0.764706 0.764706 0.764706
0.756863 0.756863 0.756863
0.745098 0.745098 0.745098
0.768627 0.768627 0.768627
0.792157 0.792157 0.792157
0.819608 0.819608 0.819608
0.843137 0.843137 0.843137
0.866667 0.866667 0.866667
0.890196 0.890196 0.890196
0.909804 0.909804 0.909804
0.929412 0.929412 0.929412
0.945098 0.945098 0.945098
0.854902 0.854902 0.854902
0.854902 0.854902 0.854902
0.85098 0.85098 0.85098
0.85098 0.85098 0.85098
0.847059 0.847059 0.847059
0.843137 0.843137 0.843137
0.839216 0.839216 0.839216
0.831373 0.831373 0.831373
0.835294 0.835294 0.835294
0.854902 0.854902 0.854902
0.878431 0.878431 0.878431
0.894118 0.894118 0.894118
0.913725 0.913725 0.913725
0.929412 0.929412 0.929412
0.945098 0.945098 0.945098
0.956863 0.956863 0.956863
0.964706 0.964706 0.964706
0.913725 0.913725 0.913725
0.913725 0.913725 0.913725
0.909804 0.909804 0.909804
0.909804 0.909804 0.909804
0.905882 0.905882 0.905882
0.901961 0.901961 0.901961
0.901961 0.901961 0.901961
0.898039 0.898039 0.898039
0.894118 0.894118 0.894118
0.913725 0.913725 0.913725
0.92549 0.92549 0.92549
0.941176 0.941176 0.941176
0.952941 0.952941 0.952941
0.960784 0.960784 0.960784
0.968627 0.968627 0.968627
0.976471 0.976471 0.976471
0.976471 0.976471 0.976471
0.152941 0.152941 0.152941
0.152941 0.152941 0.152941
0.156863 0.156863 0.156863
0.160784 0.160784 0.160784
0.164706 0.164706 0.164706
0.168627 0.168627 0.168627
0.168627 0.168627 0.168627
0.176471 0.176471 0.176471
0.188235 0.188235 0.188235
0.2 0.2 0.2
0.215686 0.215686 0.215686
0.235294 0.235294 0.235294
0.258824 0.258824 0.258824
0.286275 0.286275 0.286275
0.321569 0.321569 0.321569
0.368627 0.368627 0.368627
0.415686 0.415686 0.415686
0.152941 0.152941 0.152941
0.156863 0.156863 0.156863
0.156863 0.156863 0.156863
0.164706 0.164706 0.164706
0.164706 0.164706 0.164706
0.168627 0.168627 0.168627
0.172549 0.172549 0.172549
0.180392 0.180392 0.180392
0.192157 0.192157 0.192157
0.207843 0.207843 0.207843
0.223529 0.223529 0.223529
0.243137 0.243137 0.243137
0.266667 0.266667 0.266667
0.294118 0.294118 0.294118
0.333333 0.333333 0.333333
0.376471 0.376471 0.376471
0.423529 0.423529 0.423529
0.160784 0.160784 0.160784
0.160784 0.160784 0.160784
0.164706 0.164706 0.164706
0.164706 0.164706 0.164706
0.172549 0.172549 0.172549
0.176471 0.176471 0.176471
0.184314 0.184314 0.184314
0.196078 0.196078 0.196078
0.207843 0.207843 0.207843
0.219608 0.219608 0.219608
0.235294 0.235294 0.235294
0.254902 0.254902 0.254902
0.278431 0.278431 0.278431
0.309804 0.309804 0.309804
0.34902 0.34902 0.34902
0.392157 0.392157 0.392157
0.443137 0.443137 0.443137
0.176471 0.176471 0.176471
0.176471 0.176471 0.176471
0.172549 0.172549 0.172549
0.180392 0.180392 0.180392
0.188235 0.188235 0.188235
0.196078 0.196078 0.196078
0.203922 0.203922 0.203922
0.215686 0.215686 0.215686
0.227451 0.227451 0.227451
0.239216 0.239216 0.239216
0.258824 0.258824 0.258824
0.278431 0.278431 0.278431
0.301961 0.301961 0.301961
0.333333 0.333333 0.333333
0.372549 0.372549 0.372549
0.423529 0.423529 0.423529
0.47451 0.47451 0.47451
0.196078 0.196078 0.196078
0.192157 0.192157 0.192157
0.188235 0.188235 0.188235
0.188235 0.188235 0.188235
0.203922 0.203922 0.203922
0.223529 0.223529 0.223529
0.231373 0.231373 0.231373
0.247059 0.247059 0.247059
0.258824 0.258824 0.258824
0.270588 0.270588 0.270588
0.290196 0.290196 0.290196
0.309804 0.309804 0.309804
0.337255 0.337255 0.337255
0.368627 0.368627 0.368627
0.411765 0.411765 0.411765
0.466667 0.466667 0.466667
0.521569 0.521569 0.521569
0.215686 0.215686 0.215686
0.215686 0.215686 0.215686
0.211765 0.211765 0.211765
0.203922 0.203922 0.203922
0.219608 0.219608 0.219608
0.239216 0.239216 0.239216
0.266667 0.266667 0.266667
0.282353 0.282353 0.282353
0.298039 0.298039 0.298039
0.317647 0.317647 0.317647
0.337255 0.337255 0.337255
0.356863 0.356863 0.356863
0.384314 0.384314 0.384314
0.419608 0.419608 0.419608
0.466667 0.466667 0.466667
0.521569 0.521569 0.521569
0.576471 0.576471 0.576471
0.243137 0.243137 0.243137
0.243137 0.243137 0.243137
0.239216 0.239216 0.239216
0.231373 0.231373 0.231373
0.239216 0.239216 0.239216
0.258824 0.258824 0.258824
0.282353 0.282353 0.282353
0.329412 0.329412 0.329412
0.34902 0.34902 0.34902
0.368627 0.368627 0.368627
0.392157 0.392157 0.392157
0.419608 0.419608 0.419608
0.45098 0.45098 0.45098
0.486275 0.486275 0.486275
0.533333 0.533333 0.533333
0.588235 0.588235 0.588235
0.635294 0.635294 0.635294
0.278431 0.278431 0.278431
0.278431 0.278431 0.278431
0.27451 0.27451 0.27451
0.266667 0.266667 0.266667
0.262745 0.262745 0.262745
0.282353 0.282353 0.282353
0.309804 0.309804 0.309804
0.341176 0.341176 0.341176
0.396078 0.396078 0.396078
0.431373 0.431373 0.431373
0.454902 0.454902 0.454902
0.486275 0.486275 0.486275
0.52549 0.52549 0.52549
0.564706 0.564706 0.564706
0.603922 0.603922 0.603922
0.65098 0.65098 0.65098
0.698039 0.698039 0.698039
0.321569 0.321569 0.321569
0.321569 0.321569 0.321569
0.317647 0.317647 0.317647
0.309804 0.309804 0.309804
0.301961 0.301961 0.301961
0.313725 0.313725 0.313725
0.341176 0.341176 0.341176
0.372549 0.372549 0.372549
0.415686 0.415686 0.415686
0.470588 0.470588 0.470588
0.52549 0.52549 0.52549
0.556863 0.556863 0.556863
0.592157 0.592157 0.592157
0.631373 0.631373 0.631373
0.67451 0.67451 0.67451
0.713725 0.713725 0.713725
0.752941 0.752941 0.752941
0.372549 0.372549 0.372549
0.372549 0.372549 0.372549
0.372549 0.372549 0.372549
0.364706 0.364706 0.364706
0.352941 0.352941 0.352941
0.34902 0.34902 0.34902
0.376471 0.376471 0.376471
0.411765 0.411765 0.411765
0.454902 0.454902 0.454902
0.501961 0.501961 0.501961
0.556863 0.556863 0.556863
0.627451 0.627451 0.627451
0.654902 0.654902 0.654902
0.690196 0.690196 0.690196
0.729412 0.729412 0.729412
0.768627 0.768627 0.768627
0.807843 0.807843 0.807843
0.443137 0.443137 0.443137
0.443137 0.443137 0.443137
0.439216 0.439216 0.439216
0.431373 0.431373 0.431373
0.419608 0.419608 0.419608
0.407843 0.407843 0.407843
0.427451 0.427451 0.427451
0.462745 0.462745 0.462745
0.505882 0.505882 0.505882
0.552941 0.552941 0.552941
0.6 0.6 0.6
0.647059 0.647059 0.647059
0.717647 0.717647 0.717647
0.745098 0.745098 0.745098
0.780392 0.780392 0.780392
0.811765 0.811765 0.811765
0.847059 0.847059 0.847059
0.529412 0.529412 0.529412
0.529412 0.529412 0.529412
0.52549 0.52549 0.52549
0.517647 0.517647 0.517647
0.505882 0.505882 0.505882
0.494118 0.494118 0.494118
0.490196 0.490196 0.490196
0.52549 0.52549 0.52549
0.564706 0.564706 0.564706
0.607843 0.607843 0.607843
0.647059 0.647059 0.647059
0.690196 0.690196 0.690196
0.729412 0.729412 0.729412
0.796078 0.796078 0.796078
0.823529 0.823529 0.823529
0.854902 0.854902 0.854902
0.882353 0.882353 0.882353
0.615686 0.615686 0.615686
0.615686 0.615686 0.615686
0.615686 0.615686 0.615686
0.607843 0.607843 0.607843
0.6 0.6 0.6
0.588235 0.588235 0.588235
0.576471 0.576471 0.576471
0.596078 0.596078 0.596078
0.631373 0.631373 0.631373
0.666667 0.666667 0.666667
0.701961 0.701961 0.701961
0.737255 0.737255 0.737255
0.772549 0.772549 0.772549
0.807843 0.807843 0.807843
0.862745 0.862745 0.862745
0.890196 0.890196 0.890196
0.909804 0.909804 0.909804
0.701961 0.701961 0.701961
0.701961 0.701961 0.701961
0.701961 0.701961 0.701961
0.698039 0.698039 0.698039
0.690196 0.690196 0.690196
0.682353 0.682353 0.682353
0.670588 0.670588 0.670588
0.670588 0.670588 0.670588
0.698039 0.698039 0.698039
0.729412 0.729412 0.729412
0.760784 0.760784 0.760784
0.792157 0.792157 0.792157
0.819608 0.819608 0.819608
0.847059 0.847059 0.847059
0.87451 0.87451 0.87451
0.913725 0.913725 0.913725
0.937255 0.937255 0.937255
0.784314 0.784314 0.784314
0.784314 0.784314 0.784314
0.784314 0.784314 0.784314
0.780392 0.780392 0.780392
0.776471 0.776471 0.776471
0.768627 0.768627 0.768627
0.760784 0.760784 0.760784
0.752941 0.752941 0.752941
0.768627 0.768627 0.768627
0.796078 0.796078 0.796078
0.819608 0.819608 0.819608
0.847059 0.847059 0.847059
0.870588 0.870588 0.870588
0.890196 0.890196 0.890196
0.909804 0.909804 0.909804
0.929412 0.929412 0.929412
0.94902 0.94902 0.94902
0.858824 0.858824 0.858824
0.858824 0.858824 0.858824
0.858824 0.858824 0.858824
0.854902 0.854902 0.854902
0.85098 0.85098 0.85098
0.85098 0.85098 0.85098
0.843137 0.843137 0.843137
0.839216 0.839216 0.839216
0.839216 0.839216 0.839216
0.858824 0.858824 0.858824
0.878431 0.878431 0.878431
0.898039 0.898039 0.898039
0.913725 0.913725 0.913725
0.929412 0.929412 0.929412
0.945098 0.945098 0.945098
0.956863 0.956863 0.956863
0.964706 0.964706 0.964706
0.917647 0.917647 0.917647
0.913725 0.913725 0.913725
0.913725 0.913725 0.913725
0.913725 0.913725 0.913725
0.909804 0.909804 0.909804
0.909804 0.909804 0.909804
0.905882 0.905882 0.905882
0.901961 0.901961 0.901961
0.898039 0.898039 0.898039
0.913725 0.913725 0.913725
0.929412 0.929412 0.929412
0.941176 0.941176 0.941176
0.952941 0.952941 0.952941
0.960784 0.960784 0.960784
0.972549 0.972549 0.972549
0.976471 0.976471 0.976471
0.976471 0.976471 0.976471
0.152941 0.152941 0.152941
0.156863 0.156863 0.156863
0.160784 0.160784 0.160784
0.164706 0.164706 0.164706
0.172549 0.172549 0.172549
0.192157 0.192157 0.192157
0.192157 0.192157 0.192157
0.196078 0.196078 0.196078
0.2 0.2 0.2
0.207843 0.207843 0.207843
0.219608 0.219608 0.219608
0.239216 0.239216 0.239216
0.262745 0.262745 0.262745
0.290196 0.290196 0.290196
0.32549 0.32549 0.32549
0.372549 0.372549 0.372549
0.423529 0.423529 0.423529
0.156863 0.156863 0.156863
0.160784 0.160784 0.160784
0.164706 0.164706 0.164706
0.168627 0.168627 0.168627
0.180392 0.180392 0.180392
0.192157 0.192157 0.192157
0.192157 0.192157 0.192157
0.196078 0.196078 0.196078
0.2 0.2 0.2
0.211765 0.211765 0.211765
0.227451 0.227451 0.227451
0.247059 0.247059 0.247059
0.270588 0.270588 0.270588
0.298039 0.298039 0.298039
0.337255 0.337255 0.337255
