lut/TRI-X 400 ++.cube
#Generated by Picture Instruments - Look Creator
TITLE "TRI-X 400 ++"
LUT_3D_SIZE 5
0.152941 0.152941 0.152941
0.152941 0.152941 0.152941
0.180392 0.180392 0.180392
0.247059 0.247059 0.247059
0.407843 0.407843 0.407843
0.172549 0.172549 0.172549
0.196078 0.196078 0.196078
0.254902 0.254902 0.254902
0.329412 0.329412 0.329412
0.517647 0.517647 0.517647
0.298039 0.298039 0.298039
0.282353 0.282353 0.282353
0.407843 0.407843 0.407843
0.588235 0.588235 0.588235
0.752941 0.752941 0.752941
0.611765 0.611765 0.611765
0.584314 0.584314 0.584314
0.623529 0.623529 0.623529
0.768627 0.768627 0.768627
0.909804 0.909804 0.909804
0.913725 0.913725 0.913725
0.901961 0.901961 0.901961
0.894118 0.894118 0.894118
0.952941 0.952941 0.952941
0.976471 0.976471 0.976471
0.160784 0.160784 0.160784
0.184314 0.184314 0.184314
0.231373 0.231373 0.231373
0.266667 0.266667 0.266667
0.431373 0.431373 0.431373
0.203922 0.203922 0.203922
0.215686 0.215686 0.215686
0.254902 0.254902 0.254902
0.341176 0.341176 0.341176
0.529412 0.529412 0.529412
0.376471 0.376471 0.376471
0.352941 0.352941 0.352941
0.431373 0.431373 0.431373
0.6 0.6 0.6
0.756863 0.756863 0.756863
0.654902 0.654902 0.654902
0.643137 0.643137 0.643137
0.643137 0.643137 0.643137
0.784314 0.784314 0.784314
0.913725 0.913725 0.913725
0.92549 0.92549 0.92549
0.921569 0.921569 0.921569
0.909804 0.909804 0.909804
0.952941 0.952941 0.952941
0.976471 0.976471 0.976471
0.231373 0.231373 0.231373
0.262745 0.262745 0.262745
0.34902 0.34902 0.34902
0.556863 0.556863 0.556863
0.654902 0.654902 0.654902
0.266667 0.266667 0.266667
0.301961 0.301961 0.301961
0.384314 0.384314 0.384314
0.568627 0.568627 0.568627
0.65098 0.65098 0.65098
0.439216 0.439216 0.439216
0.458824 0.458824 0.458824
0.501961 0.501961 0.501961
0.596078 0.596078 0.596078
0.733333 0.733333 0.733333
0.768627 0.768627 0.768627
0.768627 0.768627 0.768627
0.733333 0.733333 0.733333
0.807843 0.807843 0.807843
0.917647 0.917647 0.917647
0.952941 0.952941 0.952941
0.952941 0.952941 0.952941
0.945098 0.945098 0.945098
0.956863 0.956863 0.956863
0.980392 0.980392 0.980392
0.423529 0.423529 0.423529
0.458824 0.458824 0.458824
0.568627 0.568627 0.568627
0.682353 0.682353 0.682353
0.831373 0.831373 0.831373
0.454902 0.454902 0.454902
0.490196 0.490196 0.490196
0.592157 0.592157 0.592157
0.701961 0.701961 0.701961
0.85098 0.85098 0.85098
0.490196 0.490196 0.490196
0.54902 0.54902 0.54902
0.666667 0.666667 0.666667
0.760784 0.760784 0.760784
0.898039 0.898039 0.898039
0.8 0.8 0.8
0.807843 0.807843 0.807843
0.823529 0.823529 0.823529
0.85098 0.85098 0.85098
0.909804 0.909804 0.909804
0.976471 0.976471 0.976471
0.976471 0.976471 0.976471
0.976471 0.976471 0.976471
0.968627 0.968627 0.968627
0.980392 0.980392 0.980392
0.803922 0.803922 0.803922
0.823529 0.823529 0.823529
0.862745 0.862745 0.862745
0.917647 0.917647 0.917647
0.945098 0.945098 0.945098
0.819608 0.819608 0.819608
0.835294 0.835294 0.835294
0.870588 0.870588 0.870588
0.921569 0.921569 0.921569
0.94902 0.94902 0.94902
0.839216 0.839216 0.839216
0.854902 0.854902 0.854902
0.894118 0.894118 0.894118
0.933333 0.933333 0.933333
0.960784 0.960784 0.960784
0.894118 0.894118 0.894118
0.890196 0.890196 0.890196
0.886275 0.886275 0.886275
0.94902 0.94902 0.94902
0.972549 0.972549 0.972549
0.980392 0.980392 0.980392
0.980392 0.980392 0.980392
0.980392 0.980392 0.980392
0.984314 0.984314 0.984314
0.984314 0.984314 0.984314
